Films/Agfa Vista 100.costyle
<?xml version="1.0"?>
<SL Engine="1100">
	<E K="ColorBalance" V="1;0.967063367366791;0.903481721878052" />
	<E K="ColorBalanceHighlight" V="0.983279228210449;0.962021052837372;1" />
	<E K="ColorBalanceMidtone" V="1;0.968763887882233;0.955900192260742" />
	<E K="ColorBalanceShadow" V="1;0.999994695186615;0.999989986419678" />
	<E K="ColorCorrections" V="1,1,1,6,-36,0,127,63,119,-24.822566986084,24.822566986084,-50,50,20,0,0,0,0;1,1,1,4,-36,-0.150000005960464,67,63,127,-17.9782791137695,17.9782791137695,-50,50,20,0,0,0,0;1,1,1,0,-26.3999996185303,-0.25,63,118,127,-18.3223114013672,18.3223114013672,-50,50,20,0,0,0,0;1,1,1,-5,-28,0,69,127,63,-34.9258422851562,34.9258422851562,-50,50,20,0,0,0,0;1,1,1,1,-16,0.100000001490116,127,115,63,-9.54243850708008,9.54243850708008,-50,50,20,0,0,0,0;1,1,1,1,-16,0.0500000007450581,127,68,63,-14.4085693359375,14.4085693359375,-50,50,20,0,0,0,0;0,1,1,7,-10,0,0,0,0,10,-10,0,0,20,0,0,0,0;1,1,0,-30,10,0.300000011920929,40,61,82,-20,20,-35.6097564697266,35.6097564697266,20,0,0,0,0;1,1,0,-4,15,0.0799999982118607,135,55,74,-20,20,-39.6296310424805,39.6296310424805,20,0,0,0,0;1,1,0,-6,4,0,204,181,138,-20,20,-26.1764698028564,26.1764698028564,20,0,0,0,0" />
	<E K="Contrast" V="-20" />
	<E K="FilmGrainAmount" V="60" />
	<E K="FilmGrainDensity" V="0" />
	<E K="FilmGrainGranularity" V="24" />
	<E K="FilmGrainType" V="2" />
	<E K="GradationCurve" V="0,0.0156862754374743;0.121118322014809,0.173548012971878;0.291519433259964,0.340494781732559;0.485865712165833,0.488113850355148;0.598939955234528,0.592875719070435;0.741432845592499,0.71472442150116;0.891006767749786,0.825648844242096;1,0.933333337306976" />
	<E K="GradationCurveBlue" V="0,0;0.140739977359772,0.040494792163372;0.29807385802269,0.180550813674927;0.477205008268356,0.462903738021851;0.715506136417389,0.793716073036194;0.878867864608765,0.911923348903656;1,1" />
	<E K="GradationCurveGreen" V="0,0;0.142770037055016,0.0410550162196159;0.296216994524002,0.179150253534317;0.485477715730667,0.474108219146729;0.702923834323883,0.773828148841858;0.867837607860565,0.892595648765564;1,1" />
	<E K="GradationCurveRed" V="0,0;0.15569181740284,0.035172663629055;0.296604990959167,0.181391149759293;0.495247066020966,0.47859001159668;0.714411497116089,0.799878537654877;1,1" />
	<E K="GradationCurveY" V="0,0;1,1" />
	<E K="HighlightRecoveryEx" V="-10" />
	<E K="Name" V="Agfa Vista 100" />
	<E K="Saturation" V="0" />
	<E K="ShadowRecovery" V="10" />
	<E K="StyleSource" V="Styles" />
	<E K="TargetHighlight" V="1;1;1;1" />
	<E K="TargetShadow" V="0;0;0;0" />
	<E K="UUID" V="8309AE87-3C4C-4F37-8DBC-42AF050B3805" />
</SL>
