Films/Agfa Vista 800.costyle
<?xml version="1.0"?>
<SL Engine="1300">
	<E K="ColorCorrections" V="1,1,0,0,-24,0.100000001490116,127,63,119,-28.822566986084,28.822566986084,-50,50,12,0,0,0,0;1,1,0,-0.5,-28,-0.0750000029802322,67,63,127,-21.9782791137695,21.9782791137695,-50,50,12,0,0,0,0;1,1,0,2,-40,0.150000005960464,63,118,127,-22.3223114013672,22.3223114013672,-50,50,12,0,0,0,0;1,1,0,0,-16,0,69,127,63,-38.9258460998535,38.9258460998535,-50,50,12,0,0,0,0;1,1,0,0.100000001490116,-4,0.025000000372529,127,115,63,-13.5424394607544,13.5424394607544,-50,50,12,0,0,0,0;1,1,0,3,-16,-0.25,127,68,63,-18.4085693359375,18.4085693359375,-50,50,12,0,0,0,0" />
	<E K="GradationCurve" V="0,0.104999996721745;0.141000002622604,0.150000005960464;0.324000000953674,0.307000011205673;0.535000026226044,0.53600001335144;0.755999982357025,0.745000004768372;1,0.961000025272369" />
	<E K="GradationCurveBlue" V="0,0;0.28600001335144,0.229000002145767;0.465000003576279,0.490000009536743;0.596000015735626,0.685999989509583;0.811999976634979,0.90200001001358;1,1" />
	<E K="GradationCurveGreen" V="0,0;0.136000007390976,0.0590000003576279;0.328999996185303,0.275000005960464;0.465000003576279,0.490000009536743;0.71399998664856,0.796999990940094;1,1" />
	<E K="GradationCurveRed" V="0,0;0.155000001192093,0.0520000010728836;0.337999999523163,0.261000007390976;0.479000002145767,0.497000008821487;0.694999992847443,0.783999979496002;1,1" />
	<E K="GradationCurveY" V="0,0;1,1" />
	<E K="Name" V="Agfa Vista 800" />
	<E K="StyleSource" V="Styles" />
	<E K="UUID" V="EE10E7AE-F672-4449-A35D-E6D3A959546D" />
</SL>
