Films/Agfa Optima 100.costyle
<?xml version="1.0"?>
<SL Engine="1100">
	<E K="Brightness" V="-5.19480514526367" />
	<E K="ColorCorrections" V="1,1,1,0,0,0,127,63,119,-27.3225708007812,27.3225708007812,-50,50,15,0,0,0,0;1,1,1,-4,-15,-0.200000002980232,67,63,127,-20.4782791137695,20.4782791137695,-50,50,15,0,0,0,0;1,1,1,0,-20,-0.200000002980232,63,118,127,-20.8223114013672,20.8223114013672,-50,50,15,0,0,0,0;1,1,1,20,-40,-0.800000011920929,69,127,63,-37.4258499145508,37.4258499145508,-50,50,15,0,0,0,0;1,1,1,-6,-3,0,127,115,63,-12.0424385070801,12.0424385070801,-50,50,15,0,0,0,0;1,1,1,-3,-5,-0.5,127,68,63,-16.9085693359375,16.9085693359375,-50,50,15,0,0,0,0;0,1,1,5.15480279922485,0,0,0,0,0,7.5,-7.5,0,0,15,0,0,0,0" />
	<E K="Contrast" V="-10.3896102905273" />
	<E K="FilmCurve" V="RicohGR-Auto.fcrv" />
	<E K="FilmGrainAmount" V="42" />
	<E K="FilmGrainDensity" V="0" />
	<E K="FilmGrainGranularity" V="18" />
	<E K="FilmGrainType" V="2" />
	<E K="GradationCurve" V="0,0;0.0866002067923546,0.0645844265818596;0.257763504981995,0.256461173295975;0.688082933425903,0.766825318336487;1,1" />
	<E K="GradationCurveBlue" V="0,0;0.172549024224281,0.121568635106087;0.454901963472366,0.47843137383461;0.772549033164978,0.819607853889465;1,0.981491804122925" />
	<E K="GradationCurveGreen" V="0,0;0.172549024224281,0.121568635106087;0.47843137383461,0.486274510622025;0.772549033164978,0.819607853889465;1,0.986104905605316" />
	<E K="GradationCurveRed" V="0,0;0.156862750649452,0.0980392172932625;0.279577046632767,0.226030722260475;0.482339143753052,0.471133142709732;0.768627464771271,0.803216934204102;1,0.989453136920929" />
	<E K="GradationCurveY" V="0,0;1,1" />
	<E K="HighlightRecoveryEx" V="-10" />
	<E K="Name" V="Agfa Optima 100" />
	<E K="ShadowRecovery" V="10" />
	<E K="StyleSource" V="Styles" />
	<E K="UUID" V="B8D017CB-25F1-41F9-AE19-2D8201D79C69" />
</SL>
