Films/CineStill 800T.costyle
<?xml version="1.0"?>
<SL Engine="1100">
	<E K="Brightness" V="5" />
	<E K="ColorBalance" V="0.999989986419678;0.999999761581421;1" />
	<E K="ColorBalanceHighlight" V="0.963846802711487;1;0.991452217102051" />
	<E K="ColorBalanceMidtone" V="0.925107181072235;1;0.971896409988403" />
	<E K="ColorBalanceShadow" V="0.957337439060211;1;0.992988705635071" />
	<E K="ColorCorrections" V="1,1,1,0,0,0,127,63,119,-22.322566986084,22.322566986084,-50,50,25,0,0,0,0;1,1,1,0,0,0,67,63,127,-15.4782791137695,15.4782791137695,-50,50,25,0,0,0,0;1,1,1,5.59999990463257,-4,0.400000005960464,63,118,127,-15.8223114013672,15.8223114013672,-50,50,25,0,0,0,0;1,1,1,0,-8,-0.100000001490116,69,127,63,-32.4258499145508,32.4258499145508,-50,50,25,0,0,0,0;1,1,1,12,24,-0.140000000596046,127,115,63,-7.04243850708008,7.04243850708008,-50,50,25,0,0,0,0;1,1,1,1,5,-0.150000005960464,127,68,63,-11.9085693359375,11.9085693359375,-50,50,25,0,0,0,0;0,1,1,-3.5,-10,0,0,0,0,12.5,-12.5,0,0,25,0,0,0,0;1,1,0,8,-15,1,203,167,140,-20,20,-25.517240524292,25.517240524292,30,0,0,0,0;1,1,0,2.5,12,0.200000002980232,149,0,29,-20,20,-60,0,10,0,0,0,0;1,1,0,12,0,0.5,45,63,0,-20,20,-60,0,20,0,0,0,0;1,1,0,0,25,0.5,28,30,43,-20,20,-27.4418601989746,27.4418601989746,29.7922077178955,0,0,0,0;1,1,0,0,-5,0.400000005960464,186,145,129,-20,20,-25.3225803375244,25.3225803375244,20,0,0,0,0;1,1,0,-28,-30,3.5,70,82,139,-20,20,-34.8201446533203,34.8201446533203,25,0,0,0,0" />
	<E K="Contrast" V="-10" />
	<E K="FilmCurve" V="CanonEOS6D-Film Standard.fcrv" />
	<E K="FilmGrainAmount" V="81" />
	<E K="FilmGrainDensity" V="0" />
	<E K="FilmGrainGranularity" V="26" />
	<E K="FilmGrainType" V="1" />
	<E K="GradationCurve" V="0,0.0196078456938267;0.109700046479702,0.124229691922665;0.255393952131271,0.267927169799805;0.437199532985687,0.448879539966583;0.648396074771881,0.665126025676727;0.777544558048248,0.798739492893219;1,0.949019610881805" />
	<E K="GradationCurveBlue" V="0,0;0.151714876294136,0.0536414608359337;0.339382022619247,0.253361344337463;0.499598205089569,0.47577029466629;0.781854152679443,0.794537782669067;1,1" />
	<E K="GradationCurveGreen" V="0,0;0.152102872729301,0.0533613488078117;0.342915594577789,0.249439775943756;0.494083046913147,0.474369764328003;0.77478700876236,0.80574232339859;1,1" />
	<E K="GradationCurveRed" V="0,0;0.151326879858971,0.0542016848921776;0.306762337684631,0.237955182790756;0.493695050477982,0.470448195934296;0.771253407001495,0.807142853736877;1,1" />
	<E K="GradationCurveY" V="0,0;1,1" />
	<E K="Highlight" V="1;1;1;1" />
	<E K="HighlightRecoveryEx" V="-9.74026012420654" />
	<E K="Midtone" V="0;0;0;0" />
	<E K="Name" V="CineStill 800T" />
	<E K="Saturation" V="-5.19480514526367" />
	<E K="Shadow" V="0;0;0;0" />
	<E K="ShadowRecovery" V="5" />
	<E K="StyleSource" V="Styles" />
	<E K="TargetHighlight" V="1;1;1;1" />
	<E K="TargetShadow" V="0;0;0;0" />
	<E K="UUID" V="3E1F1237-5B37-4651-976B-63F482B1D4CE" />
</SL>
