Films/CineStill 50D.costyle
<?xml version="1.0"?>
<SL Engine="1100">
	<E K="Clarity" V="-10" />
	<E K="ClarityMethod" V="3" />
	<E K="ColorBalance" V="1;1;1" />
	<E K="ColorBalanceHighlight" V="1.09068822860718;1.0289900302887;1.07830929756165" />
	<E K="ColorBalanceMidtone" V="1.04252934455872;1.05213582515717;0.980883181095123" />
	<E K="ColorBalanceShadow" V="0.967227935791016;1;0.905837655067444" />
	<E K="ColorCorrections" V="1,1,1,0,-28,0.100000001490116,127,63,119,-28.822566986084,28.822566986084,-50,50,12,0,0,0,0;1,1,1,4,-40,0.300000011920929,67,63,127,-21.9782791137695,21.9782791137695,-50,50,12,0,0,0,0;1,1,1,-1,-20,0.100000001490116,63,118,127,-22.3223114013672,22.3223114013672,-50,50,12,0,0,0,0;1,1,1,12.3999996185303,-52,-0.200000002980232,69,127,63,-38.9258460998535,38.9258460998535,-50,50,12,0,0,0,0;1,1,1,10,-32,-0.150000005960464,127,115,63,-13.5424394607544,13.5424394607544,-50,50,12,0,0,0,0;1,1,1,3.5,-20.7999992370605,0,127,68,63,-18.4085693359375,18.4085693359375,-50,50,12,0,0,0,0;0,1,1,10,0,0,0,0,0,0,0,0,0,0,0,0,0,0;1,1,0,11.8181819915771,15,1,56,63,22,-20,20,-42.539680480957,34.9206390380859,25,0,0,0,0;1,1,0,10,0,1.5,79,47,38,-20,20,-35.9493675231934,35.9493675231934,20,0,0,0,0;1,1,0,1.5,-5,0.800000011920929,158,0,44,-20,20,-60,0,20,0,0,0,0;1,1,0,0,0,0,213,192,183,-20,20,-14.0845060348511,20,20,0,0,0,0;1,1,0,-20,-12,0,72,97,145,-20,20,-35.1724128723145,35.1724128723145,20,0,0,0,0" />
	<E K="Contrast" V="-15.3896102905273" />
	<E K="FilmGrainAmount" V="56" />
	<E K="FilmGrainDensity" V="0" />
	<E K="FilmGrainGranularity" V="5.02500009536743" />
	<E K="FilmGrainType" V="0" />
	<E K="GradationCurve" V="0,0.0156862754374743;0.0700963661074638,0.0581232532858849;0.256169945001602,0.240494787693024;0.489385485649109,0.490634858608246;0.839984834194183,0.853660047054291;1,0.929411768913269" />
	<E K="GradationCurveBlue" V="0,0;0.0650523751974106,0.0421568676829338;0.305168777704239,0.275210082530975;0.517224490642548,0.535154044628143;0.730873763561249,0.753921568393707;1,1" />
	<E K="GradationCurveGreen" V="0,0;0.0669923648238182,0.0323529466986656;0.311071902513504,0.272689074277878;0.51252692937851,0.529271721839905;0.726176202297211,0.753921568393707;1,1" />
	<E K="GradationCurveRed" V="0,0;0.065440371632576,0.0401960834860802;0.302452772855759,0.27156862616539;0.50309020280838,0.53151261806488;0.726176202297211,0.764845907688141;1,1" />
	<E K="GradationCurveY" V="0,0;1,1" />
	<E K="HighlightRecoveryEx" V="-10" />
	<E K="Name" V="CineStill 50D" />
	<E K="ShadowRecovery" V="5" />
	<E K="StyleSource" V="Styles" />
	<E K="UUID" V="33B1E8D7-09B8-44BA-B515-C415B02EB676" />
</SL>
