Films/Fuji 400h.costyle
<?xml version="1.0"?>
<SL Engine="1100">
	<E K="Brightness" V="5" />
	<E K="ColorBalance" V="1;1;1" />
	<E K="ColorBalanceHighlight" V="1;0.999989986419678;0.999989986419678" />
	<E K="ColorBalanceMidtone" V="1;1;1" />
	<E K="ColorBalanceShadow" V="0.978115856647491;1;0.994110405445099" />
	<E K="ColorCorrections" V="1,1,1,10,-10,0,127,63,119,-20.4404754638672,20.4404754638672,-50,50,28.7641830444336,0,0,0,0;1,1,1,-8,-5,0,67,63,127,-13.5961875915527,13.5961875915527,-50,50,28.7641830444336,0,0,0,0;1,1,1,-5,0,0.5,63,118,127,-13.9402198791504,13.9402198791504,-50,50,28.7641830444336,0,0,0,0;1,1,1,15,-30,-0.445010095834732,69.1710510253906,127,63,-30.703971862793,30.703971862793,-50,50,28.7641830444336,0,0,0,0;1,1,1,-5,-20,0,127,114.828826904297,63,-5,5,-50,50,28.7641830444336,0,0,0,0;1,1,1,-10,-15,-0.550000011920929,127,68,63,-10.0264778137207,10.0264778137207,-50,50,28.7641830444336,0,0,0,0;0,1,1,0,0,0,0,0,0,14.3820915222168,-14.3820915222168,0,0,28.7641830444336,0,0,0,0;1,1,0,0,-10,0,66,93,132,-26.3623504638672,20,-20,50,30,0,0,0,0" />
	<E K="Contrast" V="-10" />
	<E K="FilmCurve" V="LeicaM10-Film Standard.fcrv" />
	<E K="FilmGrainAmount" V="72" />
	<E K="FilmGrainDensity" V="0" />
	<E K="FilmGrainGranularity" V="20" />
	<E K="FilmGrainType" V="2" />
	<E K="GradationCurve" V="0,0;0.0612912997603416,0.0316428579390049;0.208661988377571,0.184098213911057;0.460436940193176,0.460981398820877;1,1" />
	<E K="GradationCurveBlue" V="0,0;0.238999992609024,0.191930800676346;0.498145669698715,0.493386894464493;0.734000027179718,0.796000003814697;1,1" />
	<E K="GradationCurveGreen" V="0,0.00800000037997961;0.243000000715256,0.194999992847443;0.486999988555908,0.488999992609024;0.75900000333786,0.808000028133392;1,1" />
	<E K="GradationCurveRed" V="0,0;0.207000002264977,0.149000003933907;0.496724367141724,0.493018597364426;0.754000008106232,0.810999989509583;1,1" />
	<E K="GradationCurveY" V="0,0;1,1" />
	<E K="Highlight" V="1;1;1;1" />
	<E K="HighlightRecoveryEx" V="-5" />
	<E K="Midtone" V="0;0;0;0" />
	<E K="Name" V="Fuji 400h" />
	<E K="Shadow" V="0;0;0;0" />
	<E K="ShadowRecovery" V="10" />
	<E K="StyleSource" V="Styles" />
	<E K="TargetHighlight" V="1;1;1;1" />
	<E K="TargetShadow" V="0;0;0;0" />
	<E K="UsmAmount" V="35" />
	<E K="UsmRadius" V="0.5" />
	<E K="UUID" V="3724AD45-B063-4C70-8AF9-0540825C9275" />
</SL>
