Films/Fuji Fortia SP 50.costyle
<?xml version="1.0"?>
<SL Engine="1100">
	<E K="Brightness" V="-5" />
	<E K="ColorCorrections" V="1,1,1,0,0,0,127,63,119,-27.322566986084,27.322566986084,-50,50,15,0,0,0,0;1,1,1,0,-15,0,67,63,127,-20.4782791137695,20.4782791137695,-50,50,15,0,0,0,0;1,1,1,-1.5,-14,0,63,118,127,-20.8223114013672,20.8223114013672,-50,50,15,0,0,0,0;1,1,1,15,0,0,69,127,63,-37.4258460998535,37.4258460998535,-50,50,15,0,0,0,0;1,1,1,-4,-12,-0.146874994039536,127,115,63,-12.0424385070801,12.0424385070801,-50,50,15,0,0,0,0;1,1,1,-4,-7,0.150000005960464,127,68,63,-16.9085693359375,16.9085693359375,-50,50,15,0,0,0,0;0,1,1,4,0,0,0,0,0,7.5,-7.5,0,0,15,0,0,0,0;1,1,0,-6,0,0,221,187,100,-20,20,-19.463550567627,20,20,0,0,0,0;0,1,0,0,5,0,0,0,0,0,0,0,0,20,0,0,0,0" />
	<E K="Contrast" V="-10" />
	<E K="FilmCurve" V="LeicaM10-Film Standard.fcrv" />
	<E K="FilmGrainAmount" V="56" />
	<E K="FilmGrainDensity" V="0" />
	<E K="FilmGrainGranularity" V="5.02500009536743" />
	<E K="FilmGrainType" V="0" />
	<E K="GradationCurve" V="0,0;0.357622027397156,0.345405519008636;0.863543510437012,0.80478048324585;1,0.970944941043854" />
	<E K="GradationCurveBlue" V="0,0;0.173104166984558,0.0885438546538353;0.263950526714325,0.154016762971878;0.505882382392883,0.501960813999176;0.725490212440491,0.803921580314636;1,0.992156863212585" />
	<E K="GradationCurveGreen" V="0,0;0.266639083623886,0.170332193374634;0.505882382392883,0.498039215803146;0.713725507259369,0.788235306739807;1,0.992156863212585" />
	<E K="GradationCurveRed" V="0,0;0.163906827569008,0.0872319266200066;0.27086278796196,0.172728464007378;0.515999972820282,0.500454127788544;0.690196096897125,0.756862759590149;1,1" />
	<E K="GradationCurveY" V="0,0;1,1" />
	<E K="Highlight" V="1;1;1;1" />
	<E K="HighlightRecoveryEx" V="-20" />
	<E K="Midtone" V="0;0;0;0" />
	<E K="Name" V="Fuji Fortia SP 50" />
	<E K="Saturation" V="15" />
	<E K="Shadow" V="0;0;0;0" />
	<E K="ShadowRecovery" V="10" />
	<E K="StyleSource" V="Styles" />
	<E K="UUID" V="3100B158-8682-4E25-8E71-06E872A6ED3E" />
</SL>
