Films/Fuji Provia 400x.costyle
<?xml version="1.0"?>
<SL Engine="1100">
	<E K="ColorBalance" V="1;0.999989986419678;0.999989986419678" />
	<E K="ColorBalanceHighlight" V="1;1;1" />
	<E K="ColorBalanceMidtone" V="1;1;1" />
	<E K="ColorBalanceShadow" V="1;1;1" />
	<E K="ColorCorrections" V="1,1,1,0,0,0,127,63,119,-28.822566986084,28.822566986084,-50,50,12,0,0,0,0;1,1,1,0,0,0,67,63,127,-21.9782791137695,21.9782791137695,-50,50,12,0,0,0,0;1,1,1,14,-5.46774196624756,-0.649999976158142,63,118,127,-22.3223114013672,22.3223114013672,-50,50,12,0,0,0,0;1,1,1,7.5,-16,-0.200000002980232,69,127,63,-38.9258460998535,38.9258460998535,-50,50,12,0,0,0,0;1,1,1,-20,0,-0.300000011920929,127,115,63,-13.5424394607544,13.5424394607544,-50,50,12,0,0,0,0;1,1,1,0.284274250268936,-16,-0.400000005960464,127,68,63,-18.4085693359375,18.4085693359375,-50,50,12,0,0,0,0;0,1,1,3.63636374473572,0,0,0,0,0,0,0,0,0,0,0,0,0,0;1,1,0,12,-10,0,74,86,54,-20,20,-20,49.29150390625,20,0,0,0,0" />
	<E K="Contrast" V="-5" />
	<E K="FilmCurve" V="LeicaM10-Film Standard.fcrv" />
	<E K="FilmGrainAmount" V="72" />
	<E K="FilmGrainDensity" V="0" />
	<E K="FilmGrainGranularity" V="20" />
	<E K="FilmGrainType" V="2" />
	<E K="GradationCurve" V="0,0;1,1" />
	<E K="GradationCurveBlue" V="0,0;0.203999996185303,0.129215687513351;0.412000000476837,0.446999996900558;0.675000011920929,0.752784311771393;1,1" />
	<E K="GradationCurveGreen" V="0,0;0.187999993562698,0.117215685546398;0.430999994277954,0.490000009536743;0.675000011920929,0.752784311771393;1,1" />
	<E K="GradationCurveRed" V="0,0;0.209999993443489,0.149359285831451;0.435000002384186,0.486000001430511;0.685999989509583,0.744784295558929;1,1" />
	<E K="GradationCurveY" V="0,0;0.12897527217865,0.123669467866421;0.252650171518326,0.252240896224976;0.496466428041458,0.492857128381729;0.754416942596436,0.713865518569946;1,1" />
	<E K="Highlight" V="1;1;1;1" />
	<E K="HighlightRecoveryEx" V="-20" />
	<E K="Midtone" V="0;0;0;0" />
	<E K="Name" V="Fuji Provia 400x" />
	<E K="Shadow" V="0;0;0;0" />
	<E K="ShadowRecovery" V="15" />
	<E K="StyleSource" V="Styles" />
	<E K="UUID" V="F3AF71BD-64D3-4194-9D53-F55FA53E17D8" />
</SL>
