Films/Fuji Superia 400.costyle
<?xml version="1.0"?>
<SL Engine="1100">
	<E K="Brightness" V="0" />
	<E K="ColorBalance" V="1;1;1" />
	<E K="ColorBalanceHighlight" V="0.962021052837372;0.975345015525818;1" />
	<E K="ColorBalanceMidtone" V="1;1;1" />
	<E K="ColorBalanceShadow" V="1;1;1" />
	<E K="ColorCorrections" V="1,1,1,4,-24,0,127,63,119,-27.322566986084,27.322566986084,-50,50,15,0,0,0,0;1,1,1,2,-32,0,67,63,127,-20.4782791137695,20.4782791137695,-50,50,15,0,0,0,0;1,1,1,1,-8,-0.150000005960464,63,118,127,-20.8223114013672,20.8223114013672,-50,50,15,0,0,0,0;1,1,1,3,-35,-0.100000001490116,69,127,63,-37.4258499145508,37.4258499145508,-50,50,15,0,0,0,0;1,1,1,2.40000009536743,-6.40000009536743,0.150000005960464,127,115,63,-12.0424385070801,12.0424385070801,-50,50,15,0,0,0,0;1,1,1,4,-8,-0.0500000007450581,127,68,63,-16.9085693359375,16.9085693359375,-50,50,15,0,0,0,0;0,1,1,5.97402620315552,0,0,0,0,0,7.5,-7.5,0,0,15,0,0,0,0" />
	<E K="Contrast" V="0" />
	<E K="FilmGrainAmount" V="72" />
	<E K="FilmGrainDensity" V="0" />
	<E K="FilmGrainGranularity" V="20" />
	<E K="FilmGrainType" V="2" />
	<E K="GradationCurve" V="0,0.011764707043767;0.12189432233572,0.118907563388348;0.249878823757172,0.25;0.503519773483276,0.52422970533371;0.753627181053162,0.80574232339859;1,0.988235294818878" />
	<E K="GradationCurveBlue" V="0,0.011764707043767;0.268322646617889,0.198739498853683;0.465426504611969,0.478851556777954;0.699889183044434,0.741036415100098;1,0.992156863212585" />
	<E K="GradationCurveGreen" V="0,0.0196078438311815;0.26086750626564,0.209663867950439;0.4599529504776,0.474369764328003;0.699501216411591,0.752240896224976;1,0.992156863212585" />
	<E K="GradationCurveRed" V="0,0;0.097588911652565,0.0485994443297386;0.286378502845764,0.219187676906586;0.463056921958923,0.468767523765564;0.702646791934967,0.76008403301239;1,0.992156863212585" />
	<E K="GradationCurveY" V="0,0;1,1" />
	<E K="HighlightRecoveryEx" V="-10" />
	<E K="Name" V="Fuji Superia 400" />
	<E K="Saturation" V="-5" />
	<E K="ShadowRecovery" V="5" />
	<E K="StyleSource" V="Styles" />
	<E K="UUID" V="33730B93-8B0D-4EA5-B35A-FAE26DAEB7B5" />
</SL>
