Films/Fuji Sensia 100.costyle
<?xml version="1.0"?>
<SL Engine="1100">
	<E K="Brightness" V="5" />
	<E K="ColorCorrections" V="1,1,1,0,0,0,127,63,119,-20.2801284790039,20.2801284790039,-50,50,29.0848770141602,0,0,0,0;1,1,1,7.5,0,-0.300000011920929,67,63,127,-13.4358406066895,13.4358406066895,-50,50,29.0848770141602,0,0,0,0;1,1,1,-5,-1.04838705062866,-0.5,63,118,127,-13.7798728942871,13.7798728942871,-50,50,29.0848770141602,0,0,0,0;1,1,1,7.73991966247559,-30,0,69,127,63,-30.3834037780762,30.3834037780762,-50,50,29.0848770141602,0,0,0,0;1,1,1,-8,0,0,127,115,63,-5,5,-50,50,29.0848770141602,0,0,0,0;1,1,1,-4,15,-0.699999988079071,127,68,63,-9.86613082885742,9.86613082885742,-50,50,29.0848770141602,0,0,0,0;0,1,1,0,0,0,0,0,0,14.5424385070801,-14.5424385070801,0,0,29.0848770141602,0,0,0,0" />
	<E K="Contrast" V="-10" />
	<E K="FilmCurve" V="LeicaM10-Film Standard.fcrv" />
	<E K="FilmGrainAmount" V="42" />
	<E K="FilmGrainDensity" V="0" />
	<E K="FilmGrainGranularity" V="18" />
	<E K="FilmGrainType" V="2" />
	<E K="GradationCurve" V="0,0;0.181274846196175,0.156770840287209;0.488860964775085,0.485844492912292;1,1" />
	<E K="GradationCurveBlue" V="0,0;0.126635849475861,0.0905309021472931;0.415014505386353,0.413288921117783;0.803921580314636,0.854901969432831;1,0.968627452850342" />
	<E K="GradationCurveGreen" V="0,0;0.0886515006422997,0.0554862581193447;0.419607847929001,0.439215689897537;0.807843148708344,0.858823537826538;1,1" />
	<E K="GradationCurveRed" V="0,0;0.121568627655506,0.07999387383461;0.419607847929001,0.431372553110123;0.807843148708344,0.858823537826538;1,1" />
	<E K="GradationCurveY" V="0,0;1,1" />
	<E K="Highlight" V="1;1;1;1" />
	<E K="HighlightRecoveryEx" V="-15" />
	<E K="Midtone" V="0;0;0;0" />
	<E K="Name" V="Fuji Sensia 100" />
	<E K="Saturation" V="-20" />
	<E K="Shadow" V="0;0;0;0" />
	<E K="ShadowRecovery" V="5" />
	<E K="StyleSource" V="Styles" />
	<E K="UUID" V="CE5A81BB-E1F5-4CA4-BECB-751B58B439E2" />
</SL>
