Films/Fujifilm Astia 100F 5600K III.costyle
<?xml version="1.0"?>
<SL Engine="1300">
	<E K="Brightness" V="0.236966818571091" />
	<E K="BwEnabled" V="0" />
	<E K="Clarity" V="-5" />
	<E K="ClarityMethod" V="2" />
	<E K="ClarityStructure" V="7" />
	<E K="CleanLongExposureAmount" V="28.7127914428711" />
	<E K="CnrAmount" V="29.3729248046875" />
	<E K="ColorBalance" V="1;1;1" />
	<E K="ColorBalanceHighlight" V="0.962162911891937;0.967243134975433;1" />
	<E K="ColorBalanceMidtone" V="0.996321856975555;1;0.955083787441254" />
	<E K="ColorBalanceShadow" V="1;0.986494898796082;0.970511674880981" />
	<E K="ColorCorrections" V="1,1,0,-15.1089611053467,-11.6222763061523,1.16222715377808,67.5569534301758,149.565063476562,70.6672973632812,-24.3759460449219,17.1230773925781,-38.6074523925781,45.1689414978027,15,0,0,0,0;1,1,0,-5.08474588394165,-2.90556859970093,0.968522906303406,122.252647399902,192.828353881836,187.065719604492,-25.3573303222656,10.3223114013672,-20.7034721374512,63.3997077941895,15,0,0,0,0;1,1,0,23.3898334503174,-10.1695022583008,-2.03389859199524,26.1273765563965,132.506408691406,194.709457397461,-4.46617126464844,3.64866638183594,-68.8665390014648,16.2267837524414,15,0,0,0,0;1,1,0,1.8886194229126,-5.08474588394165,-0.145278453826904,16.6110439300537,69.6225738525391,200.565505981445,-5.56266784667969,21.1000671386719,-30.2748832702637,8.2821044921875,15,0,0,0,0;1,1,0,-1.30750608444214,-4.81840345400997e-08,-0.968523025512695,88.1533584594727,94.8137741088867,168.205368041992,-17.6656494140625,8.84521484375,-2,4.80658721923828,15,0,0,0,0;1,1,0,1.30750274658203,-9.44309902191162,-1.59806191921234,120.01685333252,131.150238037109,168.748352050781,-9.07731628417969,17.2937622070312,-12.1892013549805,7.88585662841797,15,0,0,0,0;1,1,0,11.6222763061523,-1.45278453826904,0.387409269809723,63.2557411193848,12.9673261642456,110.338081359863,-20.2227478027344,13.5308227539062,-54.4726257324219,11.7523574829102,15,0,0,0,0;1,1,0,-9.00726413726807,22.518159866333,-0.484261333942413,96.6287231445312,87.4404373168945,110.741455078125,-13.1091918945312,20.6629333496094,-3.86502075195312,4.93443298339844,15,0,0,0,0;1,1,0,2.61501264572144,0.726392269134521,0.145278349518776,194.608291625977,134.686126708984,183.275238037109,-17.691162109375,22.4616394042969,-15.1131963729858,69.2088317871094,15,0,0,0,0;1,1,0,-1.01694893836975,2.17917609214783,0.847457587718964,178.844787597656,93.9388275146484,95.7403564453125,-14.6495971679688,10.0635986328125,-4.23435592651367,9.24844741821289,15,0,0,0,0;1,1,0,-1.74334144592285,5.81113815307617,0.726392269134521,111.328132629395,7.67115354537964,13.1456642150879,-12.418701171875,11.8213500976562,-20.0682678222656,16.3890228271484,15,0,0,0,0;1,1,0,6.8280873298645,13.8014526367188,0.242130756378174,181.102905273438,139.757019042969,142.814178466797,-11.087646484375,12.6996459960938,-5.68106269836426,5.18510246276855,15,0,0,0,0;1,1,0,-2.0338978767395,5.08474540710449,0.435835748910904,94.7323837280273,81.902473449707,69.1925888061523,-8.08683586120605,3.96440505981445,-9.98171615600586,45.5036926269531,15,0,0,0,0;1,1,0,-2.03389930725098,4.35835647583008,0.387408167123795,193.886703491211,87.7230529785156,10.6922740936279,-3.48749542236328,8.55011940002441,-9.96171569824219,38.0861740112305,15,0,0,0,0;1,1,0,-6.24697351455688,2.17917680740356,0.338983058929443,206.98486328125,176.448669433594,18.3406276702881,-2.92139434814453,3.47640991210938,-73.4386749267578,28.91796875,15,0,0,0,0;1,1,0,-9.0072603225708,-26.8765163421631,1.01694893836975,145.914932250977,163.274963378906,102.143089294434,-9.86304473876953,6.25155639648438,-22.2273979187012,10.4923210144043,15,0,0,0,0;1,1,0,-2.7602903842926,29.782075881958,1.16222786903381,132.428344726562,163.061386108398,22.9862041473389,-6.07730865478516,10.0551376342773,-23.7236213684082,14.0966567993164,15,0,0,0,0" />
	<E K="Contrast" V="0" />
	<E K="DehazeAmount" V="0" />
	<E K="DehazeColor" V="0;0;0" />
	<E K="Exposure" V="0" />
	<E K="FilmCurve" V="SonyA7C-Linear Response.fcrv" />
	<E K="FilmGrainAmount" V="9.92736053466797" />
	<E K="FilmGrainDensity" V="0" />
	<E K="FilmGrainGranularity" V="54.8317184448242" />
	<E K="FilmGrainType" V="1" />
	<E K="GradationCurve" V="0,0;0.116049379110336,0.116049379110336;0.56296294927597,0.696666657924652;1,1" />
	<E K="GradationCurveBlue" V="0,0;1,1" />
	<E K="GradationCurveGreen" V="0,0;1,1" />
	<E K="GradationCurveRed" V="0,0;1,1" />
	<E K="GradationCurveY" V="0,0;0.059259258210659,0.100000001490116;0.138271600008011,0.186666667461395;0.222222223877907,0.296666651964188;0.320987641811371,0.423333346843719;0.451851844787598,0.606666684150696;0.575308620929718,0.769999980926514;0.765432119369507,0.923333346843719;1,1" />
	<E K="HighlightRecoveryEx" V="0" />
	<E K="ICCProfile" V="NikonZ6-ProStandard.icm" />
	<E K="Name" V="VMSelection - Fujifilm Astia 100F 5600K III" />
	<E K="NoiseDetailsAmount" V="29" />
	<E K="NrAmount" V="29.0428466796875" />
	<E K="Saturation" V="0.473933637142181" />
	<E K="StyleSource" V="Styles" />
	<E K="UsmAmount" V="160" />
	<E K="UsmRadius" V="0.800000011920929" />
	<E K="UsmThreshold" V="3.97991943359375" />
	<E K="UUID" V="34A993E1-0881-480C-8F6D-D97B86ACACF5" />
	<E K="WhiteBalanceTemperature" V="5600.00048828125" />
	<E K="WhiteBalanceTint" V="0" />
	<E K="WhiteRecovery" V="0" />
</SL>
