Films/Fuji Velvia 50.costyle
<?xml version="1.0"?>
<SL Engine="1100">
	<E K="ColorCorrections" V="1,1,1,6,0,0,127,63,126.328842163086,-13.2306232452393,13.2306232452393,-50,50,29.4422645568848,0,0,0,0;1,1,1,0,0,0,67,63,127,-13.2571468353271,13.2571468353271,-50,50,29.4422645568848,0,0,0,0;1,1,1,12,15,-0.5,63,118,127,-13.6011791229248,13.6011791229248,-50,50,29.4422645568848,0,0,0,0;1,1,1,10,-7,-0.300000011920929,69,127,63,-30.2047100067139,30.2047100067139,-50,50,29.4422645568848,0,0,0,0;1,1,1,-12,30,0.445161283016205,127,109.99976348877,63,-9.50874137878418,9.50874137878418,-50,50,29.4422645568848,0,0,0,0;1,1,1,-1.41935479640961,15,-0.300000011920929,127,63,70.3287124633789,-11.8708171844482,11.8708171844482,-50,50,29.4422645568848,0,0,0,0;0,1,1,0,0,0,0,0,0,14.7211322784424,-14.7211322784424,0,0,29.4422645568848,0,0,0,0;1,1,0,12,9,-0.400000005960464,115.799949645996,133,83,-12.8543930053711,27.3666610717773,-37.5939865112305,56.2603225708008,27,0,0,0,0;1,1,0,2.09274196624756,0,0,166,176,143,-20,20,-18.7499980926514,20,20,0,0,0,0;0,1,0,9,-7,0,0,0,0,0,0,0,0,20,0,0,0,0" />
	<E K="Contrast" V="-4.54545450210571" />
	<E K="FilmCurve" V="LeicaM10-Film Standard.fcrv" />
	<E K="FilmGrainAmount" V="72" />
	<E K="FilmGrainDensity" V="0" />
	<E K="FilmGrainGranularity" V="25" />
	<E K="FilmGrainType" V="1" />
	<E K="GradationCurve" V="0,0.00980282761156559;0.118686884641647,0.156477004289627;0.252610802650452,0.275002777576447;0.501396358013153,0.501517474651337;0.746078431606293,0.723623335361481;1,1" />
	<E K="GradationCurveBlue" V="0,0;0.196078434586525,0.0901960805058479;0.407843142747879,0.450980395078659;0.69803923368454,0.819607853889465;1,1" />
	<E K="GradationCurveGreen" V="0,0;0.18607272207737,0.0871268808841705;0.419607847929001,0.450980395078659;0.760784327983856,0.858823537826538;1,1" />
	<E K="GradationCurveRed" V="0,0;0.186983644962311,0.0809458196163177;0.419607847929001,0.454901963472366;0.760784327983856,0.850980401039124;1,1" />
	<E K="GradationCurveY" V="0,0;1,1" />
	<E K="Highlight" V="1;1;1;1" />
	<E K="HighlightRecoveryEx" V="-10" />
	<E K="Midtone" V="0;0;0;0" />
	<E K="Name" V="Fuji Velvia 50" />
	<E K="Saturation" V="-15.1948051452637" />
	<E K="Shadow" V="0;0;0;0" />
	<E K="ShadowRecovery" V="10" />
	<E K="StyleSource" V="Styles" />
	<E K="TargetHighlight" V="1;1;1;1" />
	<E K="TargetShadow" V="0;0;0;0" />
	<E K="UUID" V="30D8F12D-DD34-4F03-9093-1CCD0BC70C33" />
</SL>
