Films/Kodak Portra 160.costyle
<?xml version="1.0"?>
<SL Engine="1000">
	<E K="Brightness" V="-0.100006103515625" />
	<E K="Clarity" V="48.2157249450684" />
	<E K="ClarityMethod" V="3" />
	<E K="ColorCorrections" V="1,1,1,4,-10,0.112903222441673,127,63,119,-20.2801246643066,20.2801246643066,-50,50,29.0848770141602,0,0,0,0;1,1,1,-13,-35,-0.100000001490116,67,63,127,-13.4358406066895,13.4358406066895,-50,50,29.0848770141602,0,0,0,0;1,1,1,0.5,-30,-0.25,63,118,127,-13.7798728942871,13.7798728942871,-50,50,29.0848770141602,0,0,0,0;1,1,1,12,-35,-1,69,127,63,-30.3834037780762,30.3834037780762,-50,50,29.0848770141602,0,0,0,0;1,1,1,-4,-12,0.100000001490116,127,115,63,-5,5,-50,50,29.0848770141602,0,0,0,0;1,1,1,-1.5,2.5,0.100000001490116,127,68,63,-9.86613082885742,9.86613082885742,-50,50,29.0848770141602,0,0,0,0;0,1,1,0,0,0,0,0,0,14.5424385070801,-14.5424385070801,0,0,29.0848770141602,0,0,0,0;1,1,0,18,-5,-0.5,61,69,34,-5.95332336425781,32.6585235595703,-34.8289985656738,48.2300682067871,22,0,0,0,0" />
	<E K="Contrast" V="-10" />
	<E K="FilmCurve" V="LeicaM240-Film Standard.fcrv" />
	<E K="GradationCurve" V="0,0;1,1" />
	<E K="GradationCurveBlue" V="0,0;0.16628260910511,0.110999874770641;0.487993687391281,0.479643732309341;0.75596559047699,0.75321364402771;1,0.975390672683716" />
	<E K="GradationCurveGreen" V="0,0.0053494842723012;0.136977165937424,0.100982584059238;0.519510507583618,0.516636073589325;0.760784327983856,0.764705896377563;1,0.981808006763458" />
	<E K="GradationCurveRed" V="0,0;0.141256093978882,0.0965434685349464;0.52549022436142,0.52549022436142;0.764705896377563,0.792156875133514;1,1" />
	<E K="GradationCurveY" V="0,0;0.0580808036029339,0.0650684908032417;0.452020198106766,0.414383560419083;0.70959597826004,0.646868050098419;1,0.922989308834076" />
	<E K="Highlight" V="1;1;1;1" />
	<E K="HighlightRecoveryEx" V="-10" />
	<E K="Midtone" V="0;0;0;0" />
	<E K="Name" V="Kodak Portra 160" />
	<E K="Shadow" V="0;0;0;0" />
	<E K="ShadowRecovery" V="10" />
	<E K="StyleSource" V="Styles" />
	<E K="UsmAmount" V="100" />
	<E K="UsmRadius" V="0.491030842065811" />
	<E K="UUID" V="F219A8D5-0C5F-4F3C-AF42-6A27F26FCA71" />
</SL>
