Films/Kodak Kodachrome VI 5600K.costyle
<?xml version="1.0"?>
<SL Engine="1300">
	<E K="Clarity" V="-8.37732315063477" />
	<E K="ClarityMethod" V="2" />
	<E K="ClarityStructure" V="3.96038842201233" />
	<E K="CleanLongExposureAmount" V="28.7127914428711" />
	<E K="CnrAmount" V="29.3729248046875" />
	<E K="ColorBalance" V="0.999947965145111;0.999832689762115;0.999647915363312" />
	<E K="ColorBalanceHighlight" V="0.99998414516449;0.997013866901398;0.981567323207855" />
	<E K="ColorBalanceMidtone" V="0.977263689041138;0.999985992908478;0.947188675403595" />
	<E K="ColorBalanceShadow" V="0.949702680110931;0.994014084339142;0.9999640583992" />
	<E K="ColorCorrections" V="1,1,0,-3.19612598419189,14.527850151062,-0.193704649806023,11.2118453979492,149.565063476562,23.9810600280762,-27.5302429199219,23.7703552246094,-77.1858291625977,7.49629974365234,12.5,0,0,0,0;1,1,0,-11.4769973754883,56.6585884094238,-3.24455213546753,35.0733375549316,181.684814453125,163.015350341797,-11.4594879150391,7.640380859375,-64.2209854125977,19.3044967651367,12.5,0,0,0,0;1,1,0,-10.895884513855,-2.17918062210083,-1.93704605102539,113.448593139648,170.725875854492,193.375701904297,-4.291748046875,8.11196899414062,-24.0028114318848,69.8004989624023,12.5,0,0,0,0;1,1,0,1.45278465747833,-4.96368045332929e-07,-1.11380124092102,7.4487419128418,40.0862655639648,152.780364990234,-9.74722290039062,10.3273620605469,-38.7675094604492,20.0415573120117,12.5,0,0,0,0;1,1,0,-2.46973347663879,8.71670913696289,-1.93704640865326,158.64533996582,171.254943847656,194.399063110352,-2.00001525878906,17.6613616943359,-3.47371959686279,21.1311683654785,12.5,0,0,0,0;1,1,0,17.7239685058594,12.3486680984497,0.0484260991215706,56.1913833618164,9.59009170532227,99.0907897949219,-18.6393127441406,18.172119140625,-47.6647033691406,9.67808532714844,12.5,0,0,0,0;1,1,0,6.6828088760376,2.90556907653809,-1.54963791370392,172.268524169922,155.162261962891,194.51448059082,-17.618408203125,23.3241882324219,-5.74502563476562,8.53866958618164,12.5,0,0,0,0;1,1,0,15.5447988510132,9.44310283660889,-0.435835421085358,179.858642578125,83.2334518432617,152.931091308594,-11.0608520507812,13.5065002441406,-37.0132751464844,46.2771492004395,12.5,0,0,0,0;1,1,0,1.01694917678833,8.71671104431152,0.145278543233871,153.515350341797,12.6520748138428,39.5793647766113,-6.50582885742188,5.47003173828125,-19.8333282470703,35.0915298461914,12.5,0,0,0,0;1,1,0,2.32445549964905,20.3389911651611,-0.145278409123421,180.523147583008,96.833869934082,109.033195495605,-9.34774780273438,2.80300903320312,-29.6012725830078,12.8379364013672,12.5,0,0,0,0;1,1,0,7.53002405166626,8.71670436859131,0.0968527942895889,183.576278686523,47.6188316345215,13.8381805419922,-2,2.13975715637207,-45.7108001708984,7.53810882568359,12.5,0,0,0,0;1,1,0,2.32445526123047,8.71669769287109,0.14527939260006,183.527450561523,141.1044921875,130.313507080078,-2,2,-11.1523399353027,5.6055850982666,12.5,0,0,0,0;1,1,0,5.7142858622683e-07,5.81113862991333,-0.435834795236588,187.062683105469,91.2287979125977,6.95005702972412,-2,2.70880126953125,-79.0439605712891,3.71536254882812,12.5,0,0,0,0;1,1,0,4.06779384613037,24.6973400115967,-0.387409120798111,195.11457824707,182.628372192383,134.720825195312,-3.77749252319336,2,-14.4248294830322,28.7187080383301,12.5,0,0,0,0;1,1,0,-3.48668384552002,14.5278387069702,-0.338983058929443,154.611267089844,164.724166870117,4.51250839233398,-2,2,-79.289421081543,2.73943328857422,12.5,0,0,0,0;1,1,0,5.23002433776855,5.81113815307617,-0.726392269134521,59.3147087097168,88.8495483398438,9.34766101837158,-4.59793090820312,2.806640625,-73.3149948120117,10.5207748413086,12.5,0,0,0,0;1,1,0,-5.81113815307617,5.08474588394165,-0.532687723636627,236.203628540039,184.771850585938,21.142110824585,-2,3.86545181274414,-17.6586761474609,25.6323623657227,12.5,0,0,0,0" />
	<E K="Contrast" V="0" />
	<E K="DehazeAmount" V="0" />
	<E K="DehazeColor" V="0.0322851203382015;0.0469855815172195;0.0300903897732496" />
	<E K="Exposure" V="0" />
	<E K="FilmCurve" V="FujiXH1-Linear Response.fcrv" />
	<E K="FilmGrainAmount" V="22" />
	<E K="FilmGrainDensity" V="0" />
	<E K="FilmGrainGranularity" V="55" />
	<E K="FilmGrainType" V="1" />
	<E K="GradationCurve" V="0,0;0.123456791043282,0.106666669249535;0.385185182094574,0.513333320617676;1,1" />
	<E K="GradationCurveBlue" V="0,0;1,1" />
	<E K="GradationCurveGreen" V="0,0;1,1" />
	<E K="GradationCurveRed" V="0,0;1,1" />
	<E K="GradationCurveY" V="0,0;0.0716049373149872,0.0566666685044765;0.175308644771576,0.230000004172325;0.266666680574417,0.423333346843719;0.429629623889923,0.639999985694885;0.649382710456848,0.886666655540466;1,1" />
	<E K="HighlightRecoveryEx" V="0" />
	<E K="Name" V="VMSelection - Kodak Kodachrome VI 5600K" />
	<E K="NoiseDetailsAmount" V="29" />
	<E K="NrAmount" V="29.0428466796875" />
	<E K="Saturation" V="0.473933637142181" />
	<E K="StyleSource" V="Styles" />
	<E K="UsmAmount" V="160" />
	<E K="UsmRadius" V="0.397688239812851" />
	<E K="UsmThreshold" V="3.97991943359375" />
	<E K="UUID" V="5368DFCA-D323-43A5-A626-139F6167513F" />
	<E K="WhiteBalanceTemperature" V="5599.9990234375" />
	<E K="WhiteBalanceTint" V="-2.81259654002497e-05" />
	<E K="WhiteRecovery" V="0" />
</SL>
