Films/Kodak Royal Gold 400.costyle
<?xml version="1.0"?>
<SL Engine="1300">
	<E K="ColorCorrections" V="1,1,0,0,-28,0,127,63,119,-28.822566986084,28.822566986084,-50,50,12,0,0,0,0;1,1,0,0,-24,0.025000000372529,67,63,127,-21.9782791137695,21.9782791137695,-50,50,12,0,0,0,0;1,1,0,2,-32,0,63,118,127,-22.3223114013672,22.3223114013672,-50,50,12,0,0,0,0;1,1,0,0,-28,0.100000001490116,69,127,63,-38.9258460998535,38.9258460998535,-50,50,12,0,0,0,0;1,1,0,0.699999988079071,-12,0.025000000372529,127,115,63,-13.5424394607544,13.5424394607544,-50,50,12,0,0,0,0;1,1,0,0,-20,-0.25,127,68,63,-18.4085693359375,18.4085693359375,-50,50,12,0,0,0,0" />
	<E K="GradationCurve" V="0,0.0700000002980232;0.133000001311302,0.156000003218651;0.280000001192093,0.28600001335144;0.501999974250793,0.51800000667572;0.731000006198883,0.754000008106232;1,0.975000023841858" />
	<E K="GradationCurveBlue" V="0,0.156000003218651;0.460999995470047,0.48199999332428;1,1" />
	<E K="GradationCurveGreen" V="0,0.0299999993294477;0.155000001192093,0.145999997854233;0.497999995946884,0.48199999332428;0.741999983787537,0.763999998569489;1,1" />
	<E K="GradationCurveRed" V="0,0;0.118000000715256,0.0500000007450581;0.27700001001358,0.186000004410744;0.497999995946884,0.48199999332428;0.731000006198883,0.768999993801117;1,1" />
	<E K="GradationCurveY" V="0,0;1,1" />
	<E K="Name" V="Kodak Royal Gold 400" />
	<E K="StyleSource" V="Styles" />
	<E K="UUID" V="F60C9C79-1CE2-40FB-B573-AC933776CEAE" />
</SL>
