Films/Kodak E100.costyle
<?xml version="1.0"?>
<SL Engine="1100">
	<E K="ColorBalance" V="1;1;1" />
	<E K="ColorBalanceHighlight" V="1;1;1" />
	<E K="ColorBalanceMidtone" V="1;1;1" />
	<E K="ColorBalanceShadow" V="1;0.999989986419678;0.999989986419678" />
	<E K="ColorCorrections" V="1,1,1,3,-30,-0.550000011920929,127,63,119,-28.822566986084,28.822566986084,-50,50,12,0,0,0,0;1,1,1,0,-24,-0.554838716983795,67,63,127,-21.9782791137695,21.9782791137695,-50,50,12,0,0,0,0;1,1,1,9,0,-0.5,63,118.582015991211,127,-22.8680152893066,22.8680152893066,-50,50,12,0,0,0,0;1,1,1,15,-12,0.600000023841858,76.2462921142578,127,63,-44.6278038024902,44.6278038024902,-50,50,12,0,0,0,0;1,1,1,-10,0,-0.245161294937134,127,108.335777282715,63,-7.29477882385254,7.29477882385254,-50,50,12,0,0,0,0;1,1,1,-2,-10,-0.5,127,68,63,-18.4085693359375,18.4085693359375,-50,50,12,0,0,0,0;0,1,1,3.3766233921051,0,0,0,0,0,6,-6,0,0,12,0,0,0,0" />
	<E K="FilmCurve" V="LeicaM9-Film Standard.fcrv" />
	<E K="GradationCurve" V="0,0;0.160168543457985,0.174739584326744;0.735065162181854,0.690903961658478;1,0.980952382087708" />
	<E K="GradationCurveBlue" V="0,0;0.140012472867966,0.0731092467904091;0.400000005960464,0.400000005960464;0.560784339904785,0.631372570991516;1,0.971428573131561" />
	<E K="GradationCurveGreen" V="0,0;0.132557347416878,0.0697479024529457;0.400000005960464,0.400000005960464;0.560784339904785,0.639215707778931;1,1" />
	<E K="GradationCurveRed" V="0,0;0.129411771893501,0.062745101749897;0.400000005960464,0.400000005960464;0.560784339904785,0.643137276172638;1,1" />
	<E K="GradationCurveY" V="0,0;1,1" />
	<E K="Highlight" V="1;1;1;1" />
	<E K="HighlightRecoveryEx" V="-10" />
	<E K="Midtone" V="0;0;0;0" />
	<E K="Name" V="Kodak E100" />
	<E K="Saturation" V="-10" />
	<E K="Shadow" V="0;0;0;0" />
	<E K="ShadowRecovery" V="10" />
	<E K="StyleSource" V="Styles" />
	<E K="UUID" V="07BE3CAB-CEE8-407A-B73E-A80AB2FF2825" />
</SL>
