Films/Kodak Vision3 500T.costyle
<?xml version="1.0"?>
<SL Engine="1300">
	<E K="Brightness" V="0.236966818571091" />
	<E K="Clarity" V="-5" />
	<E K="ClarityMethod" V="2" />
	<E K="ClarityStructure" V="7" />
	<E K="CleanLongExposureAmount" V="28.7127914428711" />
	<E K="CnrAmount" V="29.3729248046875" />
	<E K="ColorBalance" V="1;1;1" />
	<E K="ColorBalanceHighlight" V="0.999700009822845;1;0.999902069568634" />
	<E K="ColorBalanceMidtone" V="0.999700009822845;1;0.999912440776825" />
	<E K="ColorBalanceShadow" V="1;0.999909460544586;0.999700009822845" />
	<E K="ColorCorrections" V="1,1,0,-9.81042671203613,9.24170589447021,1.80094790458679,67.5569534301758,149.565063476562,70.6672973632812,-24.3759460449219,24.9425659179688,-37.2234802246094,45.1689414978027,15,0,0,0,0;1,1,0,-7.53554487228394,-17.0616111755371,2.98578214645386,122.252647399902,192.828353881836,187.065719604492,-15.9929351806641,10.3223114013672,-11.3344898223877,63.3997077941895,15,0,0,0,0;1,1,0,19.052131652832,-6.39810466766357,0.521327197551727,26.1273765563965,132.506408691406,194.709457397461,-4.46617126464844,3.64866638183594,-56.0588073730469,16.2267837524414,15,0,0,0,0;1,1,0,6.25592422485352,4.26540279388428,-0.23696680366993,16.6110439300537,69.6225738525391,200.565505981445,-5.56266784667969,21.1000671386719,-30.2748832702637,8.2821044921875,15,0,0,0,0;1,1,0,-0.853080451488495,1.42180097103119,-0.521326899528503,88.1533584594727,94.8137741088867,168.205368041992,-17.6656494140625,8.84521484375,-2,3.05047988891602,15,0,0,0,0;1,1,0,1.84834122657776,-14.2180099487305,0.189573481678963,120.01685333252,131.150238037109,168.748352050781,-9.07731628417969,17.2937622070312,-10.1330699920654,7.88585662841797,15,0,0,0,0;1,1,0,16.0663509368896,4.97630310058594,-0.189573422074318,63.2557411193848,12.9673261642456,110.338081359863,-20.2227478027344,13.5308227539062,-54.4726257324219,11.7523574829102,15,0,0,0,0;1,1,0,3.27014231681824,7.81990528106689,1.56398112238776e-08,96.6287231445312,87.4404373168945,110.741455078125,-13.1091918945312,20.6629333496094,-2,4.93443298339844,15,0,0,0,0;1,1,0,3.12796211242676,6.39810419082642,-1.23222756385803,194.608291625977,134.686126708984,183.275238037109,-17.691162109375,22.4616394042969,-10.8226013183594,69.2088317871094,15,0,0,0,0;1,1,0,1.9905207157135,-1.42180335521698,-0.331753611564636,178.844787597656,33.7268257141113,36.5401992797852,-16.2515869140625,11.1315612792969,-15.0174331665039,18.858154296875,15,0,0,0,0;1,1,0,0,0,0,179.184173583984,138.251998901367,146.503051757812,-5.47140502929688,6.93362426757812,-3.09250068664551,9.97952461242676,15,0,0,0,0;1,1,0,0,11.3744077682495,-0.995260894298553,215.146545410156,83.7714385986328,13.5569639205933,-2,8.64417457580566,-28.6064224243164,6.30126953125,15,0,0,0,0;1,1,0,6.59999990463257,-4.9763035774231,-1.50710874891047e-08,223.376983642578,149.437561035156,120.857833862305,-11.7066173553467,12.763671875,-10.6650161743164,8.9276237487793,15,0,0,0,0;1,1,0,8.38862609863281,4.97630262374878,0.189573436975479,253.504531860352,240.252243041992,193.048889160156,-5.49386215209961,3.09168243408203,-3.6064567565918,44.6696395874023,15,0,0,0,0;1,1,0,-0.284359812736511,-4.9763011932373,1.09004759788513,113.444061279297,136.635101318359,43.2414169311523,-12.9080772399902,11.5975723266602,-50.0775871276855,31.6473693847656,15,0,0,0,0;1,1,0,-2.7014217376709,-3.55450415611267,0.473933160305023,187.415893554688,105.575614929199,120.635528564453,-6.20050048828125,5.92742919921875,-2.94870758056641,12.1559066772461,15,0,0,0,0;1,1,0,5.5,5,0.240000009536743,201.554260253906,157.888961791992,22.0298652648926,-4.10338973999023,4.46755599975586,-13.1360778808594,39.1967010498047,15,0,0,0,0;1,1,0,6.56255960464478,-4.21800933736449e-07,-1.09004724025726,211.976226806641,180.231689453125,168.48161315918,-11.2068109512329,13.2619667053223,-3.35792350769043,2.04435920715332,15,0,0,0,0" />
	<E K="Contrast" V="0" />
	<E K="DehazeAmount" V="0" />
	<E K="DehazeColor" V="0;0;0" />
	<E K="Exposure" V="0" />
	<E K="FilmCurve" V="NikonD3400-Linear Response.fcrv" />
	<E K="FilmGrainAmount" V="28.6729831695557" />
	<E K="FilmGrainDensity" V="0" />
	<E K="FilmGrainGranularity" V="61.6113777160645" />
	<E K="FilmGrainType" V="4" />
	<E K="GradationCurve" V="0,0;0.175308644771576,0.133333340287209;0.37777778506279,0.353333324193954;0.575308620929718,0.573333323001862;1,1" />
	<E K="GradationCurveBlue" V="0,0;1,1" />
	<E K="GradationCurveGreen" V="0,0;1,1" />
	<E K="GradationCurveRed" V="0,0;1,1" />
	<E K="GradationCurveY" V="0,0;0.0518518500030041,0.183333337306976;0.145679011940956,0.376666665077209;0.274074077606201,0.600000023841858;0.474074065685272,0.783333361148834;0.738271594047546,0.906666696071625;1,1" />
	<E K="HighlightRecoveryEx" V="-24" />
	<E K="ICCProfile" V="FujiXE4-Generic.icm" />
	<E K="Name" V="Kodak Vision3 500T" />
	<E K="NoiseDetailsAmount" V="29" />
	<E K="NrAmount" V="29.0428466796875" />
	<E K="Saturation" V="0.473933637142181" />
	<E K="UsmAmount" V="160" />
	<E K="UsmRadius" V="0.800000011920929" />
	<E K="UsmThreshold" V="3.97991943359375" />
	<E K="UUID" V="BC4A2F3E-F3CC-45BC-BB9E-9826E518ACAC" />
	<E K="WhiteBalance" V="1.66979277133942;1;2.07496929168701" />
	<E K="WhiteBalanceTemperature" V="4200.00048828125" />
	<E K="WhiteBalanceTint" V="-0.000344705564202741" />
	<E K="WhiteRecovery" V="-12" />
</SL>
