Films/Kodak Portra 400.costyle
<?xml version="1.0"?>
<SL Engine="1100">
	<E K="ColorCorrections" V="1,1,1,0,-4,0.100000001490116,127,63,119,-22.325813293457,22.325813293457,-50,50,24.9935073852539,0,0,0,0;1,1,1,4,-12,0.200000002980232,67,63,127,-15.4815254211426,15.4815254211426,-50,50,24.9935073852539,0,0,0,0;1,1,1,-1.60000002384186,-20,-0.300000011920929,63,118,127,-15.8255577087402,15.8255577087402,-50,50,24.9935073852539,0,0,0,0;1,1,1,4,-44,-0.25,69,127,63,-32.4290962219238,32.4290962219238,-50,50,24.9935073852539,0,0,0,0;1,1,1,0,-16,-0.100000001490116,127,115,63,-7.04568481445312,7.04568481445312,-50,50,24.9935073852539,0,0,0,0;1,1,1,1.60000002384186,-4,0,127,68,63,-11.9118156433105,11.9118156433105,-50,50,24.9935073852539,0,0,0,0;0,1,1,4.5,4,0,0,0,0,12.496753692627,-12.496753692627,0,0,24.9935073852539,0,0,0,0" />
	<E K="FilmGrainAmount" V="72" />
	<E K="FilmGrainDensity" V="0" />
	<E K="FilmGrainGranularity" V="25" />
	<E K="FilmGrainType" V="1" />
	<E K="GradationCurve" V="0,0.011764707043767;0.0967713445425034,0.0861344560980797;0.251860380172729,0.25;0.503131747245789,0.50154060125351;0.746560037136078,0.769607841968536;1,1" />
	<E K="GradationCurveBlue" V="0,0;0.0928913503885269,0.0715872347354889;0.44974023103714,0.526209056377411;0.703810751438141,0.764024198055267;1,1" />
	<E K="GradationCurveGreen" V="0,0;0.101856909692287,0.0780298039317131;0.449352234601974,0.522007405757904;0.711265921592712,0.769626438617706;1,1" />
	<E K="GradationCurveRed" V="0,0;0.11090561747551,0.0822314843535423;0.454049795866013,0.522847712039948;0.703810751438141,0.760942995548248;1,1" />
	<E K="GradationCurveY" V="0,0;1,1" />
	<E K="HighlightRecoveryEx" V="-10" />
	<E K="Name" V="Kodak Portra 400" />
	<E K="Saturation" V="4" />
	<E K="ShadowRecovery" V="10" />
	<E K="StyleSource" V="Styles" />
	<E K="UUID" V="94CC0A36-A720-4BCF-941B-9515FC71069E" />
</SL>
