Films/Kodachrome 64.costyle
<?xml version="1.0"?>
<SL Engine="1100">
	<E K="ColorBalance" V="1;1;1" />
	<E K="ColorBalanceHighlight" V="0.978325605392456;0.997806668281555;1" />
	<E K="ColorBalanceMidtone" V="1;1;1" />
	<E K="ColorBalanceShadow" V="1;0.97946959733963;0.97237229347229" />
	<E K="ColorCorrections" V="1,1,1,0,0,0,127,63,119,-24.822566986084,24.822566986084,-50,50,20,0,0,0,0;1,1,1,5,-15,-0.75,67,63,127,-17.9782791137695,17.9782791137695,-50,50,20,0,0,0,0;1,1,1,5,-15,-0.400000005960464,63,118,127,-18.3223114013672,18.3223114013672,-50,50,20,0,0,0,0;1,1,1,0,-8,-1,69,127,63,-34.9258499145508,34.9258499145508,-50,50,20,0,0,0,0;1,1,1,-9,0,0,127,115,63,-9.54243850708008,9.54243850708008,-50,50,20,0,0,0,0;1,1,1,3,-13,-0.349999994039536,127,68,63,-14.4085693359375,14.4085693359375,-50,50,20,0,0,0,0;0,1,1,5,0,0,0,0,0,10,-10,0,0,20,0,0,0,0;1,1,0,4,14,0,142,53,41,-42.0079536437988,26.0828170776367,-71.1267623901367,28.8732376098633,20,0,0,0,0;1,1,0,15,-25,0,41.2963180541992,136,46.7624855041504,-54.3749542236328,48.0378570556641,-69.6350631713867,30.3649368286133,20,0,0,0,0;1,1,0,-10,-10,0,85,95,107,-41.7966613769531,46.0147247314453,-20.5607471466064,79.4392547607422,20,0,0,0,0" />
	<E K="Contrast" V="-10" />
	<E K="FilmCurve" V="LeicaM240-Film Standard.fcrv" />
	<E K="FilmGrainAmount" V="34" />
	<E K="FilmGrainDensity" V="0" />
	<E K="FilmGrainGranularity" V="8" />
	<E K="FilmGrainType" V="2" />
	<E K="GradationCurve" V="0,0;0.0474114194512367,0.0281436014920473;0.227112665772438,0.204334080219269;0.491073399782181,0.471000730991364;0.776862323284149,0.711569964885712;1,1" />
	<E K="GradationCurveBlue" V="0,0.0117647061124444;0.0713891237974167,0.0406162478029728;0.255302429199219,0.221848741173744;0.431372553110123,0.494117647409439;0.670588254928589,0.768627464771271;1,0.976470589637756" />
	<E K="GradationCurveGreen" V="0,0;0.0874758362770081,0.0462184883654118;0.270588248968124,0.23137255012989;0.454901963472366,0.494117647409439;0.749019622802734,0.831372559070587;1,1" />
	<E K="GradationCurveRed" V="0,0;0.0901960805058479,0.0431372560560703;0.266666680574417,0.209243699908257;0.454901963472366,0.494117647409439;0.749019622802734,0.831372559070587;1,1" />
	<E K="GradationCurveY" V="0,0;1,1" />
	<E K="HighlightRecoveryEx" V="-10" />
	<E K="Name" V="Kodachrome 64" />
	<E K="Saturation" V="-15.4000244140625" />
	<E K="ShadowRecovery" V="10" />
	<E K="StyleSource" V="Styles" />
	<E K="UUID" V="9EF57F8F-3A15-4EB0-885D-08161A982EE4" />
</SL>
