Films/Kodak Ektar 100.costyle
<?xml version="1.0"?>
<SL Engine="1100">
	<E K="Brightness" V="5" />
	<E K="ColorBalance" V="1;1;1" />
	<E K="ColorBalanceHighlight" V="1;0.970400810241699;0.989775121212006" />
	<E K="ColorBalanceMidtone" V="1;1;1" />
	<E K="ColorBalanceShadow" V="0.931424736976624;1;0.98385763168335" />
	<E K="ColorCorrections" V="1,1,1,0,0,0,127,63,119,-20.2801284790039,20.2801284790039,-50,50,29.0848770141602,0,0,0,0;1,1,1,-12,-20,0.5,67,63,127,-13.4358406066895,13.4358406066895,-50,50,29.0848770141602,0,0,0,0;1,1,1,-15,4,-0.400000005960464,63,118,127,-13.7798728942871,13.7798728942871,-50,50,29.0848770141602,0,0,0,0;1,1,1,20,-40,0.100000001490116,69,127,63,-30.3834114074707,30.3834114074707,-50,50,29.0848770141602,0,0,0,0;1,1,1,2.01512098312378,-20,-0.200000002980232,127,115,63,-5,5,-50,50,29.0848770141602,0,0,0,0;1,1,1,0,-5.5,-0.300000011920929,127,68,63,-9.86613082885742,9.86613082885742,-50,50,29.0848770141602,0,0,0,0;0,1,1,0,0,0,0,0,0,14.5424385070801,-14.5424385070801,0,0,29.0848770141602,0,0,0,0" />
	<E K="Contrast" V="-20" />
	<E K="FilmCurve" V="LeicaM9-Film High Contrast.fcrv" />
	<E K="FilmGrainAmount" V="42" />
	<E K="FilmGrainDensity" V="0" />
	<E K="FilmGrainGranularity" V="18" />
	<E K="FilmGrainType" V="2" />
	<E K="GradationCurve" V="0,0;0.0833333283662796,0.0973274111747742;0.27020201086998,0.270547926425934;0.497474759817123,0.476027399301529;0.618686854839325,0.585616409778595;0.75,0.715753436088562;1,0.952380955219269" />
	<E K="GradationCurveBlue" V="0,0;0.113725490868092,0.0431372560560703;0.273715317249298,0.23304009437561;0.39215686917305,0.407843142747879;0.517647087574005,0.584313750267029;0.686274528503418,0.776470601558685;1,1" />
	<E K="GradationCurveGreen" V="0,0;0.113725490868092,0.0352941192686558;0.250980406999588,0.196078434586525;0.498039215803146,0.535958290100098;0.686274528503418,0.749019622802734;1,1" />
	<E K="GradationCurveRed" V="0,0;0.121568627655506,0.0470588244497776;0.290196090936661,0.258823543787003;0.490196079015732,0.529411792755127;0.690196096897125,0.749019622802734;1,1" />
	<E K="GradationCurveY" V="0,0;1,1" />
	<E K="Highlight" V="1;1;1;1" />
	<E K="HighlightRecoveryEx" V="-10" />
	<E K="Midtone" V="0;0;0;0.0106633901596069" />
	<E K="Name" V="Kodak Ektar 100" />
	<E K="Saturation" V="-10" />
	<E K="Shadow" V="0;0;0;0" />
	<E K="ShadowRecovery" V="10" />
	<E K="StyleSource" V="Styles" />
	<E K="TargetHighlight" V="1;1;1;1" />
	<E K="TargetShadow" V="0;0;0;0" />
	<E K="UsmAmount" V="100" />
	<E K="UsmRadius" V="0.491030842065811" />
	<E K="UUID" V="9419D1C3-9CE8-44CB-B01A-4055CE82D7CE" />
</SL>
