Films/Kodak Gold 200.costyle
<?xml version="1.0"?>
<SL Engine="1100">
	<E K="ColorBalance" V="1;1;1" />
	<E K="ColorBalanceHighlight" V="1;0.999989986419678;0.999991774559021" />
	<E K="ColorBalanceMidtone" V="1;1;1" />
	<E K="ColorBalanceShadow" V="0.975124061107635;0.993651747703552;1" />
	<E K="ColorCorrections" V="1,1,1,4,-15,0.0500000007450581,127,63,119,-28.822566986084,28.822566986084,-50,50,12,0,0,0,0;1,1,1,-0.5,-15,-0.0500000007450581,67,63,127,-21.9782791137695,21.9782791137695,-50,50,12,0,0,0,0;1,1,1,-16,-25,0.100000001490116,63,118,127,-22.3223114013672,22.3223114013672,-50,50,12,0,0,0,0;1,1,1,14.3999996185303,-25,0,69,127,63,-38.9258460998535,38.9258460998535,-50,50,12,0,0,0,0;1,1,1,10,-16,0.0599999986588955,127,115,63,-13.5424394607544,13.5424394607544,-50,50,12,0,0,0,0;1,1,1,15.4666662216187,-15,0,127,68,63,-18.4085693359375,18.4085693359375,-50,50,12,0,0,0,0;0,1,1,0,0,0,0,128,0,-8,8,-50,50,0,0,0,0,0;1,1,0,10,-8,0,72,74,42,-20,20,-20,20,20,0,0,0,0;1,1,0,0,-10,2.53333330154419,50,47,50,-20,20,-5.99999952316284,20,20,0,0,0,0;0,1,0,-15,5,0,0,0,0,0,0,0,0,30,0,0,0,0" />
	<E K="Contrast" V="-10" />
	<E K="FilmCurve" V="LeicaM240-Film Standard.fcrv" />
	<E K="FilmGrainAmount" V="72" />
	<E K="FilmGrainDensity" V="0" />
	<E K="FilmGrainGranularity" V="25" />
	<E K="FilmGrainType" V="1" />
	<E K="GradationCurve" V="0,0;0.104240283370018,0.124789923429489;0.246359065175056,0.268767505884171;0.496854424476624,0.481092423200607;0.750883400440216,0.713025212287903;1,1" />
	<E K="GradationCurveBlue" V="0,0;0.196570426225662,0.0998785495758057;0.474475204944611,0.477469563484192;0.687694907188416,0.765985012054443;1,1" />
	<E K="GradationCurveGreen" V="0,0;0.207129552960396,0.102959781885147;0.469736069440842,0.488954186439514;0.687265336513519,0.782511591911316;1,1" />
	<E K="GradationCurveRed" V="0,0;0.0830666422843933,0.035452775657177;0.219240680336952,0.0984779894351959;0.467796087265015,0.473547995090485;0.695108473300934,0.785032570362091;1,1" />
	<E K="GradationCurveY" V="0,0;1,1" />
	<E K="Highlight" V="1;1;1;0.999436736106873" />
	<E K="HighlightRecoveryEx" V="-10" />
	<E K="Midtone" V="0;0;0;0" />
	<E K="Name" V="Kodak Gold 200" />
	<E K="Saturation" V="-10.3333330154419" />
	<E K="Shadow" V="0;0;0;0.00423883413895965" />
	<E K="ShadowRecovery" V="10" />
	<E K="StyleSource" V="Styles" />
	<E K="TargetHighlight" V="1;1;1;1" />
	<E K="TargetShadow" V="0;0;0;0" />
	<E K="UUID" V="54E1C58E-8F20-4BE4-943F-9577327DACD4" />
</SL>
