Films/Kodak Ektachrome.costyle
<?xml version="1.0"?>
<SL Engine="1300">
	<E K="ChromaticAberEnabled" V="0" />
	<E K="Clarity" V="0" />
	<E K="ClarityMethod" V="2" />
	<E K="ClarityStructure" V="0" />
	<E K="ColorBalance" V="1;1;1" />
	<E K="ColorBalanceHighlight" V="0.987500011920929;0.987500011920929;0.987500011920929" />
	<E K="ColorBalanceMidtone" V="1.04166698455811;1.04166698455811;1.04166698455811" />
	<E K="ColorBalanceShadow" V="0.987500011920929;0.987500011920929;0.987500011920929" />
	<E K="ColorCorrections" V="1,1,0,3,-16.7999992370605,-1.10000002384186,237,45.3288917541504,66.479118347168,-9.59939575195312,9.18455505371094,-80.8738861083984,19.1261138916016,25.9748382568359,0,0,0,0;1,1,0,0,2.20000004768372,-0.439999997615814,255,130,12,0,4.55426025390625,-95.2941207885742,4.70587921142578,18.2099227905273,0,0,0,0;1,1,0,-3,0,-0.660000026226044,255,225.91796875,36.1078147888184,-5.1807861328125,1.47015380859375,-85.8400726318359,14.1599273681641,20.3872756958008,0,0,0,0;1,1,0,0.899999976158142,-25.0799980163574,-0.5,58.8606338500977,208,10.4000005722046,-33.7201843261719,32.3572998046875,-95,5,23.2739639282227,0,0,0,0;1,1,0,5.09999990463257,-20.5200004577637,-0.695999979972839,22.6761436462402,216,177.109222412109,-4.34454345703125,5.92352294921875,-89.5017852783203,10.4982147216797,28.4633140563965,0,0,0,0;1,1,0,0.899999976158142,5.5,-0.899999976158142,61.345775604248,87.8979263305664,165,-14.3739013671875,22.6552124023438,-62.820743560791,37.179256439209,27.3963947296143,0,0,0,0;1,1,0,9.59999942779541,-37,0.314999997615814,104,0,148,-12.1621704101562,2.99188232421875,-100,0,26.3488998413086,0,0,0,0;1,1,0,0,-29.4000015258789,-1.36000001430511,235,50.884838104248,191.595169067383,-6.26992797851562,5.4552001953125,-78.3468780517578,21.6531219482422,20.9790744781494,0,0,0,0;1,1,2,2.36563158035278,-15.9744558334351,0,174,139,97,0,25,-42.1264381408691,25.6254768371582,25,0,0,0,0" />
	<E K="Contrast" V="0" />
	<E K="FilmGrainAmount" V="0" />
	<E K="FilmGrainDensity" V="0" />
	<E K="FilmGrainGranularity" V="50" />
	<E K="FilmGrainType" V="2" />
	<E K="GradationCurve" V="0,0;0.101961001753807,0.105881996452808;0.49803900718689,0.50196099281311;1,1" />
	<E K="GradationCurveBlue" V="0,0;0.10980399698019,0.0549019984900951;0.231372997164726,0.160784006118774;0.360783994197845,0.345097988843918;0.494118005037308,0.549019992351532;0.623529016971588,0.701960980892181;0.749019980430603,0.819607973098755;0.874509990215302,0.913725018501282;1,1" />
	<E K="GradationCurveGreen" V="0,0;0.10980399698019,0.0549019984900951;0.231372997164726,0.156863003969193;0.360783994197845,0.345097988843918;0.494118005037308,0.552941024303436;0.623529016971588,0.713725984096527;0.749019980430603,0.831372976303101;0.874509990215302,0.921568989753723;1,1" />
	<E K="GradationCurveRed" V="0,0;0.10980399698019,0.0509800016880035;0.231372997164726,0.152941003441811;0.360783994197845,0.349020004272461;0.494118005037308,0.552941024303436;0.623529016971588,0.709803998470306;0.749019980430603,0.823529005050659;0.874509990215302,0.913725018501282;1,1" />
	<E K="GradationCurveY" V="0,0;0.200000002980232,0.217500001192093;0.400000005960464,0.39724999666214;0.600000023841858,0.578999996185303;0.800000011920929,0.778999984264374;1,1" />
	<E K="Highlight" V="1;1;1;1" />
	<E K="HighlightRecoveryEx" V="-15" />
	<E K="LensAperture" V="-1.33075154119311e+29" />
	<E K="LensChromaFringing" V="|||||" />
	<E K="LensFocalLength" V="4.58574922450296e-41" />
	<E K="LensGeoAbr" V="|0.000000|1|0|0" />
	<E K="LensLCCDustRemovalEnabled" V="0" />
	<E K="LensLightFallOff" V="|0|1" />
	<E K="LensRadialBlur" V="||0|1" />
	<E K="LensShift" V="0" />
	<E K="LensShiftDirection" V="0" />
	<E K="LensShiftXY" V="0;3.85197789738703e-34" />
	<E K="LensTilt" V="0" />
	<E K="LensTiltDirection" V="0" />
	<E K="Midtone" V="0;0;0;0.00365000008605421" />
	<E K="Name" V="Presetpro - Ektachrome" />
	<E K="Saturation" V="-5" />
	<E K="Shadow" V="0;0;0;0" />
	<E K="ShadowRecovery" V="16.8346385955811" />
	<E K="TargetHighlight" V="1;1;1;0.983430027961731" />
	<E K="TargetShadow" V="0;0;0;0" />
	<E K="UsmAmount" V="38" />
	<E K="UsmRadius" V="1.10000002384186" />
	<E K="UUID" V="3C71B520-ADA5-4849-811A-8AC8F8C6EE01" />
	<E K="Vignetting" V="0|1|0|1" />
</SL>
