Films/Kodak Elite Chrome 100.costyle
<?xml version="1.0"?>
<SL Engine="1100">
	<E K="ColorCorrections" V="1,1,1,0,-15,0,127,63,119,-28.822566986084,28.822566986084,-50,50,12,0,0,0,0;1,1,1,0,-30,0,75.4296569824219,63,127,-14.0754508972168,14.0754508972168,-50,50,12,0,0,0,0;1,1,1,4,-16,0,63,116.063262939453,127,-36.3122825622559,36.3122825622559,-50,50,12,0,0,0,0;1,1,1,5.4193549156189,-50.5806465148926,0,75.4929504394531,127,63,-32.8387031555176,32.8387031555176,-50,50,12,0,0,0,0;1,1,1,-5.5,0,-0.200000002980232,127,115,63,-13.5424385070801,13.5424385070801,-50,50,12,0,0,0,0;1,1,1,10,-6,0.100000001490116,127,68,63,-18.4085693359375,18.4085693359375,-50,50,12,0,0,0,0;0,1,1,2,0,0,0,0,0,6,-6,0,0,12,0,0,0,0" />
	<E K="Contrast" V="-9.74026012420654" />
	<E K="FilmCurve" V="LeicaM10-Film High Contrast.fcrv" />
	<E K="FilmGrainAmount" V="34" />
	<E K="FilmGrainDensity" V="0" />
	<E K="FilmGrainGranularity" V="8" />
	<E K="FilmGrainType" V="2" />
	<E K="GradationCurve" V="0,0;0.0579990297555923,0.0547619163990021;0.143151119351387,0.158963590860367;0.249504610896111,0.250840336084366;0.36925795674324,0.377731084823608;0.496466428041458,0.476330518722534;0.754416942596436,0.713025212287903;1,0.966666638851166" />
	<E K="GradationCurveBlue" V="0,0;0.115277498960495,0.0563025251030922;0.427450984716415,0.427450984716415;0.690196096897125,0.7843137383461;1,1" />
	<E K="GradationCurveGreen" V="0,0;0.129411771893501,0.0549019612371922;0.427450984716415,0.427450984716415;0.709803938865662,0.792156875133514;1,1" />
	<E K="GradationCurveRed" V="0,0;0.129411771893501,0.0540616251528263;0.431372553110123,0.427450984716415;0.749019622802734,0.823529422283173;1,1" />
	<E K="GradationCurveY" V="0,0.0142857143655419;1,1" />
	<E K="Highlight" V="1;1;1;1" />
	<E K="HighlightRecoveryEx" V="-10" />
	<E K="Midtone" V="0;0;0;0" />
	<E K="Name" V="Kodak Elite Chrome 100" />
	<E K="Saturation" V="-20" />
	<E K="Shadow" V="0;0;0;0" />
	<E K="ShadowRecovery" V="10" />
	<E K="StyleSource" V="Styles" />
	<E K="TargetHighlight" V="1;1;1;0.982876718044281" />
	<E K="TargetShadow" V="0;0;0;0.0205479450523853" />
	<E K="UUID" V="A6D5B162-CA77-4C9D-80C3-78D9863B930C" />
</SL>
