Films/Portra Mood 5600K.costyle
<?xml version="1.0"?>
<SL Engine="1300">
	<E K="Clarity" V="-8.37732315063477" />
	<E K="ClarityMethod" V="2" />
	<E K="ClarityStructure" V="3.96038842201233" />
	<E K="CleanLongExposureAmount" V="28.7127914428711" />
	<E K="CnrAmount" V="29.3729248046875" />
	<E K="ColorBalance" V="1;1;1" />
	<E K="ColorBalanceHighlight" V="0.990357756614685;0.978355646133423;1" />
	<E K="ColorBalanceMidtone" V="1;1;1" />
	<E K="ColorBalanceShadow" V="1;1;1" />
	<E K="ColorCorrections" V="1,1,0,-5.40285444259644,0.710918128490448,1.70616030693054,84.8715896606445,98.0004272460938,43.7064399719238,-12.6999206542969,12.0620422363281,-39.5081176757812,44.5982131958008,15,0,0,0,0;1,1,0,-13.3649301528931,12.7962284088135,0.18957307934761,67.5569534301758,149.565063476562,70.6672973632812,-24.3759460449219,24.9425659179688,-37.2234802246094,45.1689414978027,15,0,0,0,0;1,1,0,-8.1042652130127,-29.1469230651855,1.23222720623016,147.955780029297,192.828353881836,186.029968261719,-11.8017883300781,14.5134582519531,-5.20012855529785,76.7292633056641,15,0,0,0,0;1,1,0,14.5023717880249,-5.68720054626465,0.663506865501404,26.1273765563965,132.506408691406,194.709457397461,-4.46617126464844,3.64866638183594,-67.5538330078125,16.2267837524414,15,0,0,0,0;1,1,0,17.9146919250488,-42.6540222167969,0.947867274284363,16.6110439300537,69.6225738525391,200.565505981445,-5.56266784667969,21.1000671386719,-11.533088684082,8.2821044921875,15,0,0,0,0;1,1,0,1.27962338924408,7.10899782180786,-0.663506865501404,81.5645980834961,96.6061630249023,168.205368041992,-12.2412109375,14.2696533203125,-5.91709136962891,17.4488334655762,15,0,0,0,0;1,1,0,-3.69668316841125,3.55449557304382,-0.900474190711975,120.01685333252,131.150238037109,168.748352050781,-9.07731628417969,17.2937622070312,-10.1330699920654,7.88585662841797,15,0,0,0,0;1,1,0,3.67914223670959,23.4255886077881,-0.426492691040039,63.2557411193848,12.9673261642456,110.338081359863,-20.2227478027344,13.5308227539062,-54.4726257324219,11.7523574829102,15,0,0,0,0;1,1,0,-16.066349029541,-4.97628450393677,0.0947847962379456,96.6287231445312,87.4404373168945,110.741455078125,-13.1091918945312,20.6629333496094,-2,4.93443298339844,15,0,0,0,0;1,1,0,-12.6540298461914,7.34597165319428e-07,-2.51184725761414,194.608291625977,134.686126708984,183.275238037109,-17.691162109375,22.4616394042969,-10.8226013183594,69.2088317871094,15,0,0,0,0;1,1,0,-5.97156143188477,-2.10711002349854,-1.56398093700409,178.844787597656,86.5844802856445,86.5844802856445,-17.414794921875,9.96835327148438,-5.27905654907227,48.4131965637207,15,0,0,0,0;1,1,0,-1.99053287506104,-0.710888147354126,-1.4691915512085,179.184173583984,134.066253662109,134.066253662109,-17.5661315917969,9.93884086608887,-5.42852020263672,11.708927154541,15,0,0,0,0;1,1,0,9.52606868743896,0.710901618003845,-1.32701504230499,215.146545410156,83.7714385986328,13.5569639205933,-2,8.64417457580566,-38.7837448120117,6.30126953125,15,0,0,0,0;1,1,0,8.08578491210938,-7.58293390274048,1.37440943717957,215.48681640625,183.784851074219,166.808792114258,-2.1167049407959,8.69640731811523,-2.99970626831055,2,15,0,0,0,0;1,1,0,8.67298603057861,27.014232635498,1.42179989814758,220.452651977539,196.385406494141,125.551635742188,-3.31843185424805,5.20632934570312,-23.1472549438477,56.9517478942871,15,0,0,0,0;1,1,0,-5.4028434753418,0.710899949073792,-0.189573168754578,223.376983642578,170.340179443359,141.691131591797,-2.29615211486816,8.44680595397949,-3.63554000854492,9.36774444580078,15,0,0,0,0" />
	<E K="Contrast" V="0" />
	<E K="DehazeAmount" V="0" />
	<E K="DehazeColor" V="0.0322851203382015;0.0469855815172195;0.0300903897732496" />
	<E K="Exposure" V="0" />
	<E K="FilmCurve" V="PanasonicS1-Linear Response.fcrv" />
	<E K="FilmGrainAmount" V="0" />
	<E K="FilmGrainDensity" V="0" />
	<E K="FilmGrainGranularity" V="0" />
	<E K="FilmGrainType" V="2" />
	<E K="GradationCurve" V="0,0;1,1" />
	<E K="GradationCurveBlue" V="0,0;1,1" />
	<E K="GradationCurveGreen" V="0,0;1,1" />
	<E K="GradationCurveRed" V="0,0;1,1" />
	<E K="GradationCurveY" V="0,0;0.0716049373149872,0.103333331644535;0.172839507460594,0.283333331346512;0.286419749259949,0.529999971389771;0.417283952236176,0.723333358764648;0.688888907432556,0.926666676998138;1,1" />
	<E K="HighlightRecoveryEx" V="-48" />
	<E K="Name" V="VM_PortraMood 5600K" />
	<E K="NoiseDetailsAmount" V="29" />
	<E K="NrAmount" V="29.0428466796875" />
	<E K="StyleSource" V="Styles" />
	<E K="UsmAmount" V="160" />
	<E K="UsmRadius" V="0.397688239812851" />
	<E K="UsmThreshold" V="3.97991943359375" />
	<E K="UUID" V="FBECFDDF-23DA-49C7-9C89-FD72A978F219" />
	<E K="WhiteBalanceTemperature" V="5599.99951171875" />
	<E K="WhiteBalanceTint" V="0" />
	<E K="WhiteRecovery" V="-24" />
</SL>
