Customs/Amalfi Coast.costyle
<?xml version="1.0"?>
<SL Engine="1300">
	<E K="Brightness" V="-1.28833568096161" />
	<E K="Clarity" V="0" />
	<E K="ClarityMethod" V="2" />
	<E K="ClarityStructure" V="0" />
	<E K="ColorBalance" V="1;1;1" />
	<E K="ColorBalanceHighlight" V="0.899999976158142;0.899999976158142;0.899999976158142" />
	<E K="ColorBalanceMidtone" V="1.05263197422028;1.05263197422028;1.05263197422028" />
	<E K="ColorBalanceShadow" V="0.962499976158142;0.962499976158142;0.962499976158142" />
	<E K="ColorCorrections" V="1,1,0,6,-8.39999771118164,-0.699999988079071,237,45.3288917541504,66.479118347168,-9.59939575195312,9.18455505371094,-80.8738861083984,19.1261138916016,25.9748382568359,0,0,0,0;1,1,0,2.70000004768372,-6.5,-0.0879999995231628,255,130,12,0,4.55426025390625,-95.2941207885742,4.70587921142578,18.2099227905273,0,0,0,0;1,1,0,2.70000004768372,-21.5999984741211,0.0500000007450581,255,225.91796875,36.1078147888184,-5.1807861328125,1.47015380859375,-85.8400726318359,14.1599273681641,20.3872756958008,0,0,0,0;1,1,0,3,-21.7799987792969,0.0280000008642673,58.8606338500977,208,10.4000005722046,-33.7201843261719,32.3572998046875,-95,5,23.2739639282227,0,0,0,0;1,1,0,2.70000004768372,-7.01999998092651,0.197999998927116,22.6761436462402,216,177.109222412109,-4.34454345703125,5.92352294921875,-89.5017852783203,10.4982147216797,28.4633140563965,0,0,0,0;1,1,0,-1.5,-10.0300025939941,0.560000002384186,61.345775604248,87.8979263305664,165,-14.3739013671875,22.6552124023438,-62.820743560791,37.179256439209,27.3963947296143,0,0,0,0;1,1,0,-2.6999990940094,-29,0.755999982357025,104,0,148,-12.1621704101562,2.99188232421875,-100,0,26.3488998413086,0,0,0,0;1,1,0,5.09999990463257,-22.3999977111816,0.321999996900558,235,50.884838104248,191.595169067383,-6.26992797851562,5.4552001953125,-78.3468780517578,21.6531219482422,20.9790744781494,0,0,0,0;1,1,2,2.36563158035278,-15.9744558334351,0,174,139,97,0,25,-42.1264381408691,25.6254768371582,25,0,0,0,0" />
	<E K="Contrast" V="10.0131778717041" />
	<E K="DehazeAmount" V="0" />
	<E K="DehazeColor" V="0;0;0" />
	<E K="FilmGrainAmount" V="0" />
	<E K="FilmGrainDensity" V="0" />
	<E K="FilmGrainGranularity" V="50" />
	<E K="FilmGrainType" V="0" />
	<E K="GradationCurve" V="0,0.045232605189085;0.0496039353311062,0.101366080343723;0.211765006184578,0.235293999314308;0.36862701177597,0.372548997402191;0.509804010391235,0.494118005037308;0.643136978149414,0.619607985019684;0.772548973560333,0.745097994804382;0.898038983345032,0.874509990215302;1,0.980391979217529" />
	<E K="GradationCurveBlue" V="0,0;0.0509800016880035,0.0352940000593662;0.211765006184578,0.164706006646156;0.36862701177597,0.329412013292313;0.509804010391235,0.505882024765015;0.643136978149414,0.682353019714355;0.772548973560333,0.831372976303101;0.898038983345032,0.929412007331848;1,0.992156982421875" />
	<E K="GradationCurveGreen" V="0,0;0.0509800016880035,0.0392160005867481;0.211765006184578,0.172548994421959;0.36862701177597,0.341176003217697;0.509804010391235,0.51764702796936;0.643136978149414,0.682353019714355;0.772548973560333,0.823529005050659;0.898038983345032,0.925490021705627;1,1" />
	<E K="GradationCurveRed" V="0,0;0.0509800016880035,0.0352940000593662;0.211765006184578,0.164706006646156;0.36862701177597,0.333332985639572;0.509804010391235,0.521569013595581;0.643136978149414,0.686275005340576;0.772548973560333,0.823529005050659;0.898038983345032,0.925490021705627;1,1" />
	<E K="GradationCurveY" V="0.0296563040465117,-0;0.216097801923752,0.181625574827194;0.484615683555603,0.480640351772308;0.748385548591614,0.767652988433838;0.965108454227448,0.964218616485596" />
	<E K="Highlight" V="1;1;1;0.986582696437836" />
	<E K="HighlightRecoveryEx" V="-35.955135345459" />
	<E K="Midtone" V="0;0;0;0.00726228952407837" />
	<E K="Name" V="Presetpro - Amalfi Coast" />
	<E K="Saturation" V="10.300329208374" />
	<E K="Shadow" V="0.0213474407792091;0;0.012324146926403;0.0103638144209981" />
	<E K="ShadowRecovery" V="29.8916110992432" />
	<E K="TargetHighlight" V="1;1;1;1" />
	<E K="TargetShadow" V="0;0;0;0.0137253431603312" />
	<E K="UsmAmount" V="60" />
	<E K="UsmRadius" V="1" />
	<E K="UUID" V="CFE4B4FF-D520-477B-80EC-2839B8C54142" />
	<E K="Vignetting" V="0|1|0|1" />
</SL>
