Customs/Atmos.costyle
<?xml version="1.0"?>
<SL Engine="1300">
	<E K="Clarity" V="0" />
	<E K="ClarityMethod" V="2" />
	<E K="ClarityStructure" V="0" />
	<E K="ColorBalance" V="1;1;1" />
	<E K="ColorBalanceHighlight" V="0.987500011920929;0.987500011920929;0.987500011920929" />
	<E K="ColorBalanceMidtone" V="1.02564096450806;1.02564096450806;1.02564096450806" />
	<E K="ColorBalanceShadow" V="0.925000011920929;0.925000011920929;0.925000011920929" />
	<E K="ColorCorrections" V="1,1,0,2.40000009536743,-1.79999899864197,-0.899999976158142,237,45.3288917541504,66.479118347168,-9.59939575195312,9.18455505371094,-80.8738861083984,19.1261138916016,25.9748382568359,0,0,0,0;1,1,0,0.600000023841858,0,-0.351999998092651,255,130,12,0,4.55426025390625,-95.2941207885742,4.70587921142578,18.2099227905273,0,0,0,0;1,1,0,-2.40000009536743,0,-0.389999985694885,255,225.91796875,36.1078147888184,-5.1807861328125,1.47015380859375,-85.8400726318359,14.1599273681641,20.3872756958008,0,0,0,0;1,1,0,0,-5.27999877929688,-0.400000005960464,58.8606338500977,208,10.4000005722046,-33.7201843261719,32.3572998046875,-95,5,23.2739639282227,0,0,0,0;1,1,0,1.5,0,-0.17399999499321,22.6761436462402,216,177.109222412109,-4.34454345703125,5.92352294921875,-89.5017852783203,10.4982147216797,28.4633140563965,0,0,0,0;1,1,0,3,1.5,-0.649999976158142,61.345775604248,87.8979263305664,165,-14.3739013671875,22.6552124023438,-62.820743560791,37.179256439209,27.3963947296143,0,0,0,0;1,1,0,3.59999990463257,-2,0,104,0,148,-12.1621704101562,2.99188232421875,-100,0,26.3488998413086,0,0,0,0;1,1,0,3.90000009536743,-22.3999977111816,-1.8400000333786,235,50.884838104248,191.595169067383,-6.26992797851562,5.4552001953125,-78.3468780517578,21.6531219482422,20.9790744781494,0,0,0,0;1,1,2,2.36563158035278,-15.9744558334351,0,174,139,97,0,25,-42.1264381408691,25.6254768371582,25,0,0,0,0" />
	<E K="Contrast" V="0" />
	<E K="GradationCurve" V="0,0;0.149020001292229,0.160784006118774;0.478430986404419,0.490195989608765;1,1" />
	<E K="GradationCurveBlue" V="0,0;0.105881996452808,0.0627449974417686;0.223528996109962,0.172548994421959;0.352941006422043,0.364706009626389;0.486274987459183,0.564706027507782;0.619607985019684,0.725489974021912;0.745097994804382,0.839215993881226;0.874509990215302,0.929412007331848;1,1" />
	<E K="GradationCurveGreen" V="0,0;0.105881996452808,0.0666669979691505;0.223528996109962,0.168626993894577;0.352941006422043,0.345097988843918;0.486274987459183,0.541176021099091;0.619607985019684,0.713725984096527;0.745097994804382,0.835294008255005;0.874509990215302,0.929412007331848;1,1" />
	<E K="GradationCurveRed" V="0,0;0.105881996452808,0.0627449974417686;0.223528996109962,0.164706006646156;0.352941006422043,0.337255001068115;0.486274987459183,0.533333003520966;0.619607985019684,0.709803998470306;0.745097994804382,0.839215993881226;0.874509990215302,0.929412007331848;1,1" />
	<E K="GradationCurveY" V="0,0;0.200000002980232,0.210999995470047;0.400000005960464,0.396699994802475;0.600000023841858,0.58459997177124;0.800000011920929,0.784600019454956;1,1" />
	<E K="Highlight" V="1;1;1;1" />
	<E K="HighlightRecoveryEx" V="-11" />
	<E K="Midtone" V="0;0;0;0" />
	<E K="Name" V="Presetpro - Atmos" />
	<E K="Saturation" V="5" />
	<E K="Shadow" V="0;0;0;0" />
	<E K="ShadowRecovery" V="17.6000003814697" />
	<E K="StyleSource" V="Styles" />
	<E K="TargetHighlight" V="1;1;1;1" />
	<E K="TargetShadow" V="0;0;0;0" />
	<E K="UsmAmount" V="35" />
	<E K="UsmRadius" V="1.20000004768372" />
	<E K="UUID" V="E48B5E06-4CFD-43FB-8B32-544D0AAF4597" />
</SL>
