Customs/Beachwood.costyle
<?xml version="1.0"?>
<SL Engine="1300">
	<E K="Clarity" V="-4" />
	<E K="ClarityMethod" V="2" />
	<E K="ClarityStructure" V="-1.33333301544189" />
	<E K="ColorBalance" V="1;1;1" />
	<E K="ColorBalanceHighlight" V="0.985000014305115;0.985000014305115;0.985000014305115" />
	<E K="ColorBalanceMidtone" V="1.04438602924347;1.04438602924347;1.04438602924347" />
	<E K="ColorBalanceShadow" V="0.987500011920929;0.987500011920929;0.987500011920929" />
	<E K="ColorCorrections" V="1,1,0,2.40000009536743,0,-0.75,237,45.3288917541504,66.479118347168,-9.59939575195312,9.18455505371094,-80.8738861083984,19.1261138916016,25.9748382568359,0,0,0,0;1,1,0,0,0,0,255,130,12,0,4.55426025390625,-95.2941207885742,4.70587921142578,18.2099227905273,0,0,0,0;1,1,0,2.40000009536743,0,0.400000005960464,255,225.91796875,36.1078147888184,-5.1807861328125,1.47015380859375,-85.8400726318359,14.1599273681641,20.3872756958008,0,0,0,0;1,1,0,3.90000009536743,-11.8800010681152,0.335999995470047,58.8606338500977,208,10.4000005722046,-33.7201843261719,32.3572998046875,-95,5,23.2739639282227,0,0,0,0;1,1,0,0,-7.01999998092651,-0.34799998998642,22.6761436462402,216,177.109222412109,-4.34454345703125,5.92352294921875,-89.5017852783203,10.4982147216797,28.4633140563965,0,0,0,0;1,1,0,-3.90000009536743,-7.08000183105469,-0.899999976158142,61.345775604248,87.8979263305664,165,-14.3739013671875,22.6552124023438,-62.820743560791,37.179256439209,27.3963947296143,0,0,0,0;1,1,0,0,-23,-0.490000009536743,104,0,148,-12.1621704101562,2.99188232421875,-100,0,26.3488998413086,0,0,0,0;1,1,0,0.899999976158142,-4.90000200271606,0,235,50.884838104248,191.595169067383,-6.26992797851562,5.4552001953125,-78.3468780517578,21.6531219482422,20.9790744781494,0,0,0,0;1,1,2,2.36563158035278,-15.9744558334351,0,174,139,97,0,25,-42.1264381408691,25.6254768371582,25,0,0,0,0" />
	<E K="Contrast" V="2" />
	<E K="FilmGrainAmount" V="22" />
	<E K="FilmGrainDensity" V="0" />
	<E K="FilmGrainGranularity" V="50" />
	<E K="FilmGrainType" V="2" />
	<E K="GradationCurve" V="0,0.0392160005867481;0.254902005195618,0.227450996637344;0.36862701177597,0.372548997402191;0.490195989608765,0.49803900718689;0.623529016971588,0.623529016971588;0.752941012382507,0.745097994804382;0.878431022167206,0.870588004589081;1,1" />
	<E K="GradationCurveBlue" V="0,0;0.254902005195618,0.223528996109962;0.36862701177597,0.329412013292313;0.490195989608765,0.470587998628616;0.623529016971588,0.619607985019684;0.752941012382507,0.756862998008728;0.878431022167206,0.882353007793427;1,1" />
	<E K="GradationCurveGreen" V="0,0.00392200006172061;0.254902005195618,0.231372997164726;0.36862701177597,0.341176003217697;0.490195989608765,0.490195989608765;0.623529016971588,0.643136978149414;0.752941012382507,0.784313976764679;0.878431022167206,0.898038983345032;1,1" />
	<E K="GradationCurveRed" V="0,0;0.254902005195618,0.219607993960381;0.36862701177597,0.337255001068115;0.490195989608765,0.494118005037308;0.623529016971588,0.64705902338028;0.752941012382507,0.776471018791199;0.878431022167206,0.890196025371552;1,1" />
	<E K="GradationCurveY" V="0,0;0.200000002980232,0.200000002980232;0.400000005960464,0.386000007390976;0.600000023841858,0.580399990081787;0.800000011920929,0.780399978160858;1,1" />
	<E K="Highlight" V="1;1;1;1" />
	<E K="HighlightRecoveryEx" V="-14" />
	<E K="Midtone" V="0;0;0;0.00437999982386827" />
	<E K="Name" V="Presetpro - Beachwood" />
	<E K="Saturation" V="0" />
	<E K="Shadow" V="0;0;0;0" />
	<E K="ShadowRecovery" V="4" />
	<E K="StyleSource" V="Styles" />
	<E K="TargetHighlight" V="1;1;1;0.980116009712219" />
	<E K="TargetShadow" V="0;0;0;0" />
	<E K="UsmAmount" V="15" />
	<E K="UsmRadius" V="1" />
	<E K="UUID" V="3E49BAE5-D3D6-4BED-9E54-320066AFC1F5" />
</SL>
