Customs/Chateau.costyle
<?xml version="1.0"?>
<SL Engine="1300">
	<E K="Clarity" V="0" />
	<E K="ClarityMethod" V="2" />
	<E K="ClarityStructure" V="0" />
	<E K="ColorBalance" V="1;1;1" />
	<E K="ColorBalanceHighlight" V="1;1;1" />
	<E K="ColorBalanceMidtone" V="1.08108103275299;1.08108103275299;1.08108103275299" />
	<E K="ColorBalanceShadow" V="1;1;1" />
	<E K="ColorCorrections" V="1,1,0,2.40000009536743,-22.7999992370605,0.209999993443489,237,45.3288917541504,66.479118347168,-9.59939575195312,9.18455505371094,-80.8738861083984,19.1261138916016,25.9748382568359,0,0,0,0;1,1,0,-1.20000100135803,-6,0.0799999982118607,255,130,12,0,4.55426025390625,-95.2941207885742,4.70587921142578,18.2099227905273,0,0,0,0;1,1,0,0,-13.5999984741211,0.400000005960464,255,225.91796875,36.1078147888184,-5.1807861328125,1.47015380859375,-85.8400726318359,14.1599273681641,20.3872756958008,0,0,0,0;1,1,0,2.40000009536743,-27.060001373291,0,58.8606338500977,208,10.4000005722046,-33.7201843261719,32.3572998046875,-95,5,23.2739639282227,0,0,0,0;1,1,0,2.40000009536743,-25.9200019836426,0.263999998569489,22.6761436462402,216,177.109222412109,-4.34454345703125,5.92352294921875,-89.5017852783203,10.4982147216797,28.4633140563965,0,0,0,0;1,1,0,-1.5,-19.4699974060059,-1.14999997615814,61.345775604248,87.8979263305664,165,-14.3739013671875,22.6552124023438,-62.820743560791,37.179256439209,27.3963947296143,0,0,0,0;1,1,0,0,-38,0.755999982357025,104,0,148,-12.1621704101562,2.99188232421875,-100,0,26.3488998413086,0,0,0,0;1,1,0,6,-27.2999992370605,0.137999996542931,235,50.884838104248,191.595169067383,-6.26992797851562,5.4552001953125,-78.3468780517578,21.6531219482422,20.9790744781494,0,0,0,0;1,1,2,2.36563158035278,-15.9744558334351,0,174,139,97,0,25,-42.1264381408691,25.6254768371582,25,0,0,0,0" />
	<E K="Contrast" V="0" />
	<E K="FilmGrainAmount" V="29" />
	<E K="FilmGrainDensity" V="0" />
	<E K="FilmGrainGranularity" V="50" />
	<E K="FilmGrainType" V="2" />
	<E K="GradationCurve" V="0,0.0156859997659922;0.219607993960381,0.200000002980232;0.364706009626389,0.36862701177597;0.494118005037308,0.494118005037308;0.619607985019684,0.619607985019684;0.749019980430603,0.749019980430603;0.878431022167206,0.874509990215302;1,0.992156982421875" />
	<E K="GradationCurveBlue" V="0,0.00784299988299608;0.219607993960381,0.168626993894577;0.364706009626389,0.301961004734039;0.494118005037308,0.509804010391235;0.619607985019684,0.701960980892181;0.749019980430603,0.847059011459351;0.878431022167206,0.937255024909973;1,1" />
	<E K="GradationCurveGreen" V="0,0;0.219607993960381,0.156863003969193;0.364706009626389,0.317647010087967;0.494118005037308,0.537254989147186;0.619607985019684,0.713725984096527;0.749019980430603,0.847059011459351;0.878431022167206,0.933332979679108;1,0.996078014373779" />
	<E K="GradationCurveRed" V="0,0;0.219607993960381,0.133332997560501;0.364706009626389,0.298038989305496;0.494118005037308,0.545098006725311;0.619607985019684,0.733332991600037;0.749019980430603,0.862744987010956;0.878431022167206,0.941175997257233;1,1" />
	<E K="GradationCurveY" V="0,0;0.200000002980232,0.214000001549721;0.400000005960464,0.379799991846085;0.600000023841858,0.558000028133392;0.800000011920929,0.758000016212463;1,1" />
	<E K="Highlight" V="1;1;1;1" />
	<E K="HighlightRecoveryEx" V="-80.0563049316406" />
	<E K="Midtone" V="0;0;0;0.0138699999079108" />
	<E K="Name" V="Presetpro - Chateau" />
	<E K="Saturation" V="0" />
	<E K="Shadow" V="0;0;0;0" />
	<E K="ShadowRecovery" V="40.1972961425781" />
	<E K="TargetHighlight" V="1;1;1;0.937034010887146" />
	<E K="TargetShadow" V="0;0;0;0" />
	<E K="UsmAmount" V="0" />
	<E K="UsmRadius" V="1" />
	<E K="UUID" V="A2D3C74D-1645-4C85-A342-9B16A93CF688" />
</SL>
