Customs/Deep Water.costyle
<?xml version="1.0"?>
<SL Engine="900">
    <E K="Clarity" V="0.000000"/>
    <E K="ClarityMethod" V="2"/>
    <E K="ClarityStructure" V="0.000000"/>
    <E K="CnrAmount" V="25.000000"/>
    <E K="ColorBalanceHighlight" V="0.986000;1.000000;0.994894"/>
    <E K="ColorBalanceMidtone" V="0.944500;0.996518;0.988512"/>
    <E K="ColorBalanceShadow" V="0.904000;0.986071;1.000000"/>
    <E K="ColorCorrections" V="1,1,1,0,0,0,127,63,119,-28.822566986084,28.822566986084,-50,50,12,0,0,0,0;1,1,1,0,0,0,67,63,127,-21.9782791137695,21.9782791137695,-50,50,12,0,0,0,0;1,1,1,0,0,0,63,118,127,-22.3223114013672,22.3223114013672,-50,50,12,0,0,0,0;1,1,1,0,0,0,69,127,63,-38.9258460998535,38.9258460998535,-50,50,12,0,0,0,0;1,1,1,0,0,0,127,115,63,-13.5424394607544,13.5424394607544,-50,50,12,0,0,0,0;1,1,1,0,0,0,127,68,63,-18.4085693359375,18.4085693359375,-50,50,12,0,0,0,0;0,1,1,0,2.400000,0,0,0,0,0,0,0,0,0,0,0,0,0;1,1,0,3.000000,-7.799999,-0.700000,237,45.3288917541504,66.479118347168,-9.59939575195312,9.18455505371094,-80.8738861083984,19.1261138916016,25.9748382568359,0,0,0,0;1,1,0,2.400000,-5.000000,-0.440000,255,130,12,0,4.55426025390625,-95.2941207885742,4.70587921142578,18.2099227905273,0,0,0,0;1,1,0,-3.900000,-3.200005,0.050000,255,225.91796875,36.1078147888184,-5.1807861328125,1.47015380859375,-85.8400726318359,14.1599273681641,20.3872756958008,0,0,0,0;1,1,0,5.100000,-22.439999,-0.950000,58.8606338500977,208,10.4000005722046,-33.7201843261719,32.3572998046875,-95,5,23.2739639282227,0,0,0,0;1,1,0,0.000000,-2.700001,-0.986000,22.6761436462402,216,177.109222412109,-4.34454345703125,5.92352294921875,-89.5017852783203,10.4982147216797,28.4633140563965,0,0,0,0;1,1,0,3.600000,4.500000,-0.950000,61.345775604248,87.8979263305664,165,-14.3739013671875,22.6552124023438,-62.820743560791,37.179256439209,27.3963947296143,0,0,0,0;1,1,0,7.500000,-12.000000,-0.840000,104,0,148,-12.1621704101562,2.99188232421875,-100,0,26.3488998413086,0,0,0,0;1,1,0,5.100000,-21.000000,0.322000,235,50.884838104248,191.595169067383,-6.26992797851562,5.4552001953125,-78.3468780517578,21.6531219482422,20.9790744781494,0,0,0,0;1,1,2,2.36563158035278,-15.9744558334351,0,174,139,97,0,25,-42.1264381408691,25.6254768371582,25,0,0,0,0"/>
    <E K="Contrast" V="2.000000"/>
    <E K="Exposure" V="0.057143"/>
    <E K="FilmGrainAmount" V="21.000000"/>
    <E K="FilmGrainDensity" V="0"/>
    <E K="FilmGrainGranularity" V="50"/>
    <E K="FilmGrainType" V="2"/>
    <E K="GradationCurve" V="0.000000,0.011765;0.047059,0.066667;0.254902,0.227451;0.388235,0.368627;0.509804,0.498039;0.631373,0.623529;0.749020,0.745098;0.874510,0.874510;1.000000,1.000000"/>
    <E K="GradationCurveBlue" V="0.000000,0.011765;0.047059,0.035294;0.254902,0.200000;0.388235,0.364706;0.509804,0.564706;0.631373,0.729412;0.749020,0.847059;0.874510,0.937255;1.000000,1.000000"/>
    <E K="GradationCurveGreen" V="0.000000,0.003922;0.047059,0.023529;0.254902,0.180392;0.388235,0.352941;0.509804,0.564706;0.631373,0.737255;0.749020,0.854902;0.874510,0.937255;1.000000,1.000000"/>
    <E K="GradationCurveRed" V="0.000000,0.000000;0.047059,0.019608;0.254902,0.168627;0.388235,0.349020;0.509804,0.564706;0.631373,0.729412;0.749020,0.823529;0.874510,0.909804;1.000000,1.000000"/>
    <E K="GradationCurveY" V="0.0000,0.0000;0.2000,0.200000;0.4000,0.367500;0.6000,0.554500;0.8000,0.754500;1.0000,1.0000"/>
    <E K="Highlight" V="1;1;1;0.930000"/>
    <E K="HighlightRecovery" V="32.500000"/>
    <E K="Name" V="Presetpro - Deep Water"/>
    <E K="NoiseDetailsAmount" V="50.000000"/>
    <E K="NrAmount" V="0.000000"/>
    <E K="Saturation" V="-5.000000"/>
    <E K="Shadow" V="0.0000;0.0000;0.0000;0.011346"/>
    <E K="ShadowRecovery" V="54.400002"/>
    <E K="TargetHighlight" V="1;1;1;1"/>
    <E K="TargetShadow" V="0.0000;0.0000;0.0000;0.0000"/>
    <E K="UUID" V="A6F6AC2C-94B3-4E2D-A8BE-EA05CDA9957E"/>
    <E K="UsmAmount" V="75.000000"/>
    <E K="UsmRadius" V="1.000000"/>
    <E K="Vignetting" V="0.000000|1|0|1"/>
</SL>
