Customs/Editorial.costyle
<?xml version="1.0"?>
<SL Engine="1300">
	<E K="BlackRecovery" V="0" />
	<E K="Brightness" V="0" />
	<E K="Clarity" V="0" />
	<E K="ClarityMethod" V="2" />
	<E K="ClarityStructure" V="0" />
	<E K="ColorBalance" V="1;1;1" />
	<E K="ColorBalanceHighlight" V="1;0.993740975856781;0.987999975681305" />
	<E K="ColorBalanceMidtone" V="1;0.983570992946625;0.968500018119812" />
	<E K="ColorBalanceShadow" V="1;0.990611970424652;0.98199999332428" />
	<E K="ColorCorrections" V="1,1,1,0,0,0,255,0,168.909881591797,-7.11462593078613,7.11462545394897,-100,100,15,0,0,0,0;1,1,1,0,0,0,170.939270019531,0,255,-17.8928756713867,17.8928737640381,-100,100,15,0,0,0,0;1,1,1,0,0,0,0,64.2907180786133,255,-22.4273700714111,22.4273681640625,-100,100,15,0,0,0,0;1,1,1,0,0,0,0,255,236.141906738281,-11.8545961380005,11.8545951843262,-100,100,15,0,0,0,0;1,1,1,0,0,0,45.4988479614258,255,0,-39.3857154846191,39.3857116699219,-100,100,15,0,0,0,0;1,1,1,0,0,0,255,211.99267578125,0,-5,5,-100,100,15,0,0,0,0;1,1,1,0,0,0,255,101.301910400391,0,-6.01692199707031,6.01692152023315,-100,100,15,0,0,0,0;1,1,1,0,0,0,255,0,31.470853805542,-10.195873260498,10.1958723068237,-100,100,15,0,0,0,0;0,1,1,0,0,0,0,0,0,0,0,0,0,0,0,0,0,0;1,1,0,2.40000009536743,0,0.150000005960464,237,45.3288917541504,66.479118347168,-9.59939575195312,9.18455505371094,-80.8738861083984,19.1261138916016,25.9748382568359,0,0,0,0;1,1,0,-1.20000100135803,4.17999982833862,0.639999985694885,255,130,12,0,4.55426025390625,-95.2941207885742,4.70587921142578,18.2099227905273,0,0,0,0;1,1,0,-6.59999990463257,-15.1999969482422,0.75,255,225.91796875,36.1078147888184,-5.1807861328125,1.47015380859375,-85.8400726318359,14.1599273681641,20.3872756958008,0,0,0,0;1,1,0,3,-23.7600021362305,-1.04999995231628,58.8606338500977,208,10.4000005722046,-33.7201843261719,32.3572998046875,-95,5,23.2739639282227,0,0,0,0;1,1,0,-0.599997997283936,0,0,22.6761436462402,216,177.109222412109,-4.34454345703125,5.92352294921875,-89.5017852783203,10.4982147216797,28.4633140563965,0,0,0,0;1,1,0,-4.19999885559082,0,-1,61.345775604248,87.8979263305664,165,-14.3739013671875,22.6552124023438,-62.820743560791,37.179256439209,27.3963947296143,0,0,0,0;1,1,0,0,-2,0,104,0,148,-12.1621704101562,2.99188232421875,-100,0,26.3488998413086,0,0,0,0;1,1,0,0,-22.3999977111816,0,235,50.884838104248,191.595169067383,-6.26992797851562,5.4552001953125,-78.3468780517578,21.6531219482422,20.9790744781494,0,0,0,0;1,1,2,2.36563158035278,-15.9744558334351,0,174,139,97,0,25,-42.1264381408691,25.6254768371582,25,0,0,0,0" />
	<E K="Contrast" V="0" />
	<E K="DehazeAmount" V="0" />
	<E K="DehazeColor" V="0.665720582008362;0.665720582008362;0.665720582008362" />
	<E K="FilmGrainAmount" V="0" />
	<E K="FilmGrainDensity" V="0" />
	<E K="FilmGrainGranularity" V="50" />
	<E K="FilmGrainType" V="0" />
	<E K="GradationCurve" V="0,0.00392200006172061;0.137254998087883,0.121569000184536;0.274509996175766,0.247059002518654;0.384314000606537,0.372548997402191;0.482353001832962,0.494118005037308;0.584313988685608,0.623529016971588;0.690195977687836,0.749019980430603;0.815685987472534,0.874509990215302;1,1" />
	<E K="GradationCurveBlue" V="0,0;0.137254998087883,0.129411995410919;0.274509996175766,0.258823990821838;0.384314000606537,0.364706009626389;0.482353001832962,0.458824008703232;0.584313988685608,0.560783982276917;0.690195977687836,0.67058801651001;0.815685987472534,0.80392199754715;1,1" />
	<E K="GradationCurveGreen" V="0,0;0.137254998087883,0.125489994883537;0.274509996175766,0.243137001991272;0.384314000606537,0.345097988843918;0.482353001832962,0.443136990070343;0.584313988685608,0.549019992351532;0.690195977687836,0.662744998931885;0.815685987472534,0.800000011920929;1,1" />
	<E K="GradationCurveRed" V="0,0;0.137254998087883,0.125489994883537;0.274509996175766,0.250979989767075;0.384314000606537,0.352941006422043;0.482353001832962,0.447059005498886;0.584313988685608,0.552941024303436;0.690195977687836,0.666666984558105;0.815685987472534,0.800000011920929;1,1" />
	<E K="GradationCurveY" V="0,0;0.200000002980232,0.202000007033348;0.400000005960464,0.397399991750717;0.600000023841858,0.594399988651276;0.800000011920929,0.794399976730347;1,1" />
	<E K="Highlight" V="1;1;1;1" />
	<E K="HighlightRecoveryEx" V="-4" />
	<E K="Midtone" V="0;0;0;0.00146000005770475" />
	<E K="Name" V="Presetpro - Editorial" />
	<E K="Saturation" V="0" />
	<E K="Shadow" V="0;0;0;0" />
	<E K="ShadowRecovery" V="6.40000009536743" />
	<E K="TargetHighlight" V="1;1;1;0.993372023105621" />
	<E K="TargetShadow" V="0;0;0;0" />
	<E K="UsmAmount" V="39" />
	<E K="UsmRadius" V="1" />
	<E K="UUID" V="6C2A5307-F8A9-4A8E-BB3D-F4D03F6F8E3F" />
	<E K="WhiteRecovery" V="0" />
</SL>
