Customs/Faded Linen.costyle
<?xml version="1.0"?>
<SL Engine="1300">
	<E K="Clarity" V="0" />
	<E K="ClarityMethod" V="2" />
	<E K="ClarityStructure" V="0" />
	<E K="ColorBalance" V="1;1;1" />
	<E K="ColorBalanceHighlight" V="0.977999985218048;0.984902024269104;1" />
	<E K="ColorBalanceMidtone" V="0.950500011444092;0.955971002578735;0.985000014305115" />
	<E K="ColorBalanceShadow" V="1;0.959765017032623;0.939999997615814" />
	<E K="ColorCorrections" V="1,1,1,0,0,0,127,63,119,-28.822566986084,28.822566986084,-50,50,12,0,0,0,0;1,1,1,0,0,0,67,63,127,-21.9782791137695,21.9782791137695,-50,50,12,0,0,0,0;1,1,1,0,0,0,63,118,127,-22.3223114013672,22.3223114013672,-50,50,12,0,0,0,0;1,1,1,0,0,0,69,127,63,-38.9258460998535,38.9258460998535,-50,50,12,0,0,0,0;1,1,1,0,0,0,127,115,63,-13.5424394607544,13.5424394607544,-50,50,12,0,0,0,0;1,1,1,0,0,0,127,68,63,-18.4085693359375,18.4085693359375,-50,50,12,0,0,0,0;0,1,1,0,11.1999998092651,0,0,0,0,0,0,0,0,0,0,0,0,0;1,1,0,-1.20000100135803,-19.2000007629395,-1.89999997615814,237,45.3288917541504,66.479118347168,-9.59939575195312,9.18455505371094,-80.8738861083984,19.1261138916016,25.9748382568359,0,0,0,0;1,1,0,-1.20000100135803,4.40000009536743,-0.263999998569489,255,130,12,0,4.55426025390625,-95.2941207885742,4.70587921142578,18.2099227905273,0,0,0,0;1,1,0,15.2999992370605,-18.4000015258789,-0.300000011920929,255,225.91796875,36.1078147888184,-5.1807861328125,1.47015380859375,-85.8400726318359,14.1599273681641,20.3872756958008,0,0,0,0;1,1,0,15,7.15000009536743,0.980000019073486,58.8606338500977,208,10.4000005722046,-33.7201843261719,32.3572998046875,-95,5,23.2739639282227,0,0,0,0;1,1,0,0,-10.2599983215332,3.29999995231628,22.6761436462402,216,177.109222412109,-4.34454345703125,5.92352294921875,-89.5017852783203,10.4982147216797,28.4633140563965,0,0,0,0;1,1,0,-0.899999976158142,-17.7000007629395,-1.39999997615814,61.345775604248,87.8979263305664,165,-14.3739013671875,22.6552124023438,-62.820743560791,37.179256439209,27.3963947296143,0,0,0,0;1,1,0,0.899999976158142,24,0.188999995589256,104,0,148,-12.1621704101562,2.99188232421875,-100,0,26.3488998413086,0,0,0,0;1,1,0,2.70000004768372,14.3999996185303,-0.0799999982118607,235,50.884838104248,191.595169067383,-6.26992797851562,5.4552001953125,-78.3468780517578,21.6531219482422,20.9790744781494,0,0,0,0;1,1,2,2.36563158035278,-15.9744558334351,0,174,139,97,0,25,-42.1264381408691,25.6254768371582,25,0,0,0,0" />
	<E K="Contrast" V="3.20000004768372" />
	<E K="Exposure" V="0.903697192668915" />
	<E K="GradationCurve" V="0,0.00392200006172061;0.101961001753807,0.105881996452808;0.247059002518654,0.243137001991272;0.380391985177994,0.372548997402191;0.50196099281311,0.494118005037308;0.627451002597809,0.623529016971588;0.749019980430603,0.745097994804382;0.874509990215302,0.870588004589081;1,1" />
	<E K="GradationCurveBlue" V="0,0.00784299988299608;0.101961001753807,0.0901959985494614;0.247059002518654,0.223528996109962;0.380391985177994,0.380391985177994;0.50196099281311,0.529411971569061;0.627451002597809,0.67058801651001;0.749019980430603,0.792156994342804;0.874509990215302,0.901961028575897;1,1" />
	<E K="GradationCurveGreen" V="0,0.00784299988299608;0.101961001753807,0.0941179990768433;0.247059002518654,0.223528996109962;0.380391985177994,0.376471012830734;0.50196099281311,0.51764702796936;0.627451002597809,0.650979995727539;0.749019980430603,0.772548973560333;0.874509990215302,0.886274993419647;1,1" />
	<E K="GradationCurveRed" V="0,0;0.101961001753807,0.0666669979691505;0.247059002518654,0.211765006184578;0.380391985177994,0.372548997402191;0.50196099281311,0.51764702796936;0.627451002597809,0.658824026584625;0.749019980430603,0.784313976764679;0.874509990215302,0.894118010997772;1,1" />
	<E K="GradationCurveY" V="0,0;0.200000002980232,0.200000002980232;0.400000005960464,0.388999998569489;0.600000023841858,0.58459997177124;0.800000011920929,0.784600019454956;1,1" />
	<E K="Highlight" V="1;1;1;0.995000004768372" />
	<E K="HighlightRecoveryEx" V="-11" />
	<E K="Midtone" V="0;0;0;0" />
	<E K="Name" V="Presetpro - Faded Linen" />
	<E K="Saturation" V="-5" />
	<E K="Shadow" V="0;0;0;0" />
	<E K="ShadowRecovery" V="17.6000003814697" />
	<E K="TargetHighlight" V="1;1;1;1" />
	<E K="TargetShadow" V="0;0;0;0" />
	<E K="UsmAmount" V="10" />
	<E K="UsmRadius" V="1" />
	<E K="UUID" V="73BCE827-1EC1-4491-8D66-FB948EC9AB27" />
</SL>
