Customs/Film Vibe.costyle
<?xml version="1.0"?>
<SL Engine="1300">
	<E K="Clarity" V="0" />
	<E K="ClarityMethod" V="2" />
	<E K="ClarityStructure" V="0" />
	<E K="ColorBalance" V="1;1;1" />
	<E K="ColorBalanceHighlight" V="1;1;1" />
	<E K="ColorBalanceMidtone" V="1;1;1" />
	<E K="ColorBalanceShadow" V="1;1;1" />
	<E K="ColorCorrections" V="1,1,0,6.90000009536743,-10.2000007629395,-0.649999976158142,237,45.3288917541504,66.479118347168,-9.59939575195312,9.18455505371094,-80.8738861083984,19.1261138916016,25.9748382568359,0,0,0,0;1,1,0,-0.599997997283936,-1.5,-0.439999997615814,255,130,12,0,4.55426025390625,-95.2941207885742,4.70587921142578,18.2099227905273,0,0,0,0;1,1,0,4.19999980926514,-5.59999799728394,0,255,225.91796875,36.1078147888184,-5.1807861328125,1.47015380859375,-85.8400726318359,14.1599273681641,20.3872756958008,0,0,0,0;1,1,0,8.39999961853027,-34.3199996948242,-0.400000005960464,58.8606338500977,208,10.4000005722046,-33.7201843261719,32.3572998046875,-95,5,23.2739639282227,0,0,0,0;1,1,0,0,-19.9799995422363,0,22.6761436462402,216,177.109222412109,-4.34454345703125,5.92352294921875,-89.5017852783203,10.4982147216797,28.4633140563965,0,0,0,0;1,1,0,-0.899999976158142,-12.9800033569336,-0.600000023841858,61.345775604248,87.8979263305664,165,-14.3739013671875,22.6552124023438,-62.820743560791,37.179256439209,27.3963947296143,0,0,0,0;1,1,0,4.19999980926514,-43,0.629999995231628,104,0,148,-12.1621704101562,2.99188232421875,-100,0,26.3488998413086,0,0,0,0;1,1,0,11.3999996185303,-21,0,235,50.884838104248,191.595169067383,-6.26992797851562,5.4552001953125,-78.3468780517578,21.6531219482422,20.9790744781494,0,0,0,0;1,1,2,2.36563158035278,-15.9744558334351,0,174,139,97,0,25,-42.1264381408691,25.6254768371582,25,0,0,0,0" />
	<E K="Contrast" V="8" />
	<E K="FilmGrainAmount" V="0" />
	<E K="FilmGrainDensity" V="0" />
	<E K="FilmGrainGranularity" V="50" />
	<E K="FilmGrainType" V="2" />
	<E K="GradationCurve" V="0,0;0.505882024765015,0.513725996017456;1,1" />
	<E K="GradationCurveBlue" V="0,0;0.117646999657154,0.0745100006461143;0.243137001991272,0.164706006646156;0.364706009626389,0.301961004734039;0.490195989608765,0.494118005037308;0.615685999393463,0.650979995727539;0.745097994804382,0.780391991138458;0.870588004589081,0.890196025371552;1,1" />
	<E K="GradationCurveGreen" V="0,0.00784299988299608;0.117646999657154,0.0823530033230782;0.243137001991272,0.184313997626305;0.364706009626389,0.321568995714188;0.490195989608765,0.482353001832962;0.615685999393463,0.643136978149414;0.745097994804382,0.788235008716583;0.870588004589081,0.898038983345032;1,1" />
	<E K="GradationCurveRed" V="0,0;0.117646999657154,0.0666669979691505;0.243137001991272,0.172548994421959;0.364706009626389,0.321568995714188;0.490195989608765,0.494118005037308;0.615685999393463,0.67058801651001;0.745097994804382,0.819607973098755;0.870588004589081,0.917647004127502;1,1" />
	<E K="GradationCurveY" V="0,0;0.200000002980232,0.211999997496605;0.400000005960464,0.393400013446808;0.600000023841858,0.578999996185303;0.800000011920929,0.778999984264374;1,1" />
	<E K="Highlight" V="1;1;1;1" />
	<E K="HighlightRecoveryEx" V="-15" />
	<E K="Midtone" V="0;0;0;0.00365000008605421" />
	<E K="Name" V="Presetpro - Film Vibe" />
	<E K="Saturation" V="-5" />
	<E K="Shadow" V="0;0;0;0" />
	<E K="ShadowRecovery" V="24" />
	<E K="StyleSource" V="Styles" />
	<E K="TargetHighlight" V="1;1;1;0.983430027961731" />
	<E K="TargetShadow" V="0;0;0;0" />
	<E K="UsmAmount" V="25" />
	<E K="UsmRadius" V="1" />
	<E K="UUID" V="FBB8AE92-E699-44A3-8A23-37A7FA2A8EE5" />
	<E K="Vignetting" V="0|1|0|1" />
</SL>
