Customs/Fujifilm.costyle
<?xml version="1.0"?>
<SL Engine="1300">
	<E K="Clarity" V="0" />
	<E K="ClarityMethod" V="2" />
	<E K="ClarityStructure" V="0" />
	<E K="CnrAmount" V="25" />
	<E K="ColorBalance" V="1;1;1" />
	<E K="ColorBalanceHighlight" V="0.957499980926514;0.957499980926514;0.957499980926514" />
	<E K="ColorBalanceMidtone" V="1.03896105289459;1.03896105289459;1.03896105289459" />
	<E K="ColorBalanceShadow" V="1;1;1" />
	<E K="ColorCorrections" V="1,1,0,2.40000009536743,0,-0.600000023841858,237,45.3288917541504,66.479118347168,-9.59939575195312,9.18455505371094,-80.8738861083984,19.1261138916016,25.9748382568359,0,0,0,0;1,1,0,0,0,0,255,130,12,0,4.55426025390625,-95.2941207885742,4.70587921142578,18.2099227905273,0,0,0,0;1,1,0,0,0,0.600000023841858,255,225.91796875,36.1078147888184,-5.1807861328125,1.47015380859375,-85.8400726318359,14.1599273681641,20.3872756958008,0,0,0,0;1,1,0,5.09999990463257,-11.2200012207031,0.280000001192093,58.8606338500977,208,10.4000005722046,-33.7201843261719,32.3572998046875,-95,5,23.2739639282227,0,0,0,0;1,1,0,0,-9.18000030517578,-0.34799998998642,22.6761436462402,216,177.109222412109,-4.34454345703125,5.92352294921875,-89.5017852783203,10.4982147216797,28.4633140563965,0,0,0,0;1,1,0,-5.09999990463257,-6.49000215530396,-0.899999976158142,61.345775604248,87.8979263305664,165,-14.3739013671875,22.6552124023438,-62.820743560791,37.179256439209,27.3963947296143,0,0,0,0;1,1,0,0,-24,-0.490000009536743,104,0,148,-12.1621704101562,2.99188232421875,-100,0,26.3488998413086,0,0,0,0;1,1,0,1.5,-3.5,0,235,50.884838104248,191.595169067383,-6.26992797851562,5.4552001953125,-78.3468780517578,21.6531219482422,20.9790744781494,0,0,0,0;1,1,2,2.36563158035278,-15.9744558334351,0,174,139,97,0,25,-42.1264381408691,25.6254768371582,25,0,0,0,0" />
	<E K="Contrast" V="2" />
	<E K="FilmGrainAmount" V="12" />
	<E K="FilmGrainDensity" V="0" />
	<E K="FilmGrainGranularity" V="50" />
	<E K="FilmGrainType" V="2" />
	<E K="GradationCurve" V="0,0;0.188234999775887,0.168626993894577;0.50196099281311,0.505882024765015;0.752941012382507,0.764706015586853;1,1" />
	<E K="GradationCurveBlue" V="0,0;0.141176000237465,0.113724999129772;0.270588010549545,0.223528996109962;0.384314000606537,0.333332985639572;0.494118005037308,0.466666996479034;0.611765027046204,0.619607985019684;0.737254977226257,0.768626987934113;0.866666972637177,0.890196025371552;1,1" />
	<E K="GradationCurveGreen" V="0,0;0.141176000237465,0.117646999657154;0.270588010549545,0.227450996637344;0.384314000606537,0.345097988843918;0.494118005037308,0.474510014057159;0.611765027046204,0.619607985019684;0.737254977226257,0.764706015586853;0.866666972637177,0.886274993419647;1,1" />
	<E K="GradationCurveRed" V="0,0;0.141176000237465,0.105881996452808;0.270588010549545,0.223528996109962;0.384314000606537,0.352941006422043;0.494118005037308,0.482353001832962;0.611765027046204,0.619607985019684;0.737254977226257,0.756862998008728;0.866666972637177,0.878431022167206;1,1" />
	<E K="GradationCurveY" V="0,0;0.200000002980232,0.200000002980232;0.400000005960464,0.386000007390976;0.600000023841858,0.580399990081787;0.800000011920929,0.780399978160858;1,1" />
	<E K="Highlight" V="1;1;1;1" />
	<E K="HighlightRecoveryEx" V="-14" />
	<E K="Midtone" V="0;0;0;0.00437999982386827" />
	<E K="Name" V="Stockpresets - FUJ Film" />
	<E K="NoiseDetailsAmount" V="50" />
	<E K="NrAmount" V="0" />
	<E K="Saturation" V="0" />
	<E K="Shadow" V="0;0;0;0" />
	<E K="ShadowRecovery" V="12" />
	<E K="StyleSource" V="Styles" />
	<E K="TargetHighlight" V="1;1;1;0.980116009712219" />
	<E K="TargetShadow" V="0;0;0;0" />
	<E K="UsmAmount" V="25" />
	<E K="UsmRadius" V="1" />
	<E K="UUID" V="BF7C3F45-E05F-41E6-B98D-38B88CF21734" />
	<E K="Vignetting" V="0|1|0|1" />
</SL>
