Customs/Havana.costyle
<?xml version="1.0"?>
<SL Engine="1300">
	<E K="ChromaticAberEnabled" V="0" />
	<E K="Clarity" V="0" />
	<E K="ClarityMethod" V="2" />
	<E K="ClarityStructure" V="0" />
	<E K="ColorBalance" V="1;1;1" />
	<E K="ColorBalanceHighlight" V="0.970000028610229;0.970000028610229;0.970000028610229" />
	<E K="ColorBalanceMidtone" V="1.04711997509003;1.04711997509003;1.04711997509003" />
	<E K="ColorBalanceShadow" V="0.954999983310699;0.954999983310699;0.954999983310699" />
	<E K="ColorCorrections" V="1,1,0,2.40000009536743,2,0.270000010728836,237,45.3288917541504,66.479118347168,-9.59939575195312,9.18455505371094,-80.8738861083984,19.1261138916016,25.9748382568359,0,0,0,0;1,1,0,1.20000004768372,-2.5,0.239999994635582,255,130,12,0,4.55426025390625,-95.2941207885742,4.70587921142578,18.2099227905273,0,0,0,0;1,1,0,3,-3.20000505447388,0,255,225.91796875,36.1078147888184,-5.1807861328125,1.47015380859375,-85.8400726318359,14.1599273681641,20.3872756958008,0,0,0,0;1,1,0,3.59999990463257,-25.0799980163574,-1.14999997615814,58.8606338500977,208,10.4000005722046,-33.7201843261719,32.3572998046875,-95,5,23.2739639282227,0,0,0,0;1,1,0,0.899999976158142,-20.5200004577637,0,22.6761436462402,216,177.109222412109,-4.34454345703125,5.92352294921875,-89.5017852783203,10.4982147216797,28.4633140563965,0,0,0,0;1,1,0,0,-4.7199969291687,-0.400000005960464,61.345775604248,87.8979263305664,165,-14.3739013671875,22.6552124023438,-62.820743560791,37.179256439209,27.3963947296143,0,0,0,0;1,1,0,2.40000009536743,-8,0.504000008106232,104,0,148,-12.1621704101562,2.99188232421875,-100,0,26.3488998413086,0,0,0,0;1,1,0,2.40000009536743,4.80000019073486,0.368000000715256,235,50.884838104248,191.595169067383,-6.26992797851562,5.4552001953125,-78.3468780517578,21.6531219482422,20.9790744781494,0,0,0,0;1,1,2,2.36563158035278,-15.9744558334351,0,174,139,97,0,25,-42.1264381408691,25.6254768371582,25,0,0,0,0" />
	<E K="Contrast" V="0" />
	<E K="DehazeAmount" V="-3.66835832595825" />
	<E K="FilmGrainAmount" V="25" />
	<E K="FilmGrainDensity" V="0" />
	<E K="FilmGrainGranularity" V="50" />
	<E K="FilmGrainType" V="2" />
	<E K="GradationCurve" V="0,0;0.200000002980232,0.231372997164726;0.505882024765015,0.505882024765015;0.800000011920929,0.780391991138458;1,1" />
	<E K="GradationCurveBlue" V="0,0;0.0980390012264252,0.0745100006461143;0.207843005657196,0.176470994949341;0.341176003217697,0.333332985639572;0.49803900718689,0.525489985942841;0.639216005802155,0.690195977687836;0.768626987934113,0.823529005050659;0.886274993419647,0.917647004127502;1,1" />
	<E K="GradationCurveGreen" V="0,0;0.0980390012264252,0.0784310027956963;0.207843005657196,0.180391997098923;0.341176003217697,0.337255001068115;0.49803900718689,0.533333003520966;0.639216005802155,0.698038995265961;0.768626987934113,0.82745099067688;0.886274993419647,0.921568989753723;1,1" />
	<E K="GradationCurveRed" V="0,0;0.0980390012264252,0.0745100006461143;0.207843005657196,0.172548994421959;0.341176003217697,0.345097988843918;0.49803900718689,0.549019992351532;0.639216005802155,0.713725984096527;0.768626987934113,0.831372976303101;0.886274993419647,0.917647004127502;1,1" />
	<E K="GradationCurveY" V="0,0;0.200000002980232,0.210999995470047;0.400000005960464,0.401699990034103;0.600000023841858,0.591600000858307;0.800000011920929,0.791599988937378;1,1" />
	<E K="Highlight" V="1;1;1;1" />
	<E K="HighlightRecoveryEx" V="-6" />
	<E K="LensAperture" V="-2.90742484023859e+22" />
	<E K="LensChromaFringing" V="|||||" />
	<E K="LensFocalLength" V="4.57608026509912e-41" />
	<E K="LensGeoAbr" V="|0.000000|1|0|0" />
	<E K="LensLCCDustRemovalEnabled" V="0" />
	<E K="LensLightFallOff" V="|0|1" />
	<E K="LensRadialBlur" V="||0|1" />
	<E K="LensShift" V="0" />
	<E K="LensShiftDirection" V="0" />
	<E K="LensShiftXY" V="0;3.85197789738703e-34" />
	<E K="LensTilt" V="0" />
	<E K="LensTiltDirection" V="0" />
	<E K="Midtone" V="0;0;0;0.00437999982386827" />
	<E K="Name" V="Presetpro - Havana" />
	<E K="Saturation" V="5" />
	<E K="Shadow" V="0;0;0;0" />
	<E K="ShadowRecovery" V="9.60000038146973" />
	<E K="TargetHighlight" V="1;1;1;0.980116009712219" />
	<E K="TargetShadow" V="0;0;0;0" />
	<E K="UsmAmount" V="25" />
	<E K="UsmRadius" V="1" />
	<E K="UUID" V="27F8F3C7-D945-4127-BEF8-A8FC3FCD6B4A" />
	<E K="Vignetting" V="0|1|0|1" />
</SL>
