Customs/Icelandic.costyle
<?xml version="1.0"?>
<SL Engine="1300">
	<E K="Clarity" V="0" />
	<E K="ClarityMethod" V="2" />
	<E K="ClarityStructure" V="0" />
	<E K="ColorBalance" V="1;1;1" />
	<E K="ColorBalanceHighlight" V="1.02040803432465;1.02040803432465;1.02040803432465" />
	<E K="ColorBalanceMidtone" V="1.08991801738739;1.08991801738739;1.08991801738739" />
	<E K="ColorBalanceShadow" V="0.954999983310699;0.954999983310699;0.954999983310699" />
	<E K="ColorCorrections" V="1,1,0,0,-7.79999923706055,-0.400000005960464,237,45.3288917541504,66.479118347168,-9.59939575195312,9.18455505371094,-80.8738861083984,19.1261138916016,25.9748382568359,0,0,0,0;1,1,0,0,0,0,255,130,12,0,4.55426025390625,-95.2941207885742,4.70587921142578,18.2099227905273,0,0,0,0;1,1,0,0,-10.4000015258789,0,255,225.91796875,36.1078147888184,-5.1807861328125,1.47015380859375,-85.8400726318359,14.1599273681641,20.3872756958008,0,0,0,0;1,1,0,1.79999995231628,-15.1800003051758,0,58.8606338500977,208,10.4000005722046,-33.7201843261719,32.3572998046875,-95,5,23.2739639282227,0,0,0,0;1,1,0,0,-5.94000196456909,-0.695999979972839,22.6761436462402,216,177.109222412109,-4.34454345703125,5.92352294921875,-89.5017852783203,10.4982147216797,28.4633140563965,0,0,0,0;1,1,0,-1.79999899864197,0,-0.649999976158142,61.345775604248,87.8979263305664,165,-14.3739013671875,22.6552124023438,-62.820743560791,37.179256439209,27.3963947296143,0,0,0,0;1,1,0,2.09999990463257,0,0,104,0,148,-12.1621704101562,2.99188232421875,-100,0,26.3488998413086,0,0,0,0;1,1,0,0,-7.70000076293945,-0.800000011920929,235,50.884838104248,191.595169067383,-6.26992797851562,5.4552001953125,-78.3468780517578,21.6531219482422,20.9790744781494,0,0,0,0;1,1,2,2.36563158035278,-15.9744558334351,0,174,139,97,0,25,-42.1264381408691,25.6254768371582,25,0,0,0,0" />
	<E K="Contrast" V="0" />
	<E K="FilmGrainAmount" V="13" />
	<E K="FilmGrainDensity" V="0" />
	<E K="FilmGrainGranularity" V="50" />
	<E K="FilmGrainType" V="4" />
	<E K="GradationCurve" V="0,0;0.117646999657154,0.133332997560501;0.282589435577393,0.295245110988617;0.466666996479034,0.466666996479034;0.721569001674652,0.737254977226257;0.921370208263397,0.942289412021637" />
	<E K="GradationCurveBlue" V="0,0;0.0980390012264252,0.0509800016880035;0.207843005657196,0.125489994883537;0.345097988843918,0.274509996175766;0.50196099281311,0.49803900718689;0.619607985019684,0.658824026584625;0.733332991600037,0.788235008716583;0.858824014663696,0.894118010997772;1,1" />
	<E K="GradationCurveGreen" V="0,0;0.0980390012264252,0.058823999017477;0.207843005657196,0.129411995410919;0.345097988843918,0.286274999380112;0.50196099281311,0.525489985942841;0.619607985019684,0.682353019714355;0.733332991600037,0.796078026294708;0.858824014663696,0.894118010997772;1,1" />
	<E K="GradationCurveRed" V="0,0;0.0980390012264252,0.0509800016880035;0.207843005657196,0.133332997560501;0.345097988843918,0.286274999380112;0.50196099281311,0.509804010391235;0.619607985019684,0.67058801651001;0.733332991600037,0.796078026294708;0.858824014663696,0.898038983345032;1,1" />
	<E K="GradationCurveY" V="0,0;0.200000002980232,0.209999993443489;0.400000005960464,0.398000001907349;0.600000023841858,0.587400019168854;0.800000011920929,0.787400007247925;1,1" />
	<E K="Highlight" V="1;1;1;1" />
	<E K="HighlightRecoveryEx" V="-22.866096496582" />
	<E K="Midtone" V="0;0;0;0.00934690237045288" />
	<E K="Name" V="Presetpro - Icelandic" />
	<E K="Saturation" V="0" />
	<E K="Shadow" V="0;0;0;0" />
	<E K="ShadowRecovery" V="16" />
	<E K="TargetHighlight" V="1;1;1;0.986733913421631" />
	<E K="TargetShadow" V="0;0;0;0" />
	<E K="UsmAmount" V="25" />
	<E K="UsmRadius" V="1" />
	<E K="UUID" V="5229DC4F-3737-40F2-8AB6-EA8CB3FBB5B2" />
	<E K="Vignetting" V="0|1|0|1" />
</SL>
