Customs/Insta Film.costyle
<?xml version="1.0"?>
<SL Engine="1300">
	<E K="Clarity" V="-5" />
	<E K="ClarityMethod" V="2" />
	<E K="ClarityStructure" V="-1.66666698455811" />
	<E K="ColorBalance" V="1;1;1" />
	<E K="ColorBalanceHighlight" V="1;1;1" />
	<E K="ColorBalanceMidtone" V="1;1;1" />
	<E K="ColorBalanceShadow" V="1;1;1" />
	<E K="ColorCorrections" V="1,1,1,0,0,0,127,63,119,-28.822566986084,28.822566986084,-50,50,12,0,0,0,0;1,1,1,0,0,0,67,63,127,-21.9782791137695,21.9782791137695,-50,50,12,0,0,0,0;1,1,1,0,0,0,63,118,127,-22.3223114013672,22.3223114013672,-50,50,12,0,0,0,0;1,1,1,0,0,0,69,127,63,-38.9258460998535,38.9258460998535,-50,50,12,0,0,0,0;1,1,1,0,0,0,127,115,63,-13.5424394607544,13.5424394607544,-50,50,12,0,0,0,0;1,1,1,0,0,0,127,68,63,-18.4085693359375,18.4085693359375,-50,50,12,0,0,0,0;0,1,1,0,32.7999992370605,0,0,0,0,0,0,0,0,0,0,0,0,0;1,1,0,1.5,-3.59999799728394,-1.85000002384186,237,45.3288917541504,66.479118347168,-9.59939575195312,9.18455505371094,-80.8738861083984,19.1261138916016,25.9748382568359,0,0,0,0;1,1,0,-0.899999976158142,-14,-0.61599999666214,255,130,12,0,4.55426025390625,-95.2941207885742,4.70587921142578,18.2099227905273,0,0,0,0;1,1,0,0,-59.2000007629395,4.44999980926514,255,225.91796875,36.1078147888184,-5.1807861328125,1.47015380859375,-85.8400726318359,14.1599273681641,20.3872756958008,0,0,0,0;1,1,0,8.39999961853027,-49.5,2.26799988746643,58.8606338500977,208,10.4000005722046,-33.7201843261719,32.3572998046875,-95,5,23.2739639282227,0,0,0,0;1,1,0,3.59999990463257,-1.61999905109406,-0.870000004768372,22.6761436462402,216,177.109222412109,-4.34454345703125,5.92352294921875,-89.5017852783203,10.4982147216797,28.4633140563965,0,0,0,0;1,1,0,-4.80000114440918,1,2.13499999046326,61.345775604248,87.8979263305664,165,-14.3739013671875,22.6552124023438,-62.820743560791,37.179256439209,27.3963947296143,0,0,0,0;1,1,0,4.80000019073486,-39.9999961853027,0.314999997615814,104,0,148,-12.1621704101562,2.99188232421875,-100,0,26.3488998413086,0,0,0,0;1,1,0,9.90000057220459,6.59999990463257,0.275999993085861,235,50.884838104248,191.595169067383,-6.26992797851562,5.4552001953125,-78.3468780517578,21.6531219482422,20.9790744781494,0,0,0,0;1,1,2,2.36563158035278,-15.9744558334351,0,174,139,97,0,25,-42.1264381408691,25.6254768371582,25,0,0,0,0" />
	<E K="Contrast" V="3.20000004768372" />
	<E K="Exposure" V="-0.357286840677261" />
	<E K="GradationCurve" V="0,0.011765000410378;0.0862749963998795,0.0980390012264252;0.223528996109962,0.243137001991272;0.352941006422043,0.36862701177597;0.482353001832962,0.494118005037308;0.615685999393463,0.623529016971588;0.749019980430603,0.749019980430603;0.882353007793427,0.874509990215302;1,0.988234996795654" />
	<E K="GradationCurveBlue" V="0,0;0.0862749963998795,0.0627449974417686;0.223528996109962,0.176470994949341;0.352941006422043,0.329412013292313;0.482353001832962,0.50196099281311;0.615685999393463,0.658824026584625;0.749019980430603,0.792156994342804;0.882353007793427,0.909803986549377;1,1" />
	<E K="GradationCurveGreen" V="0,0;0.0862749963998795,0.058823999017477;0.223528996109962,0.172548994421959;0.352941006422043,0.32548999786377;0.482353001832962,0.49803900718689;0.615685999393463,0.658824026584625;0.749019980430603,0.792156994342804;0.882353007793427,0.909803986549377;1,1" />
	<E K="GradationCurveRed" V="0,0;0.0862749963998795,0.058823999017477;0.223528996109962,0.172548994421959;0.352941006422043,0.337255001068115;0.482353001832962,0.505882024765015;0.615685999393463,0.658824026584625;0.749019980430603,0.792156994342804;0.882353007793427,0.905882000923157;1,1" />
	<E K="GradationCurveY" V="0,0;0.200000002980232,0.200000002980232;0.400000005960464,0.389999985694885;0.600000023841858,0.586000025272369;0.800000011920929,0.78600001335144;1,1" />
	<E K="Highlight" V="1;1;1;1" />
	<E K="HighlightRecoveryEx" V="-10" />
	<E K="Midtone" V="0;0;0;0" />
	<E K="Name" V="Presetpro -  Insta Film" />
	<E K="Saturation" V="-15" />
	<E K="Shadow" V="0;0;0;0" />
	<E K="ShadowRecovery" V="8" />
	<E K="StyleSource" V="Styles" />
	<E K="TargetHighlight" V="1;1;1;1" />
	<E K="TargetShadow" V="0;0;0;0" />
	<E K="UsmAmount" V="10" />
	<E K="UsmRadius" V="1" />
	<E K="UUID" V="C847920B-4F4B-4A0B-8E30-A5A8788205A2" />
</SL>
