Customs/Landscape.costyle
<?xml version="1.0"?>
<SL Engine="1300">
	<E K="BlackRecovery" V="0" />
	<E K="Clarity" V="-5.30319833755493" />
	<E K="ClarityMethod" V="2" />
	<E K="ClarityStructure" V="-1.66666698455811" />
	<E K="ColorBalance" V="1;1;1" />
	<E K="ColorBalanceHighlight" V="1.03092801570892;1.02164494991302;1.01649498939514" />
	<E K="ColorBalanceMidtone" V="1.07238602638245;1.07238602638245;1.07238602638245" />
	<E K="ColorBalanceShadow" V="1;1;1" />
	<E K="ColorCorrections" V="1,1,0,1.20000004768372,-12.5999984741211,0.119999997317791,237,45.3288917541504,66.479118347168,-9.59939575195312,9.18455505371094,-80.8738861083984,19.1261138916016,25.9748382568359,0,0,0,0;1,1,0,1.5,-10.5,0,255,130,12,0,4.55426025390625,-95.2941207885742,4.70587921142578,18.2099227905273,0,0,0,0;1,1,0,0,-14.4000015258789,0.649999976158142,255,225.91796875,36.1078147888184,-5.1807861328125,1.47015380859375,-85.8400726318359,14.1599273681641,20.3872756958008,0,0,0,0;1,1,0,3,-24.4200019836426,0,58.8606338500977,208,10.4000005722046,-33.7201843261719,32.3572998046875,-95,5,23.2739639282227,0,0,0,0;1,1,0,3,-19.4400024414062,0.0659999996423721,22.6761436462402,216,177.109222412109,-4.34454345703125,5.92352294921875,-89.5017852783203,10.4982147216797,28.4633140563965,0,0,0,0;1,1,0,0,-17.7000007629395,-1.25,61.345775604248,87.8979263305664,165,-14.3739013671875,22.6552124023438,-62.820743560791,37.179256439209,27.3963947296143,0,0,0,0;1,1,0,6,-45,-1.04999995231628,104,0,148,-12.1621704101562,2.99188232421875,-100,0,26.3488998413086,0,0,0,0;1,1,0,9,-32.9000015258789,0,235,50.884838104248,191.595169067383,-6.26992797851562,5.4552001953125,-78.3468780517578,21.6531219482422,20.9790744781494,0,0,0,0;1,1,2,2.36563158035278,-15.9744558334351,0,174,139,97,0,25,-42.1264381408691,25.6254768371582,25,0,0,0,0" />
	<E K="Contrast" V="0" />
	<E K="DehazeAmount" V="1.29234266281128" />
	<E K="Exposure" V="0.188920512795448" />
	<E K="FilmGrainAmount" V="20" />
	<E K="FilmGrainDensity" V="0" />
	<E K="FilmGrainGranularity" V="50" />
	<E K="FilmGrainType" V="2" />
	<E K="GradationCurve" V="0,0;0.105881996452808,0.101961001753807;0.247059002518654,0.247059002518654;0.376471012830734,0.372548997402191;0.49803900718689,0.494118005037308;0.623529016971588,0.619607985019684;0.752941012382507,0.745097994804382;0.898038983345032,0.886274993419647;1,0.984314024448395" />
	<E K="GradationCurveBlue" V="0,0.00392200006172061;0.105881996452808,0.0509800016880035;0.247059002518654,0.10980399698019;0.376471012830734,0.250979989767075;0.49803900718689,0.470587998628616;0.623529016971588,0.67451000213623;0.752941012382507,0.823529005050659;0.898038983345032,0.925490021705627;1,0.988234996795654" />
	<E K="GradationCurveGreen" V="0,0;0.105881996452808,0.0509800016880035;0.247059002518654,0.129411995410919;0.376471012830734,0.294117987155914;0.49803900718689,0.505882024765015;0.623529016971588,0.682353019714355;0.752941012382507,0.819607973098755;0.898038983345032,0.925490021705627;1,0.988234996795654" />
	<E K="GradationCurveRed" V="0,0;0.105881996452808,0.0470589995384216;0.247059002518654,0.149020001292229;0.376471012830734,0.313726007938385;0.49803900718689,0.50196099281311;0.623529016971588,0.701960980892181;0.752941012382507,0.858824014663696;0.898038983345032,0.952941000461578;1,1" />
	<E K="GradationCurveY" V="0,0;0.200000002980232,0.211500003933907;0.400000005960464,0.39054998755455;0.600000023841858,0.575500011444092;0.800000011920929,0.775499999523163;1,1" />
	<E K="Highlight" V="1;1;1;1" />
	<E K="HighlightRecoveryEx" V="-28.0249519348145" />
	<E K="Midtone" V="0;0;0;0.00839500036090612" />
	<E K="Name" V="Presetpro - Landscape" />
	<E K="Saturation" V="-5" />
	<E K="Shadow" V="0;0;0;0" />
	<E K="ShadowRecovery" V="28" />
	<E K="StyleSource" V="Styles" />
	<E K="TargetHighlight" V="1;1;1;0.961889028549194" />
	<E K="TargetShadow" V="0;0;0;0" />
	<E K="UsmAmount" V="182.951461791992" />
	<E K="UsmRadius" V="1" />
	<E K="UUID" V="C676F667-F11C-4A61-94B2-00C1FBEE7FD8" />
	<E K="Vignetting" V="0|1|0|1" />
	<E K="WhiteRecovery" V="0" />
</SL>
