Customs/Lifestyle.costyle
<?xml version="1.0"?>
<SL Engine="1300">
	<E K="Brightness" V="-24.8633842468262" />
	<E K="Clarity" V="14" />
	<E K="ClarityMethod" V="2" />
	<E K="ClarityStructure" V="4.66666698455811" />
	<E K="CnrAmount" V="0" />
	<E K="ColorBalance" V="1;1;1" />
	<E K="ColorBalanceHighlight" V="1;0.968424022197723;0.934000015258789" />
	<E K="ColorBalanceMidtone" V="0.975467026233673;0.94233500957489;0.903199970722198" />
	<E K="ColorBalanceShadow" V="0.952000021934509;0.977787971496582;1" />
	<E K="ColorCorrections" V="1,1,1,0,0,0,127,63,119,-28.822566986084,28.822566986084,-50,50,12,0,0,0,0;1,1,1,0,0,0,67,63,127,-21.9782791137695,21.9782791137695,-50,50,12,0,0,0,0;1,1,1,0,0,0,63,118,127,-22.3223114013672,22.3223114013672,-50,50,12,0,0,0,0;1,1,1,0,0,0,69,127,63,-38.9258460998535,38.9258460998535,-50,50,12,0,0,0,0;1,1,1,0,0,0,127,115,63,-13.5424394607544,13.5424394607544,-50,50,12,0,0,0,0;1,1,1,0,0,0,127,68,63,-18.4085693359375,18.4085693359375,-50,50,12,0,0,0,0;0,1,1,0,-16.7999992370605,0,0,0,0,0,0,0,0,0,0,0,0,0;1,1,0,-2.6999990940094,-1.19999694824219,-0.550000011920929,237,45.3288917541504,66.479118347168,-9.59939575195312,9.18455505371094,-80.8738861083984,19.1261138916016,25.9748382568359,0,0,0,0;1,1,0,-6,-4.5,-0.30799999833107,255,130,12,0,4.55426025390625,-95.2941207885742,4.70587921142578,18.2099227905273,0,0,0,0;1,1,0,-11.3999996185303,-7.19999694824219,-0.389999985694885,255,225.91796875,36.1078147888184,-5.1807861328125,1.47015380859375,-85.8400726318359,14.1599273681641,20.3872756958008,0,0,0,0;1,1,0,-11.3999996185303,-13.2000007629395,-1.45000004768372,58.8606338500977,208,10.4000005722046,-33.7201843261719,32.3572998046875,-95,5,23.2739639282227,0,0,0,0;1,1,0,-2.09999990463257,-25.3800010681152,-1.56599998474121,22.6761436462402,216,177.109222412109,-4.34454345703125,5.92352294921875,-89.5017852783203,10.4982147216797,28.4633140563965,0,0,0,0;1,1,0,-3.3000009059906,24.5,-1.45000004768372,61.345775604248,87.8979263305664,165,-14.3739013671875,22.6552124023438,-62.820743560791,37.179256439209,27.3963947296143,0,0,0,0;1,1,0,-3.90000009536743,-13,-0.769999980926514,104,0,148,-12.1621704101562,2.99188232421875,-100,0,26.3488998413086,0,0,0,0;1,1,0,-1.20000100135803,-7.70000076293945,-0.319999992847443,235,50.884838104248,191.595169067383,-6.26992797851562,5.4552001953125,-78.3468780517578,21.6531219482422,20.9790744781494,0,0,0,0;1,1,2,2.36563158035278,-15.9744558334351,0,174,139,97,0,25,-42.1264381408691,25.6254768371582,25,0,0,0,0" />
	<E K="Contrast" V="22.7999992370605" />
	<E K="Exposure" V="0" />
	<E K="FilmGrainAmount" V="0" />
	<E K="FilmGrainDensity" V="0" />
	<E K="FilmGrainGranularity" V="50" />
	<E K="FilmGrainType" V="2" />
	<E K="GradationCurve" V="0,0.0862749963998795;0.282353013753891,0.243137001991272;0.43529400229454,0.372548997402191;0.545098006725311,0.494118005037308;0.650979995727539,0.619607985019684;0.764706015586853,0.749019980430603;0.878431022167206,0.870588004589081;1,0.996078014373779" />
	<E K="GradationCurveBlue" V="0,0;0.282353013753891,0.274509996175766;0.43529400229454,0.41176500916481;0.545098006725311,0.513725996017456;0.650979995727539,0.619607985019684;0.764706015586853,0.741176009178162;0.878431022167206,0.862744987010956;1,1" />
	<E K="GradationCurveGreen" V="0,0.00784299988299608;0.282353013753891,0.298038989305496;0.43529400229454,0.458824008703232;0.545098006725311,0.564706027507782;0.650979995727539,0.662744998931885;0.764706015586853,0.768626987934113;0.878431022167206,0.878431022167206;1,1" />
	<E K="GradationCurveRed" V="0,0.00784299988299608;0.282353013753891,0.294117987155914;0.43529400229454,0.450980007648468;0.545098006725311,0.560783982276917;0.650979995727539,0.662744998931885;0.764706015586853,0.772548973560333;0.878431022167206,0.882353007793427;1,1" />
	<E K="GradationCurveY" V="0,0;0.200000002980232,0.214499995112419;0.400000005960464,0.410149991512299;0.600000023841858,0.628600001335144;0.800000011920929,0.83380001783371;1,1" />
	<E K="Highlight" V="1;1;1;1" />
	<E K="HighlightRecoveryEx" V="-17.7076511383057" />
	<E K="Midtone" V="0.0231884121894836;-0.0231884717941284;-0;-0.00506711006164551" />
	<E K="Name" V="free_lifestyle" />
	<E K="NoiseDetailsAmount" V="50" />
	<E K="NrAmount" V="11" />
	<E K="Saturation" V="0.229508876800537" />
	<E K="Shadow" V="0;0;0;0" />
	<E K="ShadowRecovery" V="13.6000003814697" />
	<E K="StyleSource" V="Styles" />
	<E K="TargetHighlight" V="1;1;1;0.996685981750488" />
	<E K="TargetShadow" V="0;0;0;0" />
	<E K="UsmAmount" V="20" />
	<E K="UsmRadius" V="1" />
	<E K="UUID" V="D6B486A2-DFE0-4D6D-A01D-71563B2D8D11" />
	<E K="Vignetting" V="-0.133332997560501|1|0|1" />
	<E K="WhiteBalanceTemperature" V="5663.83154296875" />
	<E K="WhiteBalanceTint" V="2.63933086395264" />
	<E K="WhiteRecovery" V="-29.5081977844238" />
</SL>
