Customs/Moody Light.costyle
<?xml version="1.0"?>
<SL Engine="1300">
	<E K="BlackRecovery" V="10.8418779373169" />
	<E K="Clarity" V="1.26015043258667" />
	<E K="ClarityMethod" V="2" />
	<E K="ClarityStructure" V="-5" />
	<E K="ColorBalance" V="1;1;1" />
	<E K="ColorBalanceHighlight" V="0.949999988079071;0.949999988079071;0.949999988079071" />
	<E K="ColorBalanceMidtone" V="1;1;1" />
	<E K="ColorBalanceShadow" V="1;1;1" />
	<E K="ColorCorrections" V="1,1,1,0,0,0,127,63,119,-28.822566986084,28.822566986084,-50,50,12,0,0,0,0;1,1,1,0,0,0,67,63,127,-21.9782791137695,21.9782791137695,-50,50,12,0,0,0,0;1,1,1,0,0,0,63,118,127,-22.3223114013672,22.3223114013672,-50,50,12,0,0,0,0;1,1,1,0,0,0,69,127,63,-38.9258460998535,38.9258460998535,-50,50,12,0,0,0,0;1,1,1,0,0,0,127,115,63,-13.5424394607544,13.5424394607544,-50,50,12,0,0,0,0;1,1,1,0,0,0,127,68,63,-18.4085693359375,18.4085693359375,-50,50,12,0,0,0,0;0,1,1,0,-12,0,0,0,0,0,0,0,0,0,0,0,0,0;1,1,0,0,-6,-0.5,237,45.3288917541504,66.479118347168,-9.59939575195312,9.18455505371094,-80.8738861083984,19.1261138916016,25.9748382568359,0,0,0,0;1,1,0,0,-7.5,-0.660000026226044,255,130,12,0,4.55426025390625,-95.2941207885742,4.70587921142578,18.2099227905273,0,0,0,0;1,1,0,0,-36,0,255,225.91796875,36.1078147888184,-5.1807861328125,1.47015380859375,-85.8400726318359,14.1599273681641,20.3872756958008,0,0,0,0;1,1,0,1.5,-11.8800010681152,-0.600000023841858,58.8606338500977,208,10.4000005722046,-33.7201843261719,32.3572998046875,-95,5,23.2739639282227,0,0,0,0;1,1,0,0,-34.0200004577637,-0.17399999499321,22.6761436462402,216,177.109222412109,-4.34454345703125,5.92352294921875,-89.5017852783203,10.4982147216797,28.4633140563965,0,0,0,0;1,1,0,0,-11.7999992370605,-0.75,61.345775604248,87.8979263305664,165,-14.3739013671875,22.6552124023438,-62.820743560791,37.179256439209,27.3963947296143,0,0,0,0;1,1,0,0,-10,-0.699999988079071,104,0,148,-12.1621704101562,2.99188232421875,-100,0,26.3488998413086,0,0,0,0;1,1,0,0,-7,-0.800000011920929,235,50.884838104248,191.595169067383,-6.26992797851562,5.4552001953125,-78.3468780517578,21.6531219482422,20.9790744781494,0,0,0,0;1,1,2,2.36563158035278,-15.9744558334351,0,174,139,97,0,25,-42.1264381408691,25.6254768371582,25,0,0,0,0" />
	<E K="Contrast" V="12.7999992370605" />
	<E K="DehazeAmount" V="-10.585036277771" />
	<E K="GradationCurve" V="-0,0.0973886176943779;0.23921599984169,0.188234999775887;0.494118005037308,0.466666996479034;0.662744998931885,0.666666984558105;0.811765015125275,0.800000011920929;1,0.921568989753723" />
	<E K="GradationCurveBlue" V="0,0;1,1" />
	<E K="GradationCurveGreen" V="0,0;1,1" />
	<E K="GradationCurveRed" V="0,0;1,1" />
	<E K="GradationCurveY" V="0,0;0.200000002980232,0.203500002622604;0.400000005960464,0.369949996471405;0.600000023841858,0.554499983787537;0.800000011920929,0.754499971866608;1,1" />
	<E K="Highlight" V="1;1;1;1" />
	<E K="HighlightRecoveryEx" V="-32.5" />
	<E K="Midtone" V="0;0;0;0.0175199992954731" />
	<E K="Name" V="Presetpro - Moody Light" />
	<E K="Saturation" V="-10" />
	<E K="Shadow" V="0;0;0;0" />
	<E K="ShadowRecovery" V="18.4009075164795" />
	<E K="TargetHighlight" V="1;1;1;0.920463979244232" />
	<E K="TargetShadow" V="0;0;0;0" />
	<E K="UsmAmount" V="35" />
	<E K="UsmRadius" V="1" />
	<E K="UUID" V="2B085F54-F272-4044-A90E-2FB6C50481CC" />
	<E K="WhiteRecovery" V="-20.3236083984375" />
</SL>
