Customs/Nomad.costyle
<?xml version="1.0"?>
<SL Engine="1300">
	<E K="BlackRecovery" V="0" />
	<E K="Brightness" V="0" />
	<E K="Clarity" V="12" />
	<E K="ClarityMethod" V="2" />
	<E K="ClarityStructure" V="4" />
	<E K="ColorBalance" V="1;1;1" />
	<E K="ColorBalanceHighlight" V="0.998847007751465;1;0.986000001430511" />
	<E K="ColorBalanceMidtone" V="0.997406005859375;0.999082028865814;0.962499976158142" />
	<E K="ColorBalanceShadow" V="1;0.996329009532928;0.976000010967255" />
	<E K="ColorCorrections" V="1,1,1,0,0,0,127,63,119,-28.822566986084,28.822566986084,-50,50,12,0,0,0,0;1,1,1,0,0,0,67,63,127,-21.9782791137695,21.9782791137695,-50,50,12,0,0,0,0;1,1,1,0,0,0,63,118,127,-22.3223114013672,22.3223114013672,-50,50,12,0,0,0,0;1,1,1,0,0,0,69,127,63,-38.9258460998535,38.9258460998535,-50,50,12,0,0,0,0;1,1,1,0,0,0,127,115,63,-13.5424394607544,13.5424394607544,-50,50,12,0,0,0,0;1,1,1,0,0,0,127,68,63,-18.4085693359375,18.4085693359375,-50,50,12,0,0,0,0;0,1,1,0,12,0,0,0,0,0,0,0,0,0,0,0,0,0;1,1,0,2.70000004768372,-4.79999923706055,0.239999994635582,237,45.3288917541504,66.479118347168,-9.59939575195312,9.18455505371094,-80.8738861083984,19.1261138916016,25.9748382568359,0,0,0,0;1,1,0,-6.29999923706055,-3.5,-0.572000026702881,255,130,12,0,4.55426025390625,-95.2941207885742,4.70587921142578,18.2099227905273,0,0,0,0;1,1,0,-2.09999990463257,-9.59999847412109,-0.239999994635582,255,225.91796875,36.1078147888184,-5.1807861328125,1.47015380859375,-85.8400726318359,14.1599273681641,20.3872756958008,0,0,0,0;1,1,0,4.5,-6.6000018119812,0.280000001192093,58.8606338500977,208,10.4000005722046,-33.7201843261719,32.3572998046875,-95,5,23.2739639282227,0,0,0,0;1,1,0,0.899999976158142,-12.9599990844727,0.462000012397766,22.6761436462402,216,177.109222412109,-4.34454345703125,5.92352294921875,-89.5017852783203,10.4982147216797,28.4633140563965,0,0,0,0;1,1,0,-2.6999990940094,-28.3200016021729,0.209999993443489,61.345775604248,87.8979263305664,165,-14.3739013671875,22.6552124023438,-62.820743560791,37.179256439209,27.3963947296143,0,0,0,0;1,1,0,-2.6999990940094,-42,1.00800001621246,104,0,148,-12.1621704101562,2.99188232421875,-100,0,26.3488998413086,0,0,0,0;1,1,0,2.70000004768372,-23.0999984741211,0.230000004172325,235,50.884838104248,191.595169067383,-6.26992797851562,5.4552001953125,-78.3468780517578,21.6531219482422,20.9790744781494,0,0,0,0;1,1,2,2.36563158035278,-15.9744558334351,0,174,139,97,0,25,-42.1264381408691,25.6254768371582,25,0,0,0,0" />
	<E K="Contrast" V="0" />
	<E K="DehazeAmount" V="0" />
	<E K="DehazeColor" V="0;0;0" />
	<E K="FilmGrainAmount" V="0" />
	<E K="FilmGrainDensity" V="0" />
	<E K="FilmGrainGranularity" V="50" />
	<E K="FilmGrainType" V="0" />
	<E K="GradationCurve" V="0,0.0156859997659922;0.0901959985494614,0.0980390012264252;0.270588010549545,0.243137001991272;0.415686011314392,0.372548997402191;0.545098006725311,0.494118005037308;0.67451000213623,0.619607985019684;0.815685987472534,0.749019980430603;1,0.901961028575897" />
	<E K="GradationCurveBlue" V="0,0;0.0901959985494614,0.0745100006461143;0.270588010549545,0.235293999314308;0.415686011314392,0.380391985177994;0.545098006725311,0.509804010391235;0.67451000213623,0.639216005802155;0.815685987472534,0.780391991138458;1,0.968626976013184" />
	<E K="GradationCurveGreen" V="0,0.0235290005803108;0.0901959985494614,0.105881996452808;0.270588010549545,0.270588010549545;0.415686011314392,0.41176500916481;0.545098006725311,0.541176021099091;0.67451000213623,0.666666984558105;0.815685987472534,0.811765015125275;1,0.996078014373779" />
	<E K="GradationCurveRed" V="0,0.0156859997659922;0.0901959985494614,0.0980390012264252;0.270588010549545,0.270588010549545;0.415686011314392,0.415686011314392;0.545098006725311,0.545098006725311;0.67451000213623,0.67451000213623;0.815685987472534,0.815685987472534;1,1" />
	<E K="GradationCurveY" V="0,0;0.200000002980232,0.204500004649162;0.400000005960464,0.403149992227554;0.600000023841858,0.600000023841858;0.800000011920929,0.800000011920929;1,1" />
	<E K="Highlight" V="1;1;1;0.930000007152557" />
	<E K="HighlightRecoveryEx" V="0" />
	<E K="Midtone" V="0;0;0;0" />
	<E K="Name" V="Presetpro - Nomad" />
	<E K="Saturation" V="-8" />
	<E K="Shadow" V="0;0;0;0" />
	<E K="ShadowRecovery" V="0" />
	<E K="StyleSource" V="Styles" />
	<E K="TargetHighlight" V="1;1;1;1" />
	<E K="TargetShadow" V="0;0;0;0" />
	<E K="UsmAmount" V="0" />
	<E K="UUID" V="9B8E39CD-9919-486A-9229-3B24BA96F83E" />
	<E K="WhiteRecovery" V="0" />
</SL>
