Customs/North.costyle
<?xml version="1.0"?>
<SL Engine="1300">
	<E K="ChromaticAberEnabled" V="0" />
	<E K="Clarity" V="-5" />
	<E K="ClarityMethod" V="2" />
	<E K="ClarityStructure" V="-1.66666698455811" />
	<E K="ColorBalance" V="1;1;1" />
	<E K="ColorBalanceHighlight" V="0.915000021457672;0.915000021457672;0.915000021457672" />
	<E K="ColorBalanceMidtone" V="1;1;1" />
	<E K="ColorBalanceShadow" V="1;1;1" />
	<E K="ColorCorrections" V="1,1,0,7.5,-11.4000015258789,-0.550000011920929,237,45.3288917541504,66.479118347168,-9.59939575195312,9.18455505371094,-80.8738861083984,19.1261138916016,25.9748382568359,0,0,0,0;1,1,0,0.600000023841858,-19.9999980926514,-1.32000005245209,255,130,12,0,4.55426025390625,-95.2941207885742,4.70587921142578,18.2099227905273,0,0,0,0;1,1,0,-8.39999961853027,-56,-1.67999994754791,255,225.91796875,36.1078147888184,-5.1807861328125,1.47015380859375,-85.8400726318359,14.1599273681641,20.3872756958008,0,0,0,0;1,1,0,-6.29999923706055,-7.92000198364258,1.00800001621246,58.8606338500977,208,10.4000005722046,-33.7201843261719,32.3572998046875,-95,5,23.2739639282227,0,0,0,0;1,1,0,-12.3000011444092,-16.2000007629395,0.75900000333786,22.6761436462402,216,177.109222412109,-4.34454345703125,5.92352294921875,-89.5017852783203,10.4982147216797,28.4633140563965,0,0,0,0;1,1,0,3.90000009536743,-15.3400001525879,-0.100000001490116,61.345775604248,87.8979263305664,165,-14.3739013671875,22.6552124023438,-62.820743560791,37.179256439209,27.3963947296143,0,0,0,0;1,1,0,1.79999995231628,-57,1.13399994373322,104,0,148,-12.1621704101562,2.99188232421875,-100,0,26.3488998413086,0,0,0,0;1,1,0,4.80000019073486,-34.2999992370605,0.920000016689301,235,50.884838104248,191.595169067383,-6.26992797851562,5.4552001953125,-78.3468780517578,21.6531219482422,20.9790744781494,0,0,0,0;1,1,2,2.36563158035278,-15.9744558334351,0,174,139,97,0,25,-42.1264381408691,25.6254768371582,25,0,0,0,0" />
	<E K="Contrast" V="3.20000004768372" />
	<E K="GradationCurve" V="0,0;0.145098000764847,0.121569000184536;0.274509996175766,0.243137001991272;0.407842993736267,0.372548997402191;0.537254989147186,0.49803900718689;0.666666984558105,0.619607985019684;0.800000011920929,0.749019980430603;0.929412007331848,0.878431022167206;1,0.952941000461578" />
	<E K="GradationCurveBlue" V="0,0;0.145098000764847,0.121569000184536;0.274509996175766,0.250979989767075;0.407842993736267,0.407842993736267;0.537254989147186,0.564706027507782;0.666666984558105,0.709803998470306;0.800000011920929,0.84313702583313;0.929412007331848,0.952941000461578;1,1" />
	<E K="GradationCurveGreen" V="0,0;0.145098000764847,0.129411995410919;0.274509996175766,0.250979989767075;0.407842993736267,0.403921991586685;0.537254989147186,0.552941024303436;0.666666984558105,0.690195977687836;0.800000011920929,0.823529005050659;0.929412007331848,0.937255024909973;1,0.992156982421875" />
	<E K="GradationCurveRed" V="0,0;0.145098000764847,0.0980390012264252;0.274509996175766,0.235293999314308;0.407842993736267,0.400000005960464;0.537254989147186,0.552941024303436;0.666666984558105,0.698038995265961;0.800000011920929,0.835294008255005;0.929412007331848,0.945097982883453;1,0.996078014373779" />
	<E K="GradationCurveY" V="0,0;0.200000002980232,0.200000002980232;0.400000005960464,0.391000002622604;0.600000023841858,0.587400019168854;0.800000011920929,0.787400007247925;1,1" />
	<E K="Highlight" V="1;1;1;1" />
	<E K="HighlightRecoveryEx" V="-9" />
	<E K="LensAperture" V="1.01084064652587e+24" />
	<E K="LensChromaFringing" V="|||||" />
	<E K="LensFocalLength" V="4.57860260233491e-41" />
	<E K="LensGeoAbr" V="|0.000000|1|0|0" />
	<E K="LensLCCDustRemovalEnabled" V="0" />
	<E K="LensLightFallOff" V="|0|1" />
	<E K="LensRadialBlur" V="||0|1" />
	<E K="LensShift" V="0" />
	<E K="LensShiftDirection" V="0" />
	<E K="LensShiftXY" V="0;3.85197789738703e-34" />
	<E K="LensTilt" V="0" />
	<E K="LensTiltDirection" V="0" />
	<E K="Midtone" V="0;0;0;0" />
	<E K="Name" V="Presetpro - North" />
	<E K="Saturation" V="-10" />
	<E K="Shadow" V="0;0;0;0" />
	<E K="ShadowRecovery" V="14.4000005722046" />
	<E K="TargetHighlight" V="1;1;1;1" />
	<E K="TargetShadow" V="0;0;0;0" />
	<E K="UsmAmount" V="10" />
	<E K="UsmRadius" V="1" />
	<E K="UUID" V="10974568-FF11-41A6-9D8D-13207D43F248" />
</SL>
