Customs/Northern.costyle
<?xml version="1.0"?>
<SL Engine="1300">
	<E K="Clarity" V="-5" />
	<E K="ClarityMethod" V="2" />
	<E K="ClarityStructure" V="-1.66666698455811" />
	<E K="ColorBalance" V="1;1;1" />
	<E K="ColorBalanceHighlight" V="0.915000021457672;0.915000021457672;0.915000021457672" />
	<E K="ColorBalanceMidtone" V="1;1;1" />
	<E K="ColorBalanceShadow" V="1;1;1" />
	<E K="ColorCorrections" V="1,1,1,0,0,0,127,63,119,-28.822566986084,28.822566986084,-50,50,12,0,0,0,0;1,1,1,0,0,0,67,63,127,-21.9782791137695,21.9782791137695,-50,50,12,0,0,0,0;1,1,1,0,0,0,63,118,127,-22.3223114013672,22.3223114013672,-50,50,12,0,0,0,0;1,1,1,0,0,0,69,127,63,-38.9258460998535,38.9258460998535,-50,50,12,0,0,0,0;1,1,1,0,0,0,127,115,63,-13.5424394607544,13.5424394607544,-50,50,12,0,0,0,0;1,1,1,0,0,0,127,68,63,-18.4085693359375,18.4085693359375,-50,50,12,0,0,0,0;0,1,1,0,20,0,0,0,0,0,0,0,0,0,0,0,0,0;1,1,0,8.10000038146973,-10.7999992370605,-0.600000023841858,237,45.3288917541504,66.479118347168,-9.59939575195312,9.18455505371094,-80.8738861083984,19.1261138916016,25.9748382568359,0,0,0,0;1,1,0,0.600000023841858,-8.5,0.159999996423721,255,130,12,0,4.55426025390625,-95.2941207885742,4.70587921142578,18.2099227905273,0,0,0,0;1,1,0,-8.70000076293945,-56,0.349999994039536,255,225.91796875,36.1078147888184,-5.1807861328125,1.47015380859375,-85.8400726318359,14.1599273681641,20.3872756958008,0,0,0,0;1,1,0,-11.3999996185303,-34.9799995422363,0.363999992609024,58.8606338500977,208,10.4000005722046,-33.7201843261719,32.3572998046875,-95,5,23.2739639282227,0,0,0,0;1,1,0,2.40000009536743,-14.5799980163574,0.791999995708466,22.6761436462402,216,177.109222412109,-4.34454345703125,5.92352294921875,-89.5017852783203,10.4982147216797,28.4633140563965,0,0,0,0;1,1,0,-0.899999976158142,-12.9800033569336,-0.0500000007450581,61.345775604248,87.8979263305664,165,-14.3739013671875,22.6552124023438,-62.820743560791,37.179256439209,27.3963947296143,0,0,0,0;1,1,0,1.5,-57,1.32299995422363,104,0,148,-12.1621704101562,2.99188232421875,-100,0,26.3488998413086,0,0,0,0;1,1,0,3.90000009536743,-37.0999984741211,1.01199996471405,235,50.884838104248,191.595169067383,-6.26992797851562,5.4552001953125,-78.3468780517578,21.6531219482422,20.9790744781494,0,0,0,0;1,1,2,2.36563158035278,-15.9744558334351,0,174,139,97,0,25,-42.1264381408691,25.6254768371582,25,0,0,0,0" />
	<E K="Contrast" V="3.20000004768372" />
	<E K="GradationCurve" V="0,0.011765000410378;0.0784310027956963,0.0901959985494614;0.247059002518654,0.243137001991272;0.380391985177994,0.36862701177597;0.50196099281311,0.494118005037308;0.627451002597809,0.619607985019684;0.760783970355988,0.745097994804382;0.901961028575897,0.878431022167206;1,0.972549021244049" />
	<E K="GradationCurveBlue" V="0,0.011765000410378;0.0784310027956963,0.0745100006461143;0.247059002518654,0.223528996109962;0.380391985177994,0.380391985177994;0.50196099281311,0.529411971569061;0.627451002597809,0.67058801651001;0.760783970355988,0.80392199754715;0.901961028575897,0.925490021705627;1,1" />
	<E K="GradationCurveGreen" V="0,0.0156859997659922;0.0784310027956963,0.0784310027956963;0.247059002518654,0.223528996109962;0.380391985177994,0.376471012830734;0.50196099281311,0.51764702796936;0.627451002597809,0.650979995727539;0.760783970355988,0.784313976764679;0.901961028575897,0.909803986549377;1,0.992156982421875" />
	<E K="GradationCurveRed" V="0,0;0.0784310027956963,0.0509800016880035;0.247059002518654,0.211765006184578;0.380391985177994,0.372548997402191;0.50196099281311,0.51764702796936;0.627451002597809,0.658824026584625;0.760783970355988,0.796078026294708;0.901961028575897,0.917647004127502;1,0.996078014373779" />
	<E K="GradationCurveY" V="0,0;0.200000002980232,0.200000002980232;0.400000005960464,0.394499987363815;0.600000023841858,0.592299997806549;0.800000011920929,0.79229998588562;1,1" />
	<E K="Highlight" V="1;1;1;1" />
	<E K="HighlightRecoveryEx" V="-5.5" />
	<E K="Midtone" V="0;0;0;0" />
	<E K="Name" V="Presetpro - Northern" />
	<E K="Saturation" V="-5" />
	<E K="Shadow" V="0;0;0;0" />
	<E K="ShadowRecovery" V="14.4000005722046" />
	<E K="StyleSource" V="Styles" />
	<E K="TargetHighlight" V="1;1;1;1" />
	<E K="TargetShadow" V="0;0;0;0" />
	<E K="UsmAmount" V="10" />
	<E K="UsmRadius" V="1" />
	<E K="UUID" V="3DD0485C-E10F-4449-AEFA-E460458364A9" />
</SL>
