Customs/Old Classic.costyle
<?xml version="1.0"?>
<SL Engine="1300">
	<E K="BlackRecovery" V="0" />
	<E K="Brightness" V="0" />
	<E K="ChromaticAberEnabled" V="0" />
	<E K="Clarity" V="9" />
	<E K="ClarityMethod" V="2" />
	<E K="ClarityStructure" V="3" />
	<E K="ColorBalance" V="1;1;1" />
	<E K="ColorBalanceHighlight" V="1;1;1" />
	<E K="ColorBalanceMidtone" V="1;0.993600010871887;0.974500000476837" />
	<E K="ColorBalanceShadow" V="1;0.974399983882904;0.898000001907349" />
	<E K="ColorCorrections" V="1,1,1,0,0,0,127,63,119,-28.822566986084,28.822566986084,-50,50,12,0,0,0,0;1,1,1,0,0,0,67,63,127,-21.9782791137695,21.9782791137695,-50,50,12,0,0,0,0;1,1,1,0,0,0,63,118,127,-22.3223114013672,22.3223114013672,-50,50,12,0,0,0,0;1,1,1,0,0,0,69,127,63,-38.9258460998535,38.9258460998535,-50,50,12,0,0,0,0;1,1,1,0,0,0,127,115,63,-13.5424394607544,13.5424394607544,-50,50,12,0,0,0,0;1,1,1,0,0,0,127,68,63,-18.4085693359375,18.4085693359375,-50,50,12,0,0,0,0;0,1,1,0,-6.40000200271606,0,0,0,0,0,0,0,0,0,0,0,0,0;1,1,0,-3,-4.79999923706055,-0.800000011920929,237,45.3288917541504,66.479118347168,-9.59939575195312,9.18455505371094,-80.8738861083984,19.1261138916016,25.9748382568359,0,0,0,0;1,1,0,-7.5,1.10000002384186,-0.395999997854233,255,130,12,0,4.55426025390625,-95.2941207885742,4.70587921142578,18.2099227905273,0,0,0,0;1,1,0,3.29999995231628,-18.4000015258789,-0.449999988079071,255,225.91796875,36.1078147888184,-5.1807861328125,1.47015380859375,-85.8400726318359,14.1599273681641,20.3872756958008,0,0,0,0;1,1,0,0.899999976158142,-19.1400032043457,0.839999973773956,58.8606338500977,208,10.4000005722046,-33.7201843261719,32.3572998046875,-95,5,23.2739639282227,0,0,0,0;1,1,0,0,5.84999990463257,0.593999981880188,22.6761436462402,216,177.109222412109,-4.34454345703125,5.92352294921875,-89.5017852783203,10.4982147216797,28.4633140563965,0,0,0,0;1,1,0,-3,12.5,0.875,61.345775604248,87.8979263305664,165,-14.3739013671875,22.6552124023438,-62.820743560791,37.179256439209,27.3963947296143,0,0,0,0;1,1,0,0,-9,0,104,0,148,-12.1621704101562,2.99188232421875,-100,0,26.3488998413086,0,0,0,0;1,1,0,0,-7,0,235,50.884838104248,191.595169067383,-6.26992797851562,5.4552001953125,-78.3468780517578,21.6531219482422,20.9790744781494,0,0,0,0;1,1,2,2.36563158035278,-15.9744558334351,0,174,139,97,0,25,-42.1264381408691,25.6254768371582,25,0,0,0,0" />
	<E K="Contrast" V="0" />
	<E K="DehazeAmount" V="0" />
	<E K="DehazeColor" V="0;0;0" />
	<E K="FilmGrainAmount" V="0" />
	<E K="FilmGrainDensity" V="0" />
	<E K="FilmGrainGranularity" V="50" />
	<E K="FilmGrainType" V="0" />
	<E K="GradationCurve" V="0,0.0156859997659922;0.0470589995384216,0.0784310027956963;0.200000002980232,0.231372997164726;0.349020004272461,0.372548997402191;0.490195989608765,0.494118005037308;0.627451002597809,0.619607985019684;0.760783970355988,0.745097994804382;0.894118010997772,0.878431022167206;1,0.984314024448395" />
	<E K="GradationCurveBlue" V="0,0;0.0470589995384216,0.0196080002933741;0.200000002980232,0.145098000764847;0.349020004272461,0.309803992509842;0.490195989608765,0.494118005037308;0.627451002597809,0.662744998931885;0.760783970355988,0.80392199754715;0.894118010997772,0.917647004127502;1,0.996078014373779" />
	<E K="GradationCurveGreen" V="0,0;0.0470589995384216,0.0196080002933741;0.200000002980232,0.149020001292229;0.349020004272461,0.317647010087967;0.490195989608765,0.50196099281311;0.627451002597809,0.67058801651001;0.760783970355988,0.811765015125275;0.894118010997772,0.921568989753723;1,1" />
	<E K="GradationCurveRed" V="0,0;0.0470589995384216,0.0196080002933741;0.200000002980232,0.145098000764847;0.349020004272461,0.313726007938385;0.490195989608765,0.509804010391235;0.627451002597809,0.686275005340576;0.760783970355988,0.823529005050659;0.894118010997772,0.921568989753723;1,1" />
	<E K="GradationCurveY" V="0,0;0.200000002980232,0.215000003576279;0.400000005960464,0.41049998998642;0.600000023841858,0.600000023841858;0.800000011920929,0.800000011920929;1,1" />
	<E K="Highlight" V="1;1;1;1" />
	<E K="HighlightRecoveryEx" V="0" />
	<E K="LensAperture" V="3.64850118811189e+17" />
	<E K="LensChromaFringing" V="|||||" />
	<E K="LensFocalLength" V="4.57916312172064e-41" />
	<E K="LensGeoAbr" V="|0.000000|1|0|0" />
	<E K="LensLCCDustRemovalEnabled" V="0" />
	<E K="LensLccLightFalloffAmount" V="0" />
	<E K="LensLightFallOff" V="|0|1" />
	<E K="LensRadialBlur" V="||0|1" />
	<E K="LensShift" V="0" />
	<E K="LensShiftDirection" V="0" />
	<E K="LensShiftXY" V="0;3.85197789738703e-34" />
	<E K="LensTilt" V="0" />
	<E K="LensTiltDirection" V="0" />
	<E K="Midtone" V="0;0;0;0.00730000017210841" />
	<E K="Name" V="Presetpro - Old Classic" />
	<E K="Saturation" V="5" />
	<E K="Shadow" V="0;0;0;0" />
	<E K="ShadowRecovery" V="0" />
	<E K="StyleSource" V="Styles" />
	<E K="TargetHighlight" V="1;1;1;0.966859996318817" />
	<E K="TargetShadow" V="0;0;0;0" />
	<E K="UsmAmount" V="0" />
	<E K="UUID" V="9BFC4B98-6DF5-45AE-96D6-228707498081" />
	<E K="WhiteRecovery" V="0" />
</SL>
