Customs/Paradise.costyle
<?xml version="1.0"?>
<SL Engine="1300">
	<E K="BlackRecovery" V="0" />
	<E K="Brightness" V="0" />
	<E K="ChromaticAberEnabled" V="0" />
	<E K="Clarity" V="-5" />
	<E K="ClarityMethod" V="2" />
	<E K="ClarityStructure" V="-1.66666698455811" />
	<E K="ColorBalance" V="1;1;1" />
	<E K="ColorBalanceHighlight" V="0.992500007152557;0.992500007152557;0.992500007152557" />
	<E K="ColorBalanceMidtone" V="1;0.984435021877289;0.97299998998642" />
	<E K="ColorBalanceShadow" V="1;0.937740981578827;0.892000019550323" />
	<E K="ColorCorrections" V="1,1,1,0,0,0,255,0,168.909881591797,-7.11462593078613,7.11462545394897,-100,100,15,0,0,0,0;1,1,1,0,0,0,170.939270019531,0,255,-17.8928756713867,17.8928737640381,-100,100,15,0,0,0,0;1,1,1,0,0,0,0,64.2907180786133,255,-22.4273700714111,22.4273681640625,-100,100,15,0,0,0,0;1,1,1,0,0,0,0,255,236.141906738281,-11.8545961380005,11.8545951843262,-100,100,15,0,0,0,0;1,1,1,0,0,0,45.4988479614258,255,0,-39.3857154846191,39.3857116699219,-100,100,15,0,0,0,0;1,1,1,0,0,0,255,211.99267578125,0,-5,5,-100,100,15,0,0,0,0;1,1,1,0,0,0,255,101.301910400391,0,-6.01692199707031,6.01692152023315,-100,100,15,0,0,0,0;1,1,1,0,0,0,255,0,31.470853805542,-10.195873260498,10.1958723068237,-100,100,15,0,0,0,0;0,1,1,0,0,0,0,0,0,0,0,0,0,0,0,0,0,0;1,1,0,1.79999995231628,-20.3999977111816,0.330000013113022,237,45.3288917541504,66.479118347168,-9.59939575195312,9.18455505371094,-80.8738861083984,19.1261138916016,25.9748382568359,0,0,0,0;1,1,0,0,-11.5,-1.49600005149841,255,130,12,0,4.55426025390625,-95.2941207885742,4.70587921142578,18.2099227905273,0,0,0,0;1,1,0,-4.19999885559082,-14.4000015258789,0.5,255,225.91796875,36.1078147888184,-5.1807861328125,1.47015380859375,-85.8400726318359,14.1599273681641,20.3872756958008,0,0,0,0;1,1,0,4.5,-25.0799980163574,0.0560000017285347,58.8606338500977,208,10.4000005722046,-33.7201843261719,32.3572998046875,-95,5,23.2739639282227,0,0,0,0;1,1,0,0,-14.5799980163574,-0.11599999666214,22.6761436462402,216,177.109222412109,-4.34454345703125,5.92352294921875,-89.5017852783203,10.4982147216797,28.4633140563965,0,0,0,0;1,1,0,0,-15.9300003051758,-0.150000005960464,61.345775604248,87.8979263305664,165,-14.3739013671875,22.6552124023438,-62.820743560791,37.179256439209,27.3963947296143,0,0,0,0;1,1,0,1.5,-11,-0.980000019073486,104,0,148,-12.1621704101562,2.99188232421875,-100,0,26.3488998413086,0,0,0,0;1,1,0,8.10000038146973,-7,1.14999997615814,235,50.884838104248,191.595169067383,-6.26992797851562,5.4552001953125,-78.3468780517578,21.6531219482422,20.9790744781494,0,0,0,0;1,1,2,2.36563158035278,-15.9744558334351,0,174,139,97,0,25,-42.1264381408691,25.6254768371582,25,0,0,0,0" />
	<E K="Contrast" V="0" />
	<E K="DehazeAmount" V="0" />
	<E K="DehazeColor" V="0;0;0" />
	<E K="FilmGrainAmount" V="22" />
	<E K="FilmGrainDensity" V="0" />
	<E K="FilmGrainGranularity" V="50" />
	<E K="FilmGrainType" V="4" />
	<E K="GradationCurve" V="0,0.0274509992450476;0.19607800245285,0.200000002980232;0.352941006422043,0.36862701177597;0.490195989608765,0.494118005037308;0.623529016971588,0.623529016971588;0.756862998008728,0.745097994804382;0.894118010997772,0.878431022167206;1,0.980391979217529" />
	<E K="GradationCurveBlue" V="0,0;0.19607800245285,0.172548994421959;0.352941006422043,0.364706009626389;0.490195989608765,0.564706027507782;0.623529016971588,0.717647016048431;0.756862998008728,0.835294008255005;0.894118010997772,0.933332979679108;1,1" />
	<E K="GradationCurveGreen" V="0,0.00392200006172061;0.19607800245285,0.188234999775887;0.352941006422043,0.384314000606537;0.490195989608765,0.576470971107483;0.623529016971588,0.721569001674652;0.756862998008728,0.835294008255005;0.894118010997772,0.933332979679108;1,1" />
	<E K="GradationCurveRed" V="0,0.00392200006172061;0.19607800245285,0.180391997098923;0.352941006422043,0.372548997402191;0.490195989608765,0.568626999855042;0.623529016971588,0.721569001674652;0.756862998008728,0.839215993881226;0.894118010997772,0.937255024909973;1,1" />
	<E K="GradationCurveY" V="0,0;0.200000002980232,0.200000002980232;0.400000005960464,0.391000002622604;0.600000023841858,0.587400019168854;0.800000011920929,0.787400007247925;1,1" />
	<E K="Highlight" V="1;1;1;1" />
	<E K="HighlightRecoveryEx" V="-9" />
	<E K="LensAperture" V="-3.23084365460594e+35" />
	<E K="LensChromaFringing" V="|||||" />
	<E K="LensFocalLength" V="4.58799130204588e-41" />
	<E K="LensGeoAbr" V="|0.000000|1|0|0" />
	<E K="LensLCCDustRemovalEnabled" V="0" />
	<E K="LensLightFallOff" V="|0|1" />
	<E K="LensRadialBlur" V="||0|1" />
	<E K="LensShift" V="0" />
	<E K="LensShiftDirection" V="0" />
	<E K="LensShiftXY" V="0;3.85197789738703e-34" />
	<E K="LensTilt" V="0" />
	<E K="LensTiltDirection" V="0" />
	<E K="Midtone" V="0;0;0;0" />
	<E K="Name" V="Presetpro - Paradise" />
	<E K="Saturation" V="6" />
	<E K="Shadow" V="0;0;0;0" />
	<E K="ShadowRecovery" V="14.4000005722046" />
	<E K="TargetHighlight" V="1;1;1;1" />
	<E K="TargetShadow" V="0;0;0;0" />
	<E K="UsmAmount" V="33" />
	<E K="UsmRadius" V="1" />
	<E K="UUID" V="CD5AA533-F050-4B8A-BF9F-2C099B4BD75A" />
	<E K="WhiteRecovery" V="0" />
</SL>
