Customs/Pastel.costyle
<?xml version="1.0"?>
<SL Engine="1300">
	<E K="BlackRecovery" V="100" />
	<E K="Brightness" V="9.6121654510498" />
	<E K="ColorCorrections" V="1,1,1,0,0,0,255,0,168.909881591797,-7.11462593078613,7.11462593078613,-100,100,15,0,0,0,0;1,1,1,0,0,0,170.93928527832,0,255,-17.8928756713867,17.8928756713867,-100,100,15,0,0,0,0;1,1,1,0,0,0,0,64.2907180786133,255,-22.4273700714111,22.4273700714111,-100,100,15,0,0,0,0;1,1,1,0,0,0,0,255,236.14192199707,-11.8545951843262,11.8545951843262,-100,100,15,0,0,0,0;1,1,1,0,0,0,45.498851776123,255,0,-39.3857116699219,39.3857116699219,-100,100,15,0,0,0,0;1,1,1,0,0,0,255,211.99267578125,0,-5,5,-100,100,15,0,0,0,0;1,1,1,10.6858263015747,-54.3035697937012,-4.3881139755249,255,101.301910400391,0,-6.01692199707031,6.01692199707031,-100,100,15,0,0,0,0;1,1,1,0,0,0,255,0,31.4708557128906,-10.195873260498,10.195873260498,-100,100,15,0,0,0,0;0,1,1,0,0,0,0,0,0,0,0,0,0,0,0,0,0,0" />
	<E K="Contrast" V="-50" />
	<E K="Exposure" V="1" />
	<E K="HighlightRecoveryEx" V="-100" />
	<E K="Name" V="Pastel" />
	<E K="Saturation" V="-4.79910707473755" />
	<E K="ShadowRecovery" V="27.9743309020996" />
	<E K="UUID" V="F62723F6-04F3-4639-BDC1-F0A8283982BC" />
	<E K="WhiteRecovery" V="-100" />
</SL>
