Customs/Portraits.costyle
<?xml version="1.0"?>
<SL Engine="1300">
	<E K="Clarity" V="0" />
	<E K="ClarityMethod" V="2" />
	<E K="ClarityStructure" V="0" />
	<E K="ColorBalance" V="1;1;1" />
	<E K="ColorBalanceHighlight" V="1;1;1" />
	<E K="ColorBalanceMidtone" V="1;1;1" />
	<E K="ColorBalanceShadow" V="0.972500026226044;0.972500026226044;0.972500026226044" />
	<E K="ColorCorrections" V="1,1,0,3,-9,-0.5,237,45.3288917541504,66.479118347168,-9.59939575195312,9.18455505371094,-80.8738861083984,19.1261138916016,25.9748382568359,0,0,0,0;1,1,0,1.20000004768372,0,-0.395999997854233,255,130,12,0,4.55426025390625,-95.2941207885742,4.70587921142578,18.2099227905273,0,0,0,0;1,1,0,0,-1.59999799728394,0,255,225.91796875,36.1078147888184,-5.1807861328125,1.47015380859375,-85.8400726318359,14.1599273681641,20.3872756958008,0,0,0,0;1,1,0,4.5,1.10000002384186,-0.25,58.8606338500977,208,10.4000005722046,-33.7201843261719,32.3572998046875,-95,5,23.2739639282227,0,0,0,0;1,1,0,0,0,-0.40599998831749,22.6761436462402,216,177.109222412109,-4.34454345703125,5.92352294921875,-89.5017852783203,10.4982147216797,28.4633140563965,0,0,0,0;1,1,0,2.40000009536743,0,-0.600000023841858,61.345775604248,87.8979263305664,165,-14.3739013671875,22.6552124023438,-62.820743560791,37.179256439209,27.3963947296143,0,0,0,0;1,1,0,0,-12,-0.209999993443489,104,0,148,-12.1621704101562,2.99188232421875,-100,0,26.3488998413086,0,0,0,0;1,1,0,0,-7,0,235,50.884838104248,191.595169067383,-6.26992797851562,5.4552001953125,-78.3468780517578,21.6531219482422,20.9790744781494,0,0,0,0;1,1,2,2.36563158035278,-15.9744558334351,0,174,139,97,0,25,-42.1264381408691,25.6254768371582,25,0,0,0,0" />
	<E K="Contrast" V="0" />
	<E K="FilmGrainAmount" V="0" />
	<E K="FilmGrainDensity" V="0" />
	<E K="FilmGrainGranularity" V="50" />
	<E K="FilmGrainType" V="1" />
	<E K="GradationCurve" V="0,0;0.101961001753807,0.113724999129772;0.482353001832962,0.478430986404419;0.725489974021912,0.725489974021912;1,1" />
	<E K="GradationCurveBlue" V="0,0;0.101961001753807,0.0705880001187325;0.223528996109962,0.180391997098923;0.364706009626389,0.360783994197845;0.50196099281311,0.549019992351532;0.627451002597809,0.694118022918701;0.749019980430603,0.807843029499054;0.874509990215302,0.905882000923157;1,1" />
	<E K="GradationCurveGreen" V="0,0;0.101961001753807,0.0627449974417686;0.223528996109962,0.164706006646156;0.364706009626389,0.356862992048264;0.50196099281311,0.556863009929657;0.627451002597809,0.701960980892181;0.749019980430603,0.807843029499054;0.874509990215302,0.905882000923157;1,1" />
	<E K="GradationCurveRed" V="0,0;0.101961001753807,0.0549019984900951;0.223528996109962,0.152941003441811;0.364706009626389,0.352941006422043;0.50196099281311,0.568626999855042;0.627451002597809,0.705882012844086;0.749019980430603,0.80392199754715;0.874509990215302,0.901961028575897;1,1" />
	<E K="GradationCurveY" V="0,0;0.200000002980232,0.222499996423721;0.400000005960464,0.40174999833107;0.600000023841858,0.580399990081787;0.800000011920929,0.780399978160858;1,1" />
	<E K="Highlight" V="1;1;1;1" />
	<E K="HighlightRecoveryEx" V="-14" />
	<E K="Midtone" V="0;0;0;0.0138699999079108" />
	<E K="Name" V="Presetpro - Portraits" />
	<E K="Saturation" V="-8" />
	<E K="Shadow" V="0;0;0;0" />
	<E K="ShadowRecovery" V="17.6000003814697" />
	<E K="StyleSource" V="Styles" />
	<E K="TargetHighlight" V="1;1;1;0.937034010887146" />
	<E K="TargetShadow" V="0;0;0;0" />
	<E K="UsmAmount" V="25" />
	<E K="UsmRadius" V="1" />
	<E K="UUID" V="84618742-AF41-40A6-9CE2-D5CECA28B746" />
	<E K="Vignetting" V="0|1|0|1" />
</SL>
