Customs/Retro Film.costyle
<?xml version="1.0"?>
<SL Engine="1300">
	<E K="Clarity" V="0" />
	<E K="ClarityMethod" V="2" />
	<E K="ClarityStructure" V="0" />
	<E K="CnrAmount" V="25" />
	<E K="ColorBalance" V="1;1;1" />
	<E K="ColorBalanceHighlight" V="0.879999995231628;0.879999995231628;0.879999995231628" />
	<E K="ColorBalanceMidtone" V="1.08108103275299;1.08108103275299;1.08108103275299" />
	<E K="ColorBalanceShadow" V="0.800000011920929;0.800000011920929;0.800000011920929" />
	<E K="ColorCorrections" V="1,1,0,6.59999990463257,-7.20000076293945,0,237,45.3288917541504,66.479118347168,-9.59939575195312,9.18455505371094,-80.8738861083984,19.1261138916016,25.9748382568359,0,0,0,0;1,1,0,-0.299998998641968,0.219999998807907,-0.30799999833107,255,130,12,0,4.55426025390625,-95.2941207885742,4.70587921142578,18.2099227905273,0,0,0,0;1,1,0,3.29999995231628,-13.5999984741211,0,255,225.91796875,36.1078147888184,-5.1807861328125,1.47015380859375,-85.8400726318359,14.1599273681641,20.3872756958008,0,0,0,0;1,1,0,6.59999990463257,-34.3199996948242,0,58.8606338500977,208,10.4000005722046,-33.7201843261719,32.3572998046875,-95,5,23.2739639282227,0,0,0,0;1,1,0,0,-15.1199989318848,0.428999990224838,22.6761436462402,216,177.109222412109,-4.34454345703125,5.92352294921875,-89.5017852783203,10.4982147216797,28.4633140563965,0,0,0,0;1,1,0,-5.40000009536743,-10.6199989318848,0.245000004768372,61.345775604248,87.8979263305664,165,-14.3739013671875,22.6552124023438,-62.820743560791,37.179256439209,27.3963947296143,0,0,0,0;1,1,0,5.40000009536743,-48,1.13399994373322,104,0,148,-12.1621704101562,2.99188232421875,-100,0,26.3488998413086,0,0,0,0;1,1,0,11.6999998092651,-12.6000022888184,0,235,50.884838104248,191.595169067383,-6.26992797851562,5.4552001953125,-78.3468780517578,21.6531219482422,20.9790744781494,0,0,0,0;1,1,2,2.36563158035278,-15.9744558334351,0,174,139,97,0,25,-42.1264381408691,25.6254768371582,25,0,0,0,0" />
	<E K="Contrast" V="4" />
	<E K="FilmGrainAmount" V="28" />
	<E K="FilmGrainDensity" V="0" />
	<E K="FilmGrainGranularity" V="50" />
	<E K="FilmGrainType" V="2" />
	<E K="GradationCurve" V="0,0.0156859997659922;0.0549019984900951,0.0823530033230782;0.19607800245285,0.235293999314308;0.333332985639572,0.372548997402191;0.470587998628616,0.494118005037308;0.611765027046204,0.623529016971588;0.749019980430603,0.749019980430603;0.886274993419647,0.870588004589081;1,0.980391979217529" />
	<E K="GradationCurveBlue" V="0,0;0.0549019984900951,0.0313730016350746;0.19607800245285,0.133332997560501;0.333332985639572,0.290196001529694;0.470587998628616,0.470587998628616;0.611765027046204,0.635294020175934;0.749019980430603,0.776471018791199;0.886274993419647,0.905882000923157;1,1" />
	<E K="GradationCurveGreen" V="0,0.0274509992450476;0.0549019984900951,0.058823999017477;0.19607800245285,0.164706006646156;0.333332985639572,0.301961004734039;0.470587998628616,0.462745010852814;0.611765027046204,0.623529016971588;0.749019980430603,0.768626987934113;0.886274993419647,0.898038983345032;1,1" />
	<E K="GradationCurveRed" V="0,0.0235290005803108;0.0549019984900951,0.0549019984900951;0.19607800245285,0.164706006646156;0.333332985639572,0.309803992509842;0.470587998628616,0.478430986404419;0.611765027046204,0.643136978149414;0.749019980430603,0.784313976764679;0.886274993419647,0.905882000923157;1,1" />
	<E K="GradationCurveY" V="0,0;0.200000002980232,0.212500005960464;0.400000005960464,0.403750002384186;0.600000023841858,0.592999994754791;0.800000011920929,0.792999982833862;1,1" />
	<E K="Highlight" V="1;1;1;1" />
	<E K="HighlightRecoveryEx" V="-5" />
	<E K="Midtone" V="0;0;0;0.00365000008605421" />
	<E K="Name" V="Presetpro - Retro Film" />
	<E K="NrAmount" V="0" />
	<E K="Saturation" V="0" />
	<E K="Shadow" V="0;0;0;0" />
	<E K="ShadowRecovery" V="20" />
	<E K="TargetHighlight" V="1;1;1;0.983430027961731" />
	<E K="TargetShadow" V="0;0;0;0" />
	<E K="UsmAmount" V="25" />
	<E K="UsmRadius" V="1" />
	<E K="UUID" V="7D02A2BE-E8B9-4AD8-AA4C-3CCF91A941CE" />
</SL>
