Customs/Retro Style.costyle
<?xml version="1.0"?>
<SL Engine="1300">
	<E K="CnrAmount" V="52.0337295532227" />
	<E K="ColorBalance" V="0.944523274898529;0.979401886463165;1" />
	<E K="ColorBalanceHighlight" V="1;0.928632974624634;0.910296380519867" />
	<E K="ColorBalanceMidtone" V="1.10798966884613;1.09004688262939;1.03662824630737" />
	<E K="ColorBalanceShadow" V="1.04428064823151;1.00087749958038;0.980841994285583" />
	<E K="ColorCorrections" V="1,1,1,0,0,0,255,0,168.909881591797,-7.11462593078613,7.11462593078613,-100,100,15,0,0,0,0;1,1,1,0,0,0,170.93928527832,0,255,-17.8928756713867,17.8928756713867,-100,100,15,0,0,0,0;1,1,1,0,0,0,0,64.2907180786133,255,-22.4273700714111,22.4273700714111,-100,100,15,0,0,0,0;1,1,1,0,0,0,0,255,236.14192199707,-11.8545951843262,11.8545951843262,-100,100,15,0,0,0,0;1,1,1,0,0,0,45.498851776123,255,0,-39.3857116699219,39.3857116699219,-100,100,15,0,0,0,0;1,1,1,0,0,0,255,211.99267578125,0,-5,5,-100,100,15,0,0,0,0;1,1,1,0,0,0,255,101.301910400391,0,-6.01692199707031,6.01692199707031,-100,100,15,0,0,0,0;1,1,1,0,0,0,255,0,31.4708557128906,-10.195873260498,10.195873260498,-100,100,15,0,0,0,0;0,1,1,0,0,0,0,0,0,0,0,0,0,0,0,0,0,0;1,1,0,8,-35,1.79999995231628,49.7979431152344,64,27.4804306030273,-17.8786926269531,22.1213073730469,-57.0618286132812,42.9381713867188,15,0,0,0,0;1,1,0,5,-15,0.800000011920929,151,113,92,-20,20,-39.0728492736816,60.9271507263184,15,0,0,0,0;1,1,0,0,-17,2.59999990463257,124,146,174,-20,20,-28.7356338500977,71.2643661499023,15,0,0,0,0;1,1,2,0.442708343267441,0.375844597816467,-0.0308277048170567,145.655212402344,177.039291381836,230,-27.1064300537109,24.9999847412109,-36.6714744567871,40.7196655273438,23.9580173492432,0,0,0,0" />
	<E K="FilmGrainAmount" V="22.4764385223389" />
	<E K="FilmGrainDensity" V="0" />
	<E K="FilmGrainGranularity" V="50" />
	<E K="FilmGrainType" V="0" />
	<E K="GradationCurve" V="0,0;0.0637755244970322,0.035573448985815;0.163729965686798,0.134065419435501;1,1" />
	<E K="GradationCurveBlue" V="0,0;0.177142515778542,0.163046076893806;0.5009765625,0.508350610733032;1,1" />
	<E K="GradationCurveGreen" V="0,0;0.148200750350952,0.135861769318581;0.499422937631607,0.498943746089935;1,1" />
	<E K="GradationCurveRed" V="0,0;0.152920812368393,0.136997774243355;0.500266313552856,0.500298976898193;1,1" />
	<E K="GradationCurveY" V="0,0;0.47040718793869,0.484355062246323;1,1" />
	<E K="Highlight" V="1;1;1;1" />
	<E K="HighlightRecoveryEx" V="-15" />
	<E K="Midtone" V="0;0;0;0" />
	<E K="Name" V="Presetpro - Retro Style" />
	<E K="NoiseDetailsAmount" V="47" />
	<E K="NrAmount" V="46.3076629638672" />
	<E K="Shadow" V="0;0;0;0" />
	<E K="ShadowRecovery" V="14.6326017379761" />
	<E K="StyleSource" V="Styles" />
	<E K="TargetHighlight" V="1;1;1;1" />
	<E K="TargetShadow" V="0;0;0;0" />
	<E K="UsmAmount" V="188.897567749023" />
	<E K="UsmRadius" V="0.730192840099335" />
	<E K="UsmThreshold" V="0.931080162525177" />
	<E K="UUID" V="15C8830B-ABF1-426D-A1CC-F3BA2B6607D7" />
</SL>
