Customs/Rustic Charm.costyle
<?xml version="1.0"?>
<SL Engine="1300">
	<E K="BlackRecovery" V="0" />
	<E K="Brightness" V="0" />
	<E K="ChromaticAberEnabled" V="0" />
	<E K="Clarity" V="-5" />
	<E K="ClarityMethod" V="2" />
	<E K="ClarityStructure" V="-1.66666698455811" />
	<E K="ColorBalance" V="1;1;1" />
	<E K="ColorBalanceHighlight" V="1;1;1" />
	<E K="ColorBalanceMidtone" V="1;1;1" />
	<E K="ColorBalanceShadow" V="1;1;1" />
	<E K="ColorCorrections" V="1,1,1,0,0,0,127,63,119,-28.822566986084,28.822566986084,-50,50,12,0,0,0,0;1,1,1,0,0,0,67,63,127,-21.9782791137695,21.9782791137695,-50,50,12,0,0,0,0;1,1,1,0,0,0,63,118,127,-22.3223114013672,22.3223114013672,-50,50,12,0,0,0,0;1,1,1,0,0,0,69,127,63,-38.9258460998535,38.9258460998535,-50,50,12,0,0,0,0;1,1,1,0,0,0,127,115,63,-13.5424394607544,13.5424394607544,-50,50,12,0,0,0,0;1,1,1,0,0,0,127,68,63,-18.4085693359375,18.4085693359375,-50,50,12,0,0,0,0;0,1,1,0,32.7999992370605,0,0,0,0,0,0,0,0,0,0,0,0,0;1,1,0,1.5,-3.59999799728394,-1.85000002384186,237,45.3288917541504,66.479118347168,-9.59939575195312,9.18455505371094,-80.8738861083984,19.1261138916016,25.9748382568359,0,0,0,0;1,1,0,-0.899999976158142,-14,-0.61599999666214,255,130,12,0,4.55426025390625,-95.2941207885742,4.70587921142578,18.2099227905273,0,0,0,0;1,1,0,0,-59.2000007629395,4.44999980926514,255,225.91796875,36.1078147888184,-5.1807861328125,1.47015380859375,-85.8400726318359,14.1599273681641,20.3872756958008,0,0,0,0;1,1,0,8.39999961853027,-49.5,2.26799988746643,58.8606338500977,208,10.4000005722046,-33.7201843261719,32.3572998046875,-95,5,23.2739639282227,0,0,0,0;1,1,0,3.59999990463257,-1.61999905109406,-0.870000004768372,22.6761436462402,216,177.109222412109,-4.34454345703125,5.92352294921875,-89.5017852783203,10.4982147216797,28.4633140563965,0,0,0,0;1,1,0,-4.80000114440918,1,2.13499999046326,61.345775604248,87.8979263305664,165,-14.3739013671875,22.6552124023438,-62.820743560791,37.179256439209,27.3963947296143,0,0,0,0;1,1,0,4.80000019073486,-39.9999961853027,0.314999997615814,104,0,148,-12.1621704101562,2.99188232421875,-100,0,26.3488998413086,0,0,0,0;1,1,0,9.90000057220459,6.59999990463257,0.275999993085861,235,50.884838104248,191.595169067383,-6.26992797851562,5.4552001953125,-78.3468780517578,21.6531219482422,20.9790744781494,0,0,0,0;1,1,2,2.36563158035278,-15.9744558334351,0,174,139,97,0,25,-42.1264381408691,25.6254768371582,25,0,0,0,0" />
	<E K="Contrast" V="3.20000004768372" />
	<E K="DehazeAmount" V="0" />
	<E K="DehazeColor" V="0;0;0" />
	<E K="FilmGrainAmount" V="0" />
	<E K="FilmGrainDensity" V="0" />
	<E K="FilmGrainGranularity" V="50" />
	<E K="FilmGrainType" V="0" />
	<E K="GradationCurve" V="0,0.0156859997659922;0.168626993894577,0.200000002980232;0.337636470794678,0.357618927955627;0.529411971569061,0.494118005037308;0.709751725196838,0.634139716625214;0.870588004589081,0.768626987934113;0.965434432029724,0.879046499729156" />
	<E K="GradationCurveBlue" V="0,0.00784299988299608;0.168626993894577,0.141176000237465;0.337255001068115,0.305882006883621;0.529411971569061,0.552941024303436;0.717647016048431,0.776471018791199;0.870588004589081,0.913725018501282;1,1" />
	<E K="GradationCurveGreen" V="0,0;0.168626993894577,0.129411995410919;0.337255001068115,0.305882006883621;0.529411971569061,0.556863009929657;0.717647016048431,0.780391991138458;0.870588004589081,0.913725018501282;1,0.996078014373779" />
	<E K="GradationCurveRed" V="0,0;0.168626993894577,0.117646999657154;0.337255001068115,0.294117987155914;0.529411971569061,0.556863009929657;0.717647016048431,0.780391991138458;0.870588004589081,0.913725018501282;1,0.996078014373779" />
	<E K="GradationCurveY" V="0,0;0.200000002980232,0.200000002980232;0.400000005960464,0.389999985694885;0.600000023841858,0.586000025272369;0.800000011920929,0.78600001335144;1,1" />
	<E K="Highlight" V="1;1;1;1" />
	<E K="HighlightRecoveryEx" V="-10" />
	<E K="LensAperture" V="-14884364288" />
	<E K="LensChromaFringing" V="|||||" />
	<E K="LensFocalLength" V="4.58743078266015e-41" />
	<E K="LensGeoAbr" V="|0.000000|1|0|0" />
	<E K="LensLCCDustRemovalEnabled" V="0" />
	<E K="LensLightFallOff" V="|0|1" />
	<E K="LensRadialBlur" V="||0|1" />
	<E K="LensShift" V="0" />
	<E K="LensShiftDirection" V="0" />
	<E K="LensShiftXY" V="0;3.85197789738703e-34" />
	<E K="LensTilt" V="0" />
	<E K="LensTiltDirection" V="0" />
	<E K="Midtone" V="0;0;0;-0.0316387414932251" />
	<E K="Name" V="Presetpro - Rustic Charm" />
	<E K="Saturation" V="-15" />
	<E K="Shadow" V="0;0;0;0.0311339516192675" />
	<E K="ShadowRecovery" V="8" />
	<E K="TargetHighlight" V="1;1;1;0.980714559555054" />
	<E K="TargetShadow" V="0;0;0;0" />
	<E K="UsmAmount" V="10" />
	<E K="UsmRadius" V="1" />
	<E K="UUID" V="81D79EF6-0F87-452D-883E-76C82734E688" />
	<E K="WhiteRecovery" V="0" />
</SL>
