Customs/Stargazer.costyle
<?xml version="1.0"?>
<SL Engine="1300">
	<E K="Brightness" V="-3.93792223930359" />
	<E K="Clarity" V="0" />
	<E K="ClarityMethod" V="0" />
	<E K="ClarityStructure" V="0" />
	<E K="CnrAmount" V="25" />
	<E K="ColorBalance" V="1;1;1" />
	<E K="ColorBalanceHighlight" V="1.05831956863403;1.01484000682831;0.984055995941162" />
	<E K="ColorBalanceMidtone" V="0.848581373691559;0.941107511520386;0.990693926811218" />
	<E K="ColorBalanceShadow" V="0.989370465278625;0.989526510238647;1" />
	<E K="ColorCorrections" V="1,1,0,3.59999990463257,-10.2000007629395,-0.850000023841858,237,45.3288917541504,66.479118347168,-9.59939575195312,9.18455505371094,-80.8738861083984,19.1261138916016,25.9748382568359,0,0,0,0;1,1,0,0,-2.5,-0.219999998807907,255,130,12,0,4.55426025390625,-95.2941207885742,4.70587921142578,18.2099227905273,0,0,0,0;1,1,0,2.70000004768372,0,-0.509999990463257,255,225.91796875,36.1078147888184,-5.1807861328125,1.47015380859375,-85.8400726318359,14.1599273681641,20.3872756958008,0,0,0,0;1,1,0,2.70000004768372,-6.6000018119812,-0.649999976158142,58.8606338500977,208,10.4000005722046,-33.7201843261719,32.3572998046875,-95,5,23.2739639282227,0,0,0,0;1,1,0,2.09999990463257,7.80000019073486,-0.927999973297119,22.6761436462402,216,177.109222412109,-4.34454345703125,5.92352294921875,-89.5017852783203,10.4982147216797,28.4633140563965,0,0,0,0;1,1,0,0.899999976158142,8.5,-0.850000023841858,61.345775604248,87.8979263305664,165,-14.3739013671875,22.6552124023438,-62.820743560791,37.179256439209,27.3963947296143,0,0,0,0;1,1,0,2.09999990463257,-12,-0.490000009536743,104,0,148,-12.1621704101562,2.99188232421875,-100,0,26.3488998413086,0,0,0,0;1,1,0,0,-16.1000022888184,-0.479999989271164,235,50.884838104248,191.595169067383,-6.26992797851562,5.4552001953125,-78.3468780517578,21.6531219482422,20.9790744781494,0,0,0,0;1,1,2,2.36563158035278,-15.9744558334351,0,174,139,97,0,25,-42.1264381408691,25.6254768371582,23.9998588562012,0,0,0,0" />
	<E K="Contrast" V="0.419763505458832" />
	<E K="GradationCurve" V="0,0;0.510830938816071,0.519451558589935;1,1" />
	<E K="GradationCurveBlue" V="0,0;0.172548994421959,0.121569000184536;0.317647010087967,0.274509996175766;0.50196099281311,0.529411971569061;0.768626987934113,0.823529005050659;1,1" />
	<E K="GradationCurveGreen" V="0,0;0.19607800245285,0.149020001292229;0.309803992509842,0.258823990821838;0.482353001832962,0.533333003520966;0.760783970355988,0.847059011459351;1,1" />
	<E K="GradationCurveRed" V="0,0;0.19607800245285,0.137254998087883;0.294117987155914,0.258823990821838;0.607842981815338,0.694118022918701;1,1" />
	<E K="GradationCurveY" V="0,0;0.200000002980232,0.209000006318092;0.369445443153381,0.367763966321945;0.509520053863525,0.490401446819305;0.800000011920929,0.787400007247925;1,1" />
	<E K="Highlight" V="1;1;1;1" />
	<E K="HighlightRecoveryEx" V="-49.9839515686035" />
	<E K="Midtone" V="0;0;0;0.033153772354126" />
	<E K="Name" V="Presetpro - Stargazer" />
	<E K="NoiseDetailsAmount" V="50" />
	<E K="NrAmount" V="0" />
	<E K="Shadow" V="0;0;0;0.0185222551226616" />
	<E K="ShadowRecovery" V="25.3586158752441" />
	<E K="TargetHighlight" V="1;1;1;1" />
	<E K="TargetShadow" V="0;0;0;0" />
	<E K="UsmAmount" V="25" />
	<E K="UsmRadius" V="1" />
	<E K="UUID" V="F159161C-3AE1-434C-8AA3-41D47CD896E3" />
	<E K="Vignetting" V="-0.311092346906662|1|0|1" />
	<E K="WhiteRecovery" V="19.7353610992432" />
</SL>
