Customs/Stylish.costyle
<?xml version="1.0"?>
<SL Engine="1300">
	<E K="Clarity" V="0" />
	<E K="ClarityMethod" V="2" />
	<E K="ClarityStructure" V="0" />
	<E K="ColorBalance" V="1;1;1" />
	<E K="ColorBalanceHighlight" V="0.887499988079071;0.887499988079071;0.887499988079071" />
	<E K="ColorBalanceMidtone" V="1.06951904296875;1.06951904296875;1.06951904296875" />
	<E K="ColorBalanceShadow" V="0.829999983310699;0.829999983310699;0.829999983310699" />
	<E K="ColorCorrections" V="1,1,0,6.59999990463257,-6.6000018119812,0,237,45.3288917541504,66.479118347168,-9.59939575195312,9.18455505371094,-80.8738861083984,19.1261138916016,25.9748382568359,0,0,0,0;1,1,0,0,0,-0.395999997854233,255,130,12,0,4.55426025390625,-95.2941207885742,4.70587921142578,18.2099227905273,0,0,0,0;1,1,0,3.59999990463257,-12.8000030517578,0,255,225.91796875,36.1078147888184,-5.1807861328125,1.47015380859375,-85.8400726318359,14.1599273681641,20.3872756958008,0,0,0,0;1,1,0,5.40000009536743,-34.9799995422363,0,58.8606338500977,208,10.4000005722046,-33.7201843261719,32.3572998046875,-95,5,23.2739639282227,0,0,0,0;1,1,0,0,-17.8199996948242,0.263999998569489,22.6761436462402,216,177.109222412109,-4.34454345703125,5.92352294921875,-89.5017852783203,10.4982147216797,28.4633140563965,0,0,0,0;1,1,0,-3.90000009536743,-12.9800033569336,0.104999996721745,61.345775604248,87.8979263305664,165,-14.3739013671875,22.6552124023438,-62.820743560791,37.179256439209,27.3963947296143,0,0,0,0;1,1,0,3.90000009536743,-51,1.13399994373322,104,0,148,-12.1621704101562,2.99188232421875,-100,0,26.3488998413086,0,0,0,0;1,1,0,12.3000001907349,-15.4000015258789,0,235,50.884838104248,191.595169067383,-6.26992797851562,5.4552001953125,-78.3468780517578,21.6531219482422,20.9790744781494,0,0,0,0;1,1,2,2.36563158035278,-15.9744558334351,0,174,139,97,0,25,-42.1264381408691,25.6254768371582,25,0,0,0,0" />
	<E K="Contrast" V="0" />
	<E K="GradationCurve" V="0,0;0.117646999657154,0.141176000237465;0.466666996479034,0.482353001832962;1,1" />
	<E K="GradationCurveBlue" V="0,0;0.0901959985494614,0.0745100006461143;0.203922003507614,0.180391997098923;0.337255001068115,0.321568995714188;0.486274987459183,0.490195989608765;0.623529016971588,0.64705902338028;0.752941012382507,0.784313976764679;0.878431022167206,0.894118010997772;1,1" />
	<E K="GradationCurveGreen" V="0,0;0.0901959985494614,0.0705880001187325;0.203922003507614,0.168626993894577;0.337255001068115,0.305882006883621;0.486274987459183,0.478430986404419;0.623529016971588,0.635294020175934;0.752941012382507,0.772548973560333;0.878431022167206,0.890196025371552;1,1" />
	<E K="GradationCurveRed" V="0,0;0.0901959985494614,0.0666669979691505;0.203922003507614,0.168626993894577;0.337255001068115,0.313726007938385;0.486274987459183,0.490195989608765;0.623529016971588,0.635294020175934;0.752941012382507,0.768626987934113;0.878431022167206,0.898038983345032;1,1" />
	<E K="GradationCurveY" V="0,0;0.200000002980232,0.212500005960464;0.400000005960464,0.403750002384186;0.600000023841858,0.592999994754791;0.800000011920929,0.792999982833862;1,1" />
	<E K="Highlight" V="1;1;1;1" />
	<E K="HighlightRecoveryEx" V="-5" />
	<E K="Midtone" V="0;0;0;0.00365000008605421" />
	<E K="Name" V="Presetpro - Stylish" />
	<E K="Saturation" V="0" />
	<E K="Shadow" V="0;0;0;0" />
	<E K="ShadowRecovery" V="16" />
	<E K="StyleSource" V="Styles" />
	<E K="TargetHighlight" V="1;1;1;0.983430027961731" />
	<E K="TargetShadow" V="0;0;0;0" />
	<E K="UsmAmount" V="25" />
	<E K="UsmRadius" V="1" />
	<E K="UUID" V="8552766F-0CB8-496B-A55D-C9FB663D22CB" />
</SL>
