Customs/Terracotta.costyle
<?xml version="1.0"?>
<SL Engine="1300">
	<E K="Clarity" V="0" />
	<E K="ClarityMethod" V="1" />
	<E K="ClarityStructure" V="0" />
	<E K="CnrAmount" V="25" />
	<E K="ColorBalance" V="1;0.983330011367798;0.979197025299072" />
	<E K="ColorBalanceHighlight" V="1.02564096450806;1.0072203874588;0.969253361225128" />
	<E K="ColorBalanceMidtone" V="1.05263197422028;1.04426610469818;1.02758121490479" />
	<E K="ColorBalanceShadow" V="0.954999983310699;0.934041023254395;0.917473018169403" />
	<E K="ColorCorrections" V="1,1,0,3,-7.20000076293945,-1.10000002384186,237,45.3288917541504,66.479118347168,-9.59939575195312,9.18455505371094,-80.8738861083984,19.1261138916016,25.9748382568359,0,0,0,0;1,1,0,-0.899999976158142,-3.5,0,255,130,12,0,4.55426025390625,-95.2941207885742,4.70587921142578,18.2099227905273,0,0,0,0;1,1,0,0,0,0,255,225.91796875,36.1078147888184,-5.1807861328125,1.47015380859375,-85.8400726318359,14.1599273681641,20.3872756958008,0,0,0,0;1,1,0,5.69999980926514,-22.439998626709,-0.649999976158142,58.8606338500977,208,10.4000005722046,-33.7201843261719,32.3572998046875,-95,5,23.2739639282227,0,0,0,0;1,1,0,-0.299998998641968,-10.2599983215332,0,22.6761436462402,216,177.109222412109,-4.34454345703125,5.92352294921875,-89.5017852783203,10.4982147216797,28.4633140563965,0,0,0,0;1,1,0,0.899999976158142,0,-0.600000023841858,61.345775604248,87.8979263305664,165,-14.3739013671875,22.6552124023438,-62.820743560791,37.179256439209,27.3963947296143,0,0,0,0;1,1,0,8.39999961853027,-8,-0.839999973773956,104,0,148,-12.1621704101562,2.99188232421875,-100,0,26.3488998413086,0,0,0,0;1,1,0,3.90000009536743,-12.6000022888184,-2.16000008583069,235,50.884838104248,191.595169067383,-6.26992797851562,5.4552001953125,-78.3468780517578,21.6531219482422,20.9790744781494,0,0,0,0;1,1,2,2.36563158035278,-15.2122087478638,0,189.958770751953,146.126113891602,93.5269393920898,-2.00004959106445,24.9999580383301,-48.638240814209,19.1137161254883,25,0,0,0,0" />
	<E K="Contrast" V="0" />
	<E K="FilmGrainAmount" V="10" />
	<E K="FilmGrainDensity" V="0" />
	<E K="FilmGrainGranularity" V="50" />
	<E K="FilmGrainType" V="2" />
	<E K="GradationCurve" V="0,0;0.200356066226959,0.221731126308441;0.49803900718689,0.49803900718689;0.752941012382507,0.745097994804382;1,1" />
	<E K="GradationCurveBlue" V="0,0;0.101961001753807,0.0666669979691505;0.215685993432999,0.164706006646156;0.352941006422043,0.337255001068115;0.49803900718689,0.533333003520966;0.63137298822403,0.698038995265961;0.756862998008728,0.82745099067688;0.878431022167206,0.921568989753723;1,1" />
	<E K="GradationCurveGreen" V="0,0;0.101961001753807,0.0627449974417686;0.215685993432999,0.164706006646156;0.352941006422043,0.333332985639572;0.49803900718689,0.525489985942841;0.63137298822403,0.682353019714355;0.756862998008728,0.80392199754715;0.878431022167206,0.905882000923157;1,1" />
	<E K="GradationCurveRed" V="0,0;0.101961001753807,0.0666669979691505;0.215685993432999,0.168626993894577;0.352941006422043,0.341176003217697;0.49803900718689,0.529411971569061;0.63137298822403,0.67843097448349;0.756862998008728,0.800000011920929;0.878431022167206,0.901961028575897;1,1" />
	<E K="GradationCurveY" V="0,0;0.200000002980232,0.210999995470047;0.400000005960464,0.396699994802475;0.600000023841858,0.58459997177124;0.800000011920929,0.784600019454956;1,1" />
	<E K="Highlight" V="1;1;1;0.976648986339569" />
	<E K="HighlightRecoveryEx" V="-11" />
	<E K="Midtone" V="0;0;0;-0.0222448110580444" />
	<E K="Name" V="Presetpro - Terracotta" />
	<E K="NoiseDetailsAmount" V="50" />
	<E K="NrAmount" V="0" />
	<E K="Saturation" V="0" />
	<E K="Shadow" V="0;0;0;0" />
	<E K="ShadowRecovery" V="14.4000005722046" />
	<E K="StyleSource" V="Styles" />
	<E K="TargetHighlight" V="1;1;1;1" />
	<E K="TargetShadow" V="0;0;0;0" />
	<E K="UsmAmount" V="53.1909713745117" />
	<E K="UsmRadius" V="1.20000004768372" />
	<E K="UUID" V="D8A9EC18-4C44-47C9-A89F-BB0A252DBB67" />
	<E K="WhiteBalance" V="2.43400001525879;1;1.60199999809265" />
	<E K="WhiteBalanceTemperature" V="5383.4541015625" />
	<E K="WhiteBalanceTint" V="-0.896832883358002" />
</SL>
