Customs/Tinseltown.costyle
<?xml version="1.0"?>
<SL Engine="1300">
	<E K="Clarity" V="0" />
	<E K="ClarityMethod" V="2" />
	<E K="ClarityStructure" V="0" />
	<E K="ColorBalance" V="1;1;1" />
	<E K="ColorBalanceHighlight" V="1;1;1" />
	<E K="ColorBalanceMidtone" V="1;1;1" />
	<E K="ColorBalanceShadow" V="1;1;1" />
	<E K="ColorCorrections" V="1,1,0,4.19999980926514,-7.20000076293945,-0.850000023841858,237,45.3288917541504,66.479118347168,-9.59939575195312,9.18455505371094,-80.8738861083984,19.1261138916016,25.9748382568359,0,0,0,0;1,1,0,0,-1.5,-0.219999998807907,255,130,12,0,4.55426025390625,-95.2941207885742,4.70587921142578,18.2099227905273,0,0,0,0;1,1,0,1.5,0,0,255,225.91796875,36.1078147888184,-5.1807861328125,1.47015380859375,-85.8400726318359,14.1599273681641,20.3872756958008,0,0,0,0;1,1,0,2.40000009536743,-7.92000198364258,-0.649999976158142,58.8606338500977,208,10.4000005722046,-33.7201843261719,32.3572998046875,-95,5,23.2739639282227,0,0,0,0;1,1,0,2.40000009536743,0,-0.579999983310699,22.6761436462402,216,177.109222412109,-4.34454345703125,5.92352294921875,-89.5017852783203,10.4982147216797,28.4633140563965,0,0,0,0;1,1,0,2.40000009536743,-0.589999973773956,-0.649999976158142,61.345775604248,87.8979263305664,165,-14.3739013671875,22.6552124023438,-62.820743560791,37.179256439209,27.3963947296143,0,0,0,0;1,1,0,2.40000009536743,-12,-0.560000002384186,104,0,148,-12.1621704101562,2.99188232421875,-100,0,26.3488998413086,0,0,0,0;1,1,0,3,-11.9000015258789,-0.800000011920929,235,50.884838104248,191.595169067383,-6.26992797851562,5.4552001953125,-78.3468780517578,21.6531219482422,20.9790744781494,0,0,0,0;1,1,2,2.36563158035278,-15.9744558334351,0,174,139,97,0,25,-42.1264381408691,25.6254768371582,25,0,0,0,0" />
	<E K="Contrast" V="0" />
	<E K="GradationCurve" V="0,0.0196080002933741;0.192157000303268,0.207843005657196;0.349020004272461,0.372548997402191;0.494118005037308,0.49803900718689;0.627451002597809,0.619607985019684;0.756862998008728,0.745097994804382;0.882353007793427,0.874509990215302;1,0.992156982421875" />
	<E K="GradationCurveBlue" V="0,0;0.192157000303268,0.152941003441811;0.349020004272461,0.329412013292313;0.494118005037308,0.525489985942841;0.627451002597809,0.67451000213623;0.756862998008728,0.796078026294708;0.882353007793427,0.905882000923157;1,1" />
	<E K="GradationCurveGreen" V="0,0.00392200006172061;0.192157000303268,0.160784006118774;0.349020004272461,0.329412013292313;0.494118005037308,0.521569013595581;0.627451002597809,0.67058801651001;0.756862998008728,0.796078026294708;0.882353007793427,0.901961028575897;1,1" />
	<E K="GradationCurveRed" V="0,0.00392200006172061;0.192157000303268,0.160784006118774;0.349020004272461,0.333332985639572;0.494118005037308,0.525489985942841;0.627451002597809,0.682353019714355;0.756862998008728,0.811765015125275;0.882353007793427,0.913725018501282;1,1" />
	<E K="GradationCurveY" V="0,0;0.200000002980232,0.204999998211861;0.400000005960464,0.393500000238419;0.600000023841858,0.586000025272369;0.800000011920929,0.78600001335144;1,1" />
	<E K="Highlight" V="1;1;1;1" />
	<E K="HighlightRecoveryEx" V="-10" />
	<E K="Midtone" V="0;0;0;0" />
	<E K="Name" V="Presetpro - Tinseltown" />
	<E K="Saturation" V="5" />
	<E K="Shadow" V="0;0;0;0" />
	<E K="ShadowRecovery" V="16" />
	<E K="TargetHighlight" V="1;1;1;1" />
	<E K="TargetShadow" V="0;0;0;0" />
	<E K="UsmAmount" V="25" />
	<E K="UsmRadius" V="1" />
	<E K="UUID" V="4F7C44A9-794B-4373-8AD6-947BF6DFBA31" />
</SL>
